{"type":"map","version":"1.10","tiledversion":"1.11.0","orientation":"orthogonal","renderorder":"right-down","width":42,"height":20,"tilewidth":64,"tileheight":64,"infinite":false,"nextlayerid":5,"nextobjectid":80,"properties":[{"name":"theme","type":"string","value":"office"},{"name":"ambient","type":"int","value":0}],"tilesets":[{"firstgid":1,"name":"kenney","image":"../gen/tiles.png","imagewidth":1728,"imageheight":1280,"tilewidth":64,"tileheight":64,"tilecount":540,"columns":27,"margin":0,"spacing":0},{"firstgid":541,"name":"walls","image":"../gen/walls.png","imagewidth":1024,"imageheight":768,"tilewidth":64,"tileheight":64,"tilecount":192,"columns":16,"margin":0,"spacing":0}],"layers":[{"id":1,"name":"floor","type":"tilelayer","width":42,"height":20,"x":0,"y":0,"opacity":1,"visible":true,"data":[0,0,0,0,0,0,0,0,0,0,0,0,0,0,0,0,0,0,0,0,0,0,0,0,0,0,0,0,0,0,0,0,0,0,0,0,0,0,0,0,0,0,0,42,42,42,42,42,42,42,42,42,42,0,96,96,96,96,96,96,96,96,96,96,96,96,96,96,96,96,96,96,0,42,42,42,42,42,42,42,42,42,42,0,0,42,42,42,42,42,42,42,42,42,42,0,96,96,96,96,96,96,96,96,96,96,96,96,96,96,96,96,96,96,0,42,42,42,42,42,42,42,42,42,42,0,0,42,42,42,42,42,42,42,42,42,42,0,96,96,96,96,96,96,96,96,96,96,96,96,96,96,96,96,96,96,0,42,42,42,42,42,42,42,42,42,42,0,0,42,42,42,42,42,42,42,42,42,42,0,96,96,96,96,96,96,96,96,96,96,96,96,96,96,96,96,96,96,0,42,42,42,42,42,42,42,42,42,42,0,0,42,42,42,42,42,42,42,42,42,42,42,96,96,96,96,96,96,96,96,96,96,96,96,96,96,96,96,96,96,42,42,42,42,42,42,42,42,42,42,42,0,0,42,42,42,42,42,42,42,42,42,42,42,96,96,96,96,96,96,96,96,96,96,96,96,96,96,96,96,96,96,42,42,42,42,42,42,42,42,42,42,42,0,0,42,42,42,42,42,42,42,42,42,42,0,96,96,96,96,96,96,96,96,96,96,96,96,96,96,96,96,96,96,0,42,42,42,42,42,42,42,42,42,42,0,0,42,42,42,42,42,42,42,42,42,42,0,96,96,96,96,96,96,96,96,96,96,96,96,96,96,96,96,96,96,0,42,42,42,42,42,42,42,42,42,42,0,0,0,0,0,0,42,42,0,0,0,0,0,96,96,96,96,96,96,96,96,96,96,96,96,96,96,96,96,96,96,0,0,0,0,0,42,42,0,0,0,0,0,0,42,42,42,42,42,42,42,42,42,42,0,96,96,96,96,96,96,96,96,96,96,96,96,96,96,96,96,96,96,0,42,42,42,42,42,42,42,42,42,42,0,0,42,42,42,42,42,42,42,42,42,42,0,96,96,96,96,96,96,96,96,96,96,96,96,96,96,96,96,96,96,0,42,42,42,42,42,42,42,42,42,42,0,0,42,42,42,42,42,42,42,42,42,42,0,96,96,96,96,96,96,96,96,96,96,96,96,96,96,96,96,96,96,0,42,42,42,42,42,42,42,42,42,42,0,0,42,42,42,42,42,42,42,42,42,42,0,96,96,96,96,96,96,96,96,96,96,96,96,96,96,96,96,96,96,0,42,42,42,42,42,42,42,42,42,42,0,0,42,42,42,42,42,42,42,42,42,42,0,0,0,0,0,0,0,42,42,42,42,0,0,0,0,0,0,0,0,0,42,42,42,42,42,42,42,42,42,42,0,0,42,42,42,42,42,42,42,42,42,42,42,42,42,42,42,42,42,42,42,42,42,42,42,42,42,42,42,42,42,42,42,42,42,42,42,42,42,12,12,12,0,0,42,42,42,42,42,42,42,42,42,42,42,42,42,42,42,42,42,42,42,42,42,42,42,42,42,42,42,42,42,42,42,42,42,42,42,42,42,12,12,12,0,0,42,42,42,42,42,42,42,42,42,42,0,0,0,0,0,0,0,0,0,0,0,0,0,0,0,0,0,0,0,0,0,0,0,0,0,0,12,12,12,12,0,0,42,42,42,42,42,42,42,42,42,42,0,0,0,0,0,0,0,0,0,0,0,0,0,0,0,0,0,0,0,0,0,0,0,0,0,0,12,12,12,12,0,0,0,0,0,0,0,0,0,0,0,0,0,0,0,0,0,0,0,0,0,0,0,0,0,0,0,0,0,0,0,0,0,0,0,0,0,0,0,0,0,0,0]},{"id":2,"name":"decor","type":"tilelayer","width":42,"height":20,"x":0,"y":0,"opacity":1,"visible":true,"data":[0,0,0,0,0,0,0,0,0,0,0,0,0,0,0,0,0,0,0,0,0,0,0,0,0,0,0,0,0,0,0,0,0,0,0,0,0,0,0,0,0,0,0,0,0,0,0,0,0,0,0,0,0,0,0,0,0,0,0,0,0,0,0,0,0,0,0,0,0,0,0,0,0,0,0,0,0,0,0,0,0,0,0,0,0,0,0,0,0,0,0,0,0,0,0,0,0,0,0,0,0,0,0,0,0,0,0,0,0,0,0,0,0,0,0,0,0,0,0,0,0,0,0,0,0,0,0,0,0,0,0,0,0,0,0,0,0,0,0,0,0,0,0,0,0,0,0,0,0,0,0,0,0,0,0,0,0,0,0,0,0,0,0,0,0,0,0,0,0,0,0,0,0,0,0,0,0,0,0,0,0,0,0,0,0,0,0,0,0,0,0,0,0,0,0,0,0,0,0,0,0,0,0,0,0,0,0,0,0,0,0,0,0,0,0,0,0,0,0,0,0,0,0,0,0,0,0,0,0,0,0,0,0,0,0,0,0,0,0,0,0,0,0,0,0,0,0,0,0,0,0,0,0,0,0,0,0,0,0,0,0,0,0,0,0,0,0,0,0,0,0,0,0,0,0,0,0,0,0,0,0,0,0,0,0,0,0,0,0,0,0,0,0,0,0,0,0,0,0,0,0,0,0,0,0,0,0,0,0,0,0,0,0,0,0,0,0,0,0,0,0,0,0,0,0,0,0,0,0,0,0,0,0,0,0,0,0,0,0,0,0,0,0,0,0,0,0,0,0,0,0,0,0,0,0,0,0,0,0,0,0,0,0,0,0,0,0,0,0,0,0,0,0,0,0,0,0,0,0,0,0,0,0,0,0,0,0,0,0,0,0,0,0,0,0,0,0,0,0,0,0,0,0,0,0,0,0,0,0,0,0,0,0,0,0,0,0,0,0,0,0,0,0,0,0,0,0,0,0,0,0,0,0,0,0,0,0,0,0,0,0,0,0,0,0,0,0,0,0,0,0,0,0,0,0,0,0,0,0,0,0,0,0,0,0,0,0,0,0,0,0,0,0,0,0,0,0,0,0,0,0,0,0,0,0,0,0,0,0,0,0,0,0,0,0,0,0,0,0,0,0,0,0,0,0,0,0,0,0,0,0,0,0,0,0,0,0,0,0,0,0,0,0,0,0,0,0,0,0,0,0,0,0,0,0,0,0,0,0,0,0,0,0,0,0,0,0,0,0,0,0,0,0,0,0,0,0,0,0,0,0,0,0,0,0,0,0,0,0,0,0,0,0,0,0,0,0,0,0,0,0,0,0,0,0,0,0,0,0,0,0,0,0,0,0,0,0,0,0,0,0,0,0,0,0,0,0,0,0,0,0,0,0,0,0,0,0,0,0,0,0,0,0,0,0,0,0,0,0,0,0,0,0,0,0,0,0,0,0,0,0,0,0,0,0,0,0,0,0,0,0,0,0,0,0,0,0,0,0,0,0,0,0,0,0,0,0,0,0,0,0,0,0,0,0,0,0,0,0,0,0,0,0,0,0,0,0,0,0,0,0,0,0,0,0,0,0,0,0,0,0,0,0,0,0,0,0,0,0,0,0,0,0,0,0,0,0,0,0,0,0,0,0,0,0,0,0,0,0,0,0,0,0,0,0,0,0,0,0,0,0,0,0,0,0,0,0,0,0,0,0,0,0,0,0,0,0,0,0,0,0,0,0,0,0,0,0,0,0,0,0,0,0,0,0,0,0,0,0,0,0,0,0,0,0,0,0,0,0,0,0,0,0,0,0,0,0,0,0,0,0,0,0,0,0,0,0,0,0,0,0,0,0,0,0,0,0,0,0,0,0,0,0,0,0,0,0,0,0,0,0,0,0,0,0,0,0,0,0,0]},{"id":3,"name":"walls","type":"tilelayer","width":42,"height":20,"x":0,"y":0,"opacity":1,"visible":true,"data":[585,579,579,579,579,579,579,579,579,579,579,580,579,579,579,579,579,579,579,579,579,579,579,579,579,579,579,579,579,579,580,579,579,579,579,579,579,579,579,579,579,582,583,0,0,0,0,0,0,0,0,0,0,546,0,0,0,0,0,0,0,0,0,0,0,0,0,0,0,0,0,0,546,0,0,0,0,0,0,0,0,0,0,565,583,0,0,0,0,0,0,0,0,0,0,546,0,0,0,0,0,0,0,0,0,0,0,0,0,0,0,0,0,0,546,0,0,0,0,0,0,0,0,0,0,565,583,0,0,0,0,0,0,0,0,0,0,546,0,0,0,0,0,0,0,0,0,0,0,0,0,0,0,0,0,0,546,0,0,0,0,0,0,0,0,0,0,565,583,0,0,0,0,0,0,0,0,0,0,542,0,0,0,0,0,0,0,0,0,0,0,0,0,0,0,0,0,0,542,0,0,0,0,0,0,0,0,0,0,565,583,0,0,0,0,0,0,0,0,0,0,0,0,0,0,0,0,0,0,0,0,0,0,0,0,0,0,0,0,0,0,0,0,0,0,0,0,0,0,0,0,565,583,0,0,0,0,0,0,0,0,0,0,0,0,0,0,0,0,0,0,0,0,0,0,0,0,0,0,0,0,0,0,0,0,0,0,0,0,0,0,0,0,565,583,0,0,0,0,0,0,0,0,0,0,545,0,0,0,0,0,0,0,0,0,0,0,0,0,0,0,0,0,0,545,0,0,0,0,0,0,0,0,0,0,565,583,0,0,0,0,0,0,0,0,0,0,546,0,0,0,0,0,0,0,0,0,0,0,0,0,0,0,0,0,0,546,0,0,0,0,0,0,0,0,0,0,565,584,551,551,551,549,0,0,543,551,551,551,554,0,0,0,0,0,0,0,0,0,0,0,0,0,0,0,0,0,0,548,551,551,551,549,0,0,543,551,551,551,566,583,0,0,0,0,0,0,0,0,0,0,546,0,0,0,0,0,0,0,0,0,0,0,0,0,0,0,0,0,0,546,0,0,0,0,0,0,0,0,0,0,565,583,0,0,0,0,0,0,0,0,0,0,546,0,0,0,0,0,0,0,0,0,0,0,0,0,0,0,0,0,0,546,0,0,0,0,0,0,0,0,0,0,565,583,0,0,0,0,0,0,0,0,0,0,546,0,0,0,0,0,0,0,0,0,0,0,0,0,0,0,0,0,0,546,0,0,0,0,0,0,0,0,0,0,565,583,0,0,0,0,0,0,0,0,0,0,546,0,0,0,0,0,0,0,0,0,0,0,0,0,0,0,0,0,0,546,0,0,0,0,0,0,0,0,0,0,565,583,0,0,0,0,0,0,0,0,0,0,544,551,551,551,551,551,549,0,0,0,0,543,551,551,551,551,551,551,551,550,0,0,0,0,0,0,0,0,0,0,565,583,0,0,0,0,0,0,0,0,0,0,0,0,0,0,0,0,0,0,0,0,0,0,0,0,0,0,0,0,0,0,0,0,0,0,0,0,0,0,0,0,565,583,0,0,0,0,0,0,0,0,0,0,0,0,0,0,0,0,0,0,0,0,0,0,0,0,0,0,0,0,0,0,0,0,0,0,0,0,0,0,0,0,565,583,0,0,0,0,0,0,0,0,0,0,561,572,572,572,572,572,572,572,572,572,572,572,572,572,572,572,572,572,572,572,572,572,572,572,572,567,0,0,0,0,565,583,0,0,0,0,0,0,0,0,0,0,565,0,0,0,0,0,0,0,0,0,0,0,0,0,0,0,0,0,0,0,0,0,0,0,0,583,0,0,0,0,565,586,572,572,572,572,572,572,572,572,572,572,574,0,0,0,0,0,0,0,0,0,0,0,0,0,0,0,0,0,0,0,0,0,0,0,0,586,572,572,572,572,574]},{"id":4,"name":"objects","type":"objectgroup","draworder":"topdown","opacity":1,"visible":true,"x":0,"y":0,"objects":[{"id":1,"name":"door_w","type":"door","rotation":0,"visible":true,"x":728,"y":320,"width":16,"height":128,"properties":[{"name":"theme","type":"string","value":"office"},{"name":"dir","type":"string","value":"v"}]},{"id":2,"name":"door_e","type":"door","rotation":0,"visible":true,"x":1944,"y":320,"width":16,"height":128,"properties":[{"name":"theme","type":"string","value":"office"},{"name":"dir","type":"string","value":"v"}]},{"id":3,"name":"player","type":"spawn","rotation":0,"visible":true,"x":1344,"y":1024,"width":0,"height":0,"point":true},{"id":4,"name":"player","type":"spawn","rotation":0,"visible":true,"x":1408,"y":1024,"width":0,"height":0,"point":true},{"id":5,"name":"player","type":"spawn","rotation":0,"visible":true,"x":1280,"y":1024,"width":0,"height":0,"point":true},{"id":6,"name":"player","type":"spawn","rotation":0,"visible":true,"x":1472,"y":1024,"width":0,"height":0,"point":true},{"id":7,"name":"desk","type":"prop","rotation":0,"visible":true,"x":836,"y":162,"width":120,"height":60},{"id":8,"name":"office_chair","type":"prop","rotation":0,"visible":true,"x":878,"y":222,"width":36,"height":36},{"id":9,"name":"desk","type":"prop","rotation":0,"visible":true,"x":836,"y":418,"width":120,"height":60},{"id":10,"name":"office_chair","type":"prop","rotation":0,"visible":true,"x":878,"y":478,"width":36,"height":36},{"id":11,"name":"desk","type":"prop","rotation":0,"visible":true,"x":836,"y":674,"width":120,"height":60},{"id":12,"name":"office_chair","type":"prop","rotation":0,"visible":true,"x":878,"y":734,"width":36,"height":36},{"id":13,"name":"desk_b","type":"prop","rotation":0,"visible":true,"x":1092,"y":162,"width":120,"height":60},{"id":14,"name":"office_chair","type":"prop","rotation":0,"visible":true,"x":1134,"y":222,"width":36,"height":36},{"id":15,"name":"desk_b","type":"prop","rotation":0,"visible":true,"x":1092,"y":418,"width":120,"height":60},{"id":16,"name":"office_chair","type":"prop","rotation":0,"visible":true,"x":1134,"y":478,"width":36,"height":36},{"id":17,"name":"desk_b","type":"prop","rotation":0,"visible":true,"x":1092,"y":674,"width":120,"height":60},{"id":18,"name":"office_chair","type":"prop","rotation":0,"visible":true,"x":1134,"y":734,"width":36,"height":36},{"id":19,"name":"desk","type":"prop","rotation":0,"visible":true,"x":1348,"y":162,"width":120,"height":60},{"id":20,"name":"office_chair","type":"prop","rotation":0,"visible":true,"x":1390,"y":222,"width":36,"height":36},{"id":21,"name":"desk","type":"prop","rotation":0,"visible":true,"x":1348,"y":418,"width":120,"height":60},{"id":22,"name":"office_chair","type":"prop","rotation":0,"visible":true,"x":1390,"y":478,"width":36,"height":36},{"id":23,"name":"desk","type":"prop","rotation":0,"visible":true,"x":1348,"y":674,"width":120,"height":60},{"id":24,"name":"office_chair","type":"prop","rotation":0,"visible":true,"x":1390,"y":734,"width":36,"height":36},{"id":25,"name":"desk_b","type":"prop","rotation":0,"visible":true,"x":1604,"y":162,"width":120,"height":60},{"id":26,"name":"office_chair","type":"prop","rotation":0,"visible":true,"x":1646,"y":222,"width":36,"height":36},{"id":27,"name":"desk_b","type":"prop","rotation":0,"visible":true,"x":1604,"y":418,"width":120,"height":60},{"id":28,"name":"office_chair","type":"prop","rotation":0,"visible":true,"x":1646,"y":478,"width":36,"height":36},{"id":29,"name":"desk_b","type":"prop","rotation":0,"visible":true,"x":1604,"y":674,"width":120,"height":60},{"id":30,"name":"office_chair","type":"prop","rotation":0,"visible":true,"x":1646,"y":734,"width":36,"height":36},{"id":31,"name":"plant","type":"prop","rotation":0,"visible":true,"x":777.5,"y":76.5,"width":45,"height":39},{"id":32,"name":"plant","type":"prop","rotation":0,"visible":true,"x":1865.5,"y":76.5,"width":45,"height":39},{"id":33,"name":"water_cooler","type":"prop","rotation":0,"visible":true,"x":1871,"y":840.6,"width":34,"height":34},{"id":34,"name":"printer","type":"prop","rotation":0,"visible":true,"x":784.8,"y":829.2,"width":56,"height":44},{"id":35,"name":"server_rack","type":"prop","rotation":0,"visible":true,"x":66,"y":66,"width":60,"height":60},{"id":36,"name":"server_rack","type":"prop","rotation":0,"visible":true,"x":130,"y":66,"width":60,"height":60},{"id":37,"name":"server_rack","type":"prop","rotation":0,"visible":true,"x":194,"y":66,"width":60,"height":60},{"id":38,"name":"server_rack","type":"prop","rotation":0,"visible":true,"x":66,"y":258,"width":60,"height":60},{"id":39,"name":"server_rack","type":"prop","rotation":0,"visible":true,"x":130,"y":258,"width":60,"height":60},{"id":40,"name":"sofa_green","type":"prop","rotation":0,"visible":true,"x":264,"y":642.5,"width":176,"height":59},{"id":41,"name":"coffee_table","type":"prop","rotation":0,"visible":true,"x":327,"y":752,"width":50,"height":32},{"id":42,"name":"vending","type":"prop","rotation":0,"visible":true,"x":576,"y":643.6,"width":64,"height":44},{"id":43,"name":"table_big","type":"prop","rotation":0,"visible":true,"x":2242,"y":194,"width":188,"height":188},{"id":44,"name":"chair_1","type":"prop","rotation":0,"visible":true,"x":2217,"y":172,"width":46,"height":40,"properties":[{"name":"rot","type":"int","value":180}]},{"id":45,"name":"chair_1","type":"prop","rotation":0,"visible":true,"x":2313,"y":172,"width":46,"height":40,"properties":[{"name":"rot","type":"int","value":180}]},{"id":46,"name":"chair_2","type":"prop","rotation":0,"visible":true,"x":2409,"y":172,"width":46,"height":40,"properties":[{"name":"rot","type":"int","value":180}]},{"id":47,"name":"chair_1","type":"prop","rotation":0,"visible":true,"x":2217,"y":370.4,"width":46,"height":40},{"id":48,"name":"chair_1","type":"prop","rotation":0,"visible":true,"x":2313,"y":370.4,"width":46,"height":40},{"id":49,"name":"chair_2","type":"prop","rotation":0,"visible":true,"x":2409,"y":370.4,"width":46,"height":40},{"id":50,"name":"whiteboard","type":"prop","rotation":0,"visible":true,"x":2276,"y":65.6,"width":120,"height":16},{"id":51,"name":"crate","type":"prop","rotation":0,"visible":true,"x":2117,"y":709,"width":54,"height":54},{"id":52,"name":"crate_small","type":"prop","rotation":0,"visible":true,"x":2184.1,"y":762.8,"width":35,"height":36},{"id":53,"name":"crate_rot","type":"prop","rotation":0,"visible":true,"x":2497,"y":641,"width":62,"height":62},{"id":54,"name":"counter_a","type":"prop","rotation":0,"visible":true,"x":2560,"y":961,"width":64,"height":62},{"id":55,"name":"stove","type":"prop","rotation":0,"visible":true,"x":2560,"y":1025,"width":64,"height":62},{"id":56,"name":"sink","type":"prop","rotation":0,"visible":true,"x":2560,"y":1089,"width":64,"height":62},{"id":57,"name":"","type":"barrel","rotation":0,"visible":true,"x":2336,"y":736,"width":0,"height":0,"point":true},{"id":58,"name":"","type":"barrel","rotation":0,"visible":true,"x":416,"y":480,"width":0,"height":0,"point":true},{"id":59,"name":"","type":"barrel","rotation":0,"visible":true,"x":1312,"y":844.8,"width":0,"height":0,"point":true},{"id":60,"name":"weapon","type":"pickup","rotation":0,"visible":true,"x":1088,"y":1024,"width":0,"height":0,"point":true,"properties":[{"name":"weapon","type":"string","value":"smg"}]},{"id":61,"name":"weapon","type":"pickup","rotation":0,"visible":true,"x":1152,"y":1024,"width":0,"height":0,"point":true,"properties":[{"name":"weapon","type":"string","value":"shotgun"}]},{"id":62,"name":"weapon","type":"pickup","rotation":0,"visible":true,"x":1216,"y":1024,"width":0,"height":0,"point":true,"properties":[{"name":"weapon","type":"string","value":"rifle"}]},{"id":63,"name":"weapon","type":"pickup","rotation":0,"visible":true,"x":1536,"y":1024,"width":0,"height":0,"point":true,"properties":[{"name":"weapon","type":"string","value":"machinegun"}]},{"id":64,"name":"weapon","type":"pickup","rotation":0,"visible":true,"x":1600,"y":1024,"width":0,"height":0,"point":true,"properties":[{"name":"weapon","type":"string","value":"grenade"}]},{"id":65,"name":"weapon","type":"pickup","rotation":0,"visible":true,"x":1664,"y":1024,"width":0,"height":0,"point":true,"properties":[{"name":"weapon","type":"string","value":"flamethrower"}]},{"id":66,"name":"ammo","type":"pickup","rotation":0,"visible":true,"x":1376,"y":979.2,"width":0,"height":0,"point":true},{"id":67,"name":"health","type":"pickup","rotation":0,"visible":true,"x":1440,"y":979.2,"width":0,"height":0,"point":true},{"id":68,"name":"armor","type":"pickup","rotation":0,"visible":true,"x":1504,"y":979.2,"width":0,"height":0,"point":true},{"id":69,"name":"w","type":"spawner","rotation":0,"visible":true,"x":128,"y":832,"width":0,"height":0,"point":true},{"id":70,"name":"w","type":"spawner","rotation":0,"visible":true,"x":128,"y":448,"width":0,"height":0,"point":true},{"id":71,"name":"e","type":"spawner","rotation":0,"visible":true,"x":2560,"y":512,"width":0,"height":0,"point":true},{"id":72,"name":"e","type":"spawner","rotation":0,"visible":true,"x":2304,"y":832,"width":0,"height":0,"point":true},{"id":73,"name":"n","type":"spawner","rotation":0,"visible":true,"x":960,"y":128,"width":0,"height":0,"point":true},{"id":74,"name":"n","type":"spawner","rotation":0,"visible":true,"x":1728,"y":128,"width":0,"height":0,"point":true},{"id":75,"name":"s","type":"spawner","rotation":0,"visible":true,"x":192,"y":1152,"width":0,"height":0,"point":true},{"id":76,"name":"s","type":"spawner","rotation":0,"visible":true,"x":576,"y":1152,"width":0,"height":0,"point":true},{"id":77,"name":"normal","type":"enemy","rotation":0,"visible":true,"x":1024,"y":320,"width":0,"height":0,"point":true},{"id":78,"name":"normal","type":"enemy","rotation":0,"visible":true,"x":1536,"y":576,"width":0,"height":0,"point":true},{"id":79,"name":"fat","type":"enemy","rotation":0,"visible":true,"x":1280,"y":384,"width":0,"height":0,"point":true}]}]}