{"type":"map","version":"1.10","tiledversion":"1.11.0","orientation":"orthogonal","renderorder":"right-down","width":36,"height":28,"tilewidth":64,"tileheight":64,"infinite":false,"nextlayerid":5,"nextobjectid":49,"properties":[{"name":"theme","type":"string","value":"industrial"},{"name":"ambient","type":"float","value":0.4}],"tilesets":[{"firstgid":1,"name":"kenney","image":"../gen/tiles.png","imagewidth":1728,"imageheight":1280,"tilewidth":64,"tileheight":64,"tilecount":540,"columns":27,"margin":0,"spacing":0},{"firstgid":541,"name":"walls","image":"../gen/walls.png","imagewidth":1024,"imageheight":1536,"tilewidth":64,"tileheight":64,"tilecount":384,"columns":16,"margin":0,"spacing":0}],"layers":[{"id":1,"name":"floor","type":"tilelayer","width":36,"height":28,"x":0,"y":0,"opacity":1,"visible":true,"data":[0,0,0,0,0,0,0,0,0,0,0,0,0,0,0,0,0,0,0,0,0,0,0,0,0,0,0,0,0,0,0,0,0,0,0,0,0,86,86,86,86,86,86,86,86,86,86,86,86,86,86,86,86,86,86,86,86,86,86,86,86,86,86,86,86,86,86,86,86,86,86,0,0,86,86,86,86,86,86,86,86,86,86,86,86,86,86,86,86,86,86,86,86,86,86,86,86,86,86,86,86,86,86,86,86,86,86,0,0,86,86,86,86,86,86,86,86,86,86,86,86,86,86,86,86,86,86,86,86,86,86,86,86,86,86,86,86,86,86,86,86,86,86,0,0,86,86,86,86,86,86,86,86,86,86,86,86,86,86,86,86,86,86,86,86,86,86,86,86,86,86,86,86,86,86,86,86,86,86,0,0,86,86,86,86,86,86,86,86,86,86,86,86,86,86,86,86,86,86,86,86,86,86,86,86,86,86,86,86,86,86,86,86,86,86,0,0,86,86,86,86,86,86,86,86,86,86,86,86,86,86,86,86,86,86,86,86,86,86,86,86,86,86,86,86,86,86,86,86,86,86,0,0,86,86,86,86,86,86,86,0,0,86,86,86,86,86,86,86,86,86,86,86,86,86,86,86,86,0,0,86,86,86,86,86,86,86,0,0,86,86,86,86,86,86,86,0,0,86,86,86,86,87,87,87,87,87,87,87,87,86,86,86,86,0,0,86,86,86,86,86,86,86,0,0,86,86,86,86,86,86,86,86,86,86,86,86,86,87,87,87,87,87,87,87,87,86,86,86,86,86,86,86,86,86,86,86,86,86,0,0,86,86,86,86,86,86,86,86,86,86,86,86,86,87,87,87,87,87,87,87,87,86,86,86,86,86,86,86,86,86,86,86,86,86,0,0,86,86,86,86,86,86,86,86,86,86,86,86,86,87,87,87,87,87,87,87,87,86,86,86,86,86,86,86,86,86,86,86,86,86,0,0,86,86,86,86,86,86,86,86,86,86,86,86,86,87,87,87,87,87,87,87,87,86,86,86,86,86,86,86,86,86,86,86,86,86,0,0,86,86,86,86,86,86,86,86,86,86,86,86,86,87,87,87,87,87,87,87,87,86,86,86,86,86,86,86,86,86,86,86,86,86,0,0,86,86,86,86,86,86,86,86,86,86,86,86,86,87,87,87,87,87,87,87,87,86,86,86,86,86,86,86,86,86,86,86,86,86,0,0,86,86,86,86,86,86,86,86,86,86,86,86,86,87,87,87,87,87,87,87,87,86,86,86,86,86,86,86,86,86,86,86,86,86,0,0,86,86,86,86,86,86,86,86,86,86,86,86,86,86,86,86,86,86,86,86,86,86,86,86,86,86,86,86,86,86,86,86,86,86,0,0,86,86,86,86,86,86,86,86,86,86,86,86,86,86,86,86,86,86,86,86,86,86,86,86,86,86,86,86,86,86,86,86,86,86,0,0,86,86,86,86,86,86,86,86,86,86,86,86,86,86,86,86,86,86,86,86,86,86,86,86,86,86,86,86,86,86,86,86,86,86,0,0,86,86,86,86,86,86,86,0,0,86,86,86,86,86,86,86,86,86,86,86,86,86,86,86,86,0,0,86,86,86,86,86,86,86,0,0,86,86,86,86,86,86,86,0,0,86,86,86,86,86,86,86,86,86,86,86,86,86,86,86,86,0,0,86,86,86,86,86,86,86,0,0,86,86,86,86,86,86,86,86,86,86,86,86,86,86,86,86,86,86,86,86,86,86,86,86,86,86,86,86,86,86,86,86,86,86,0,0,86,86,86,86,86,86,86,86,86,86,86,86,86,86,86,86,86,86,86,86,86,86,86,86,86,86,86,86,86,86,86,86,86,86,0,0,86,86,86,86,86,86,86,86,86,86,86,86,86,86,86,86,86,86,86,86,86,86,86,86,86,86,86,86,86,86,86,86,86,86,0,0,86,86,86,86,86,86,86,86,86,86,86,86,86,86,86,86,86,86,86,86,86,86,86,86,86,86,86,86,86,86,86,86,86,86,0,0,86,86,86,86,86,86,86,86,86,86,86,86,86,86,86,86,86,86,86,86,86,86,86,86,86,86,86,86,86,86,86,86,86,86,0,0,86,86,86,86,86,86,86,86,86,86,86,86,86,86,86,86,86,86,86,86,86,86,86,86,86,86,86,86,86,86,86,86,86,86,0,0,0,0,0,0,0,0,0,0,0,0,0,0,0,0,0,0,0,0,0,0,0,0,0,0,0,0,0,0,0,0,0,0,0,0,0]},{"id":2,"name":"decor","type":"tilelayer","width":36,"height":28,"x":0,"y":0,"opacity":1,"visible":true,"data":[0,0,0,0,0,0,0,0,0,0,0,0,0,0,0,0,0,0,0,0,0,0,0,0,0,0,0,0,0,0,0,0,0,0,0,0,0,0,0,0,0,0,0,0,0,0,0,0,0,0,0,0,0,0,0,0,0,0,0,0,0,0,0,0,0,0,0,0,0,0,0,0,0,0,0,0,0,0,0,0,0,0,0,0,0,0,0,0,0,0,0,0,0,0,0,0,0,0,0,0,0,0,0,0,0,0,0,0,0,0,0,0,0,0,0,0,0,0,0,0,0,0,0,0,0,0,0,0,0,0,0,0,0,0,0,0,0,0,0,0,0,0,0,0,0,0,0,0,0,0,0,0,0,0,0,0,0,0,0,0,0,0,0,0,0,0,0,0,0,0,0,0,0,0,0,0,0,0,0,0,0,0,0,0,0,0,0,0,0,0,0,0,0,0,0,0,0,0,0,0,0,0,0,0,0,0,0,0,0,0,0,0,0,0,0,0,0,0,0,0,0,0,0,0,0,0,0,0,0,0,0,0,0,0,0,0,0,0,0,0,0,0,0,0,0,0,0,0,0,0,0,0,0,0,0,0,0,0,0,0,0,0,0,0,0,0,0,0,0,0,0,0,0,0,0,0,0,0,0,0,0,0,0,0,0,0,0,0,0,0,0,0,0,0,0,0,0,0,0,0,0,0,0,0,0,0,0,0,0,0,0,0,0,0,0,0,0,0,0,0,0,0,0,0,0,0,0,0,0,0,0,0,0,0,0,0,0,0,0,0,0,0,0,0,0,0,0,0,0,0,0,0,0,0,0,0,0,0,0,0,0,0,0,0,0,0,0,0,0,0,0,0,0,0,0,0,0,0,0,0,0,0,0,0,0,0,0,0,0,0,0,0,0,0,0,0,0,0,0,0,0,0,0,0,0,0,0,0,0,0,0,0,0,0,0,0,0,0,0,0,0,0,0,0,0,0,0,0,0,0,0,0,0,0,0,0,0,0,0,0,0,0,0,0,0,0,0,0,0,0,0,0,0,0,0,0,0,0,0,0,0,0,0,0,0,0,0,0,0,0,0,0,0,0,0,0,0,0,0,0,0,0,0,0,0,0,0,0,0,0,0,0,0,0,0,0,0,0,0,0,0,0,0,0,0,0,0,0,0,0,0,0,0,0,0,0,0,0,0,0,0,0,0,0,0,0,0,0,0,0,0,0,0,0,0,0,0,0,0,0,0,0,0,0,0,0,0,0,0,0,0,0,0,0,0,0,0,0,0,0,0,0,0,0,0,0,0,0,0,0,0,0,0,0,0,0,0,0,0,0,0,0,0,0,0,0,0,0,0,0,0,0,0,0,0,0,0,0,0,0,0,0,0,0,0,0,0,0,0,0,0,0,0,0,0,0,0,0,0,0,0,0,0,0,0,0,0,0,0,0,0,0,0,0,0,0,0,0,0,0,0,0,0,0,0,0,0,0,0,0,0,0,0,0,0,0,0,0,0,0,0,0,0,0,0,0,0,0,0,0,0,0,0,0,0,0,0,0,0,0,0,0,0,0,0,0,0,0,0,0,0,0,0,0,0,0,0,0,0,0,0,0,0,0,0,0,0,0,0,0,0,0,0,0,0,0,0,0,0,0,0,0,0,0,0,0,0,0,0,0,0,0,0,0,0,0,0,0,0,0,0,0,0,0,0,0,0,0,0,0,0,0,0,0,0,0,0,0,0,0,0,0,0,0,0,0,0,0,0,0,0,0,0,0,0,0,0,0,0,0,0,0,0,0,0,0,0,0,0,0,0,0,0,0,0,0,0,0,0,0,0,0,0,0,0,0,0,0,0,0,0,0,0,0,0,0,0,0,0,0,0,0,0,0,0,0,0,0,0,0,0,0,0,0,0,0,0,0,0,0,0,0,0,0,0,0,0,0,0,0,0,0,0,0,0,0,0,0,0,0,0,0,0,0,0,0,0,0,0,0,0,0,0,0,0,0,0,0,0,0,0,0,0,0,0,0,0,0,0,0,0,0,0,0,0,0,0,0,0,0,0,0,0,0,0,0,0,0,0,0,0,0,0,0,0,0,0,0,0,0,0,0,0,0,0,0,0,0,0,0,0,0,0,0,0,0,0,0,0,0,0,0,0,0,0,0,0,0,0,0,0,0,0,0,0,0,0,0,0,0,0,0,0,0,0,0,0,0,0,0,0,0,0,0,0,0,0,0,0,0,0,0,0,0,0,0,0,0,0,0,0,0,0,0,0,0,0,0,0,0,0,0,0,0,0,0,0,0]},{"id":3,"name":"walls","type":"tilelayer","width":36,"height":28,"x":0,"y":0,"opacity":1,"visible":true,"data":[681,675,675,675,675,675,675,675,675,675,675,675,675,675,675,675,675,675,675,675,675,675,675,675,675,675,675,675,675,675,675,675,675,675,675,678,679,0,0,0,0,0,0,0,0,0,0,0,0,0,0,0,0,0,0,0,0,0,0,0,0,0,0,0,0,0,0,0,0,0,0,661,679,0,0,0,0,0,0,0,0,0,0,0,0,0,0,0,0,0,0,0,0,0,0,0,0,0,0,0,0,0,0,0,0,0,0,661,679,0,0,0,0,0,0,0,0,0,0,0,0,0,0,0,0,0,0,0,0,0,0,0,0,0,0,0,0,0,0,0,0,0,0,661,679,0,0,0,0,0,0,0,0,0,0,0,0,0,0,0,0,0,0,0,0,0,0,0,0,0,0,0,0,0,0,0,0,0,0,661,679,0,0,0,0,0,0,0,0,0,0,0,0,0,0,0,0,0,0,0,0,0,0,0,0,0,0,0,0,0,0,0,0,0,0,661,679,0,0,0,0,0,0,0,0,0,0,0,0,0,0,0,0,0,0,0,0,0,0,0,0,0,0,0,0,0,0,0,0,0,0,661,679,0,0,0,0,0,0,0,657,663,0,0,0,0,0,0,0,0,0,0,0,0,0,0,0,0,657,663,0,0,0,0,0,0,0,661,679,0,0,0,0,0,0,0,653,671,0,0,0,0,0,0,0,0,0,0,0,0,0,0,0,0,653,671,0,0,0,0,0,0,0,661,679,0,0,0,0,0,0,0,0,0,0,0,0,0,0,0,0,0,0,0,0,0,0,0,0,0,0,0,0,0,0,0,0,0,0,661,679,0,0,0,0,0,0,0,0,0,0,0,0,0,0,0,0,0,0,0,0,0,0,0,0,0,0,0,0,0,0,0,0,0,0,661,679,0,0,0,0,0,0,0,0,0,0,0,0,0,0,0,0,0,0,0,0,0,0,0,0,0,0,0,0,0,0,0,0,0,0,661,679,0,0,0,0,0,0,0,0,0,0,0,0,0,0,0,0,0,0,0,0,0,0,0,0,0,0,0,0,0,0,0,0,0,0,661,679,0,0,0,0,0,0,0,0,0,0,0,0,0,0,0,0,0,0,0,0,0,0,0,0,0,0,0,0,0,0,0,0,0,0,661,679,0,0,0,0,0,0,0,0,0,0,0,0,0,0,0,0,0,0,0,0,0,0,0,0,0,0,0,0,0,0,0,0,0,0,661,679,0,0,0,0,0,0,0,0,0,0,0,0,0,0,0,0,0,0,0,0,0,0,0,0,0,0,0,0,0,0,0,0,0,0,661,679,0,0,0,0,0,0,0,0,0,0,0,0,0,0,0,0,0,0,0,0,0,0,0,0,0,0,0,0,0,0,0,0,0,0,661,679,0,0,0,0,0,0,0,0,0,0,0,0,0,0,0,0,0,0,0,0,0,0,0,0,0,0,0,0,0,0,0,0,0,0,661,679,0,0,0,0,0,0,0,0,0,0,0,0,0,0,0,0,0,0,0,0,0,0,0,0,0,0,0,0,0,0,0,0,0,0,661,679,0,0,0,0,0,0,0,657,663,0,0,0,0,0,0,0,0,0,0,0,0,0,0,0,0,657,663,0,0,0,0,0,0,0,661,679,0,0,0,0,0,0,0,653,671,0,0,0,0,0,0,0,0,0,0,0,0,0,0,0,0,653,671,0,0,0,0,0,0,0,661,679,0,0,0,0,0,0,0,0,0,0,0,0,0,0,0,0,0,0,0,0,0,0,0,0,0,0,0,0,0,0,0,0,0,0,661,679,0,0,0,0,0,0,0,0,0,0,0,0,0,0,0,0,0,0,0,0,0,0,0,0,0,0,0,0,0,0,0,0,0,0,661,679,0,0,0,0,0,0,0,0,0,0,0,0,0,0,0,0,0,0,0,0,0,0,0,0,0,0,0,0,0,0,0,0,0,0,661,679,0,0,0,0,0,0,0,0,0,0,0,0,0,0,0,0,0,0,0,0,0,0,0,0,0,0,0,0,0,0,0,0,0,0,661,679,0,0,0,0,0,0,0,0,0,0,0,0,0,0,0,0,0,0,0,0,0,0,0,0,0,0,0,0,0,0,0,0,0,0,661,679,0,0,0,0,0,0,0,0,0,0,0,0,0,0,0,0,0,0,0,0,0,0,0,0,0,0,0,0,0,0,0,0,0,0,661,682,668,668,668,668,668,668,668,668,668,668,668,668,668,668,668,668,668,668,668,668,668,668,668,668,668,668,668,668,668,668,668,668,668,668,670]},{"id":4,"name":"objects","type":"objectgroup","draworder":"topdown","opacity":1,"visible":true,"x":0,"y":0,"objects":[{"id":1,"name":"player","type":"spawn","rotation":0,"visible":true,"x":1024,"y":1536,"width":0,"height":0,"point":true},{"id":2,"name":"player","type":"spawn","rotation":0,"visible":true,"x":1152,"y":1536,"width":0,"height":0,"point":true},{"id":3,"name":"player","type":"spawn","rotation":0,"visible":true,"x":1280,"y":1536,"width":0,"height":0,"point":true},{"id":4,"name":"player","type":"spawn","rotation":0,"visible":true,"x":1152,"y":1612.8,"width":0,"height":0,"point":true},{"id":5,"name":"boss_spawn","type":"spawner","rotation":0,"visible":true,"x":1152,"y":320,"width":0,"height":0,"point":true,"properties":[{"name":"how","type":"string","value":"rise"}]},{"id":6,"name":"boss","type":"spawner","rotation":0,"visible":true,"x":128,"y":128,"width":0,"height":0,"point":true,"properties":[{"name":"how","type":"string","value":"vent"}]},{"id":7,"name":"boss","type":"spawner","rotation":0,"visible":true,"x":2144,"y":128,"width":0,"height":0,"point":true,"properties":[{"name":"how","type":"string","value":"vent"}]},{"id":8,"name":"boss","type":"spawner","rotation":0,"visible":true,"x":128,"y":1632,"width":0,"height":0,"point":true,"properties":[{"name":"how","type":"string","value":"vent"}]},{"id":9,"name":"boss","type":"spawner","rotation":0,"visible":true,"x":2144,"y":1632,"width":0,"height":0,"point":true,"properties":[{"name":"how","type":"string","value":"vent"}]},{"id":10,"name":"boss","type":"spawner","rotation":0,"visible":true,"x":1152,"y":102.4,"width":0,"height":0,"point":true,"properties":[{"name":"how","type":"string","value":"vent"}]},{"id":11,"name":"","type":"barrel","rotation":0,"visible":true,"x":320,"y":256,"width":0,"height":0,"point":true},{"id":12,"name":"","type":"barrel","rotation":0,"visible":true,"x":1952,"y":256,"width":0,"height":0,"point":true},{"id":13,"name":"","type":"barrel","rotation":0,"visible":true,"x":320,"y":1504,"width":0,"height":0,"point":true},{"id":14,"name":"","type":"barrel","rotation":0,"visible":true,"x":1952,"y":1504,"width":0,"height":0,"point":true},{"id":15,"name":"","type":"barrel","rotation":0,"visible":true,"x":768,"y":768,"width":0,"height":0,"point":true},{"id":16,"name":"","type":"barrel","rotation":0,"visible":true,"x":1536,"y":768,"width":0,"height":0,"point":true},{"id":17,"name":"","type":"barrel","rotation":0,"visible":true,"x":768,"y":1024,"width":0,"height":0,"point":true},{"id":18,"name":"","type":"barrel","rotation":0,"visible":true,"x":1536,"y":1024,"width":0,"height":0,"point":true},{"id":19,"name":"","type":"barrel","rotation":0,"visible":true,"x":1152,"y":1312,"width":0,"height":0,"point":true},{"id":20,"name":"","type":"barrel","rotation":0,"visible":true,"x":192,"y":864,"width":0,"height":0,"point":true},{"id":21,"name":"","type":"barrel","rotation":0,"visible":true,"x":2112,"y":864,"width":0,"height":0,"point":true},{"id":22,"name":"crate","type":"prop","rotation":0,"visible":true,"x":229,"y":613,"width":54,"height":54},{"id":23,"name":"crate","type":"prop","rotation":0,"visible":true,"x":286.6,"y":632.2,"width":54,"height":54,"properties":[{"name":"rot","type":"int","value":20}]},{"id":24,"name":"crate","type":"prop","rotation":0,"visible":true,"x":1989,"y":1061,"width":54,"height":54},{"id":25,"name":"crate","type":"prop","rotation":0,"visible":true,"x":1931.4,"y":1086.6,"width":54,"height":54,"properties":[{"name":"rot","type":"int","value":30}]},{"id":26,"name":"crate","type":"prop","rotation":0,"visible":true,"x":869,"y":165,"width":54,"height":54},{"id":27,"name":"crate","type":"prop","rotation":0,"visible":true,"x":1381,"y":165,"width":54,"height":54,"properties":[{"name":"rot","type":"int","value":15}]},{"id":28,"name":"forklift","type":"prop","rotation":0,"visible":true,"x":1929,"y":605,"width":110,"height":70,"properties":[{"name":"rot","type":"int","value":90}]},{"id":29,"name":"pallet","type":"prop","rotation":0,"visible":true,"x":354,"y":1058,"width":60,"height":60},{"id":30,"name":"generator","type":"prop","rotation":0,"visible":true,"x":1865,"y":1606.4,"width":110,"height":64},{"id":31,"name":"","type":"barrel","rotation":0,"visible":true,"x":140.8,"y":1200,"width":0,"height":0,"point":true},{"id":32,"name":"ammo","type":"pickup","rotation":0,"visible":true,"x":192,"y":1625.6,"width":0,"height":0,"point":true},{"id":33,"name":"ammo","type":"pickup","rotation":0,"visible":true,"x":2112,"y":1625.6,"width":0,"height":0,"point":true},{"id":34,"name":"health","type":"pickup","rotation":0,"visible":true,"x":192,"y":153.6,"width":0,"height":0,"point":true},{"id":35,"name":"health","type":"pickup","rotation":0,"visible":true,"x":2112,"y":153.6,"width":0,"height":0,"point":true},{"id":36,"name":"armor","type":"pickup","rotation":0,"visible":true,"x":1152,"y":1676.8,"width":0,"height":0,"point":true},{"id":37,"name":"weapon","type":"pickup","rotation":0,"visible":true,"x":640,"y":1536,"width":0,"height":0,"point":true,"properties":[{"name":"weapon","type":"string","value":"machinegun"}]},{"id":38,"name":"weapon","type":"pickup","rotation":0,"visible":true,"x":1664,"y":1536,"width":0,"height":0,"point":true,"properties":[{"name":"weapon","type":"string","value":"grenade"}]},{"id":39,"name":"","type":"label","rotation":0,"visible":true,"x":1136,"y":736,"width":0,"height":0,"point":true,"properties":[{"name":"text","type":"string","value":"H"},{"name":"size","type":"int","value":120},{"name":"color","type":"string","value":"#ffd84a"},{"name":"alpha","type":"float","value":0.25}]},{"id":40,"name":"","type":"label","rotation":0,"visible":true,"x":1136,"y":934.4,"width":0,"height":0,"point":true,"properties":[{"name":"text","type":"string","value":"ПЛОЩАДКА ГЕНЕРАЛЬНОГО ДИРЕКТОРА"},{"name":"size","type":"int","value":16},{"name":"color","type":"string","value":"#ffd84a"},{"name":"alpha","type":"float","value":0.35}]},{"id":41,"name":"","type":"light","rotation":0,"visible":true,"x":384,"y":864,"width":0,"height":0,"point":true,"properties":[{"name":"kind","type":"string","value":"lamp"},{"name":"color","type":"string","value":"ffd9a0"},{"name":"radius","type":"int","value":340}]},{"id":42,"name":"","type":"light","rotation":0,"visible":true,"x":1920,"y":864,"width":0,"height":0,"point":true,"properties":[{"name":"kind","type":"string","value":"lamp"},{"name":"color","type":"string","value":"ffd9a0"},{"name":"radius","type":"int","value":340}]},{"id":43,"name":"","type":"light","rotation":0,"visible":true,"x":1152,"y":256,"width":0,"height":0,"point":true,"properties":[{"name":"kind","type":"string","value":"lamp"},{"name":"color","type":"string","value":"ffd9a0"},{"name":"radius","type":"int","value":340}]},{"id":44,"name":"","type":"light","rotation":0,"visible":true,"x":1152,"y":1408,"width":0,"height":0,"point":true,"properties":[{"name":"kind","type":"string","value":"lamp"},{"name":"color","type":"string","value":"ffd9a0"},{"name":"radius","type":"int","value":340}]},{"id":45,"name":"","type":"light","rotation":0,"visible":true,"x":102.4,"y":102.4,"width":0,"height":0,"point":true,"properties":[{"name":"kind","type":"string","value":"alarm"},{"name":"color","type":"string","value":"ff3b1f"},{"name":"radius","type":"int","value":420}]},{"id":46,"name":"","type":"light","rotation":0,"visible":true,"x":2176,"y":102.4,"width":0,"height":0,"point":true,"properties":[{"name":"kind","type":"string","value":"alarm"},{"name":"color","type":"string","value":"ff3b1f"},{"name":"radius","type":"int","value":420}]},{"id":47,"name":"","type":"light","rotation":0,"visible":true,"x":102.4,"y":1664,"width":0,"height":0,"point":true,"properties":[{"name":"kind","type":"string","value":"alarm"},{"name":"color","type":"string","value":"ff3b1f"},{"name":"radius","type":"int","value":420}]},{"id":48,"name":"","type":"light","rotation":0,"visible":true,"x":2176,"y":1664,"width":0,"height":0,"point":true,"properties":[{"name":"kind","type":"string","value":"alarm"},{"name":"color","type":"string","value":"ff3b1f"},{"name":"radius","type":"int","value":420}]}]}]}