{"type":"map","version":"1.10","tiledversion":"1.11.0","orientation":"orthogonal","renderorder":"right-down","width":34,"height":22,"tilewidth":64,"tileheight":64,"infinite":false,"nextlayerid":5,"nextobjectid":65,"properties":[{"name":"theme","type":"string","value":"cafe"},{"name":"ambient","type":"int","value":0},{"name":"wallFace","type":"string","value":"cafe"}],"tilesets":[{"firstgid":1,"name":"kenney","image":"../gen/tiles.png","imagewidth":1728,"imageheight":1280,"tilewidth":64,"tileheight":64,"tilecount":540,"columns":27,"margin":0,"spacing":0},{"firstgid":541,"name":"walls","image":"../gen/walls.png","imagewidth":1024,"imageheight":1536,"tilewidth":64,"tileheight":64,"tilecount":384,"columns":16,"margin":0,"spacing":0}],"layers":[{"id":1,"name":"floor","type":"tilelayer","width":34,"height":22,"x":0,"y":0,"opacity":1,"visible":true,"data":[0,0,0,0,0,0,0,0,0,0,0,0,0,0,0,0,0,0,0,0,0,0,0,0,0,0,0,0,0,0,0,0,0,0,0,0,0,0,0,0,0,0,0,0,0,0,0,0,0,0,0,0,0,0,0,0,0,0,0,0,0,0,0,0,0,0,0,0,0,0,0,0,0,0,0,0,0,0,0,0,0,0,0,0,0,0,0,0,0,0,0,0,0,0,0,0,0,0,0,0,0,0,0,0,514,514,514,514,514,514,514,514,514,514,514,514,514,514,514,514,514,514,514,514,514,514,514,514,514,514,514,514,514,514,0,0,0,0,514,514,514,514,514,514,514,514,514,514,514,514,514,514,514,514,514,514,514,514,514,514,514,514,514,514,514,514,514,514,0,0,0,0,514,514,514,514,514,514,514,514,514,514,514,514,514,514,514,514,514,514,514,514,514,514,514,514,514,514,514,514,514,514,0,0,0,0,514,514,514,514,514,514,514,514,514,514,514,514,514,514,514,514,514,514,514,514,514,514,514,514,514,514,514,514,514,514,0,0,0,0,514,514,514,514,514,514,514,514,514,514,514,514,514,514,514,514,514,514,514,514,514,514,514,514,514,514,514,514,514,514,0,0,0,0,514,514,514,514,514,514,514,514,514,514,514,514,514,514,514,514,514,514,514,514,514,514,514,514,514,514,514,514,514,514,0,0,0,0,514,514,514,514,514,514,514,514,514,514,514,514,514,514,514,514,514,514,514,514,514,514,514,514,514,514,514,514,514,514,0,0,0,0,514,514,514,514,514,514,514,514,514,514,514,514,514,514,514,514,514,514,514,514,514,514,514,514,514,514,514,514,514,514,0,0,0,0,514,514,514,514,514,514,514,514,514,514,514,514,514,514,514,514,514,514,514,514,514,514,514,514,514,514,514,514,514,514,0,0,0,0,514,514,514,514,514,514,514,514,514,514,514,514,514,514,514,514,514,514,514,514,514,514,514,514,514,514,514,514,514,514,0,0,0,0,514,514,514,514,514,514,514,514,514,514,514,514,514,514,514,514,514,514,514,514,514,514,514,514,514,514,514,514,514,514,0,0,0,0,514,514,514,514,514,514,514,514,514,514,514,514,514,514,514,514,514,514,514,514,514,514,514,514,514,514,514,514,514,514,0,0,0,0,514,514,514,514,514,514,514,514,514,514,514,514,514,514,514,514,514,514,514,514,514,514,514,514,514,514,514,514,514,514,0,0,0,0,514,514,514,514,514,514,514,514,514,514,514,514,514,514,514,514,514,514,514,514,514,514,514,514,514,514,514,514,514,514,0,0,0,0,514,514,514,514,514,514,514,514,514,514,514,514,514,514,514,514,514,514,514,514,514,514,514,514,514,514,514,514,514,514,0,0,0,0,514,514,514,514,514,514,514,514,514,514,514,514,514,514,514,514,514,514,514,514,514,514,514,514,514,514,514,514,514,514,0,0,0,0,0,0,0,0,0,0,0,0,0,0,0,0,0,0,0,0,0,0,0,0,0,0,0,0,0,0,0,0,0,0,0,0,0,0,0,0,0,0,0,0,0,0,0,0,0,0,0,0,0,0,0,0,0,0,0,0,0,0,0,0,0,0,0,0,0,0,0,0,0,0,0,0,0,0,0,0,0,0,0,0,0,0,0,0,0,0,0,0,0,0,0,0,0,0,0,0,0,0,0,0]},{"id":2,"name":"decor","type":"tilelayer","width":34,"height":22,"x":0,"y":0,"opacity":1,"visible":true,"data":[0,0,0,0,0,0,0,0,0,0,0,0,0,0,0,0,0,0,0,0,0,0,0,0,0,0,0,0,0,0,0,0,0,0,0,0,0,0,0,0,0,0,0,0,0,0,0,0,0,0,0,0,0,0,0,0,0,0,0,0,0,0,0,0,0,0,0,0,0,0,0,0,0,0,0,0,0,0,0,0,0,0,0,0,0,0,0,0,0,0,0,0,0,0,0,0,0,0,0,0,0,0,0,0,0,0,0,0,0,0,0,0,0,0,0,0,0,0,0,0,0,0,0,0,0,0,0,0,0,0,0,0,0,0,0,0,0,0,0,0,0,0,0,0,0,0,0,0,0,0,0,0,0,0,0,0,0,0,0,0,0,0,0,0,0,0,0,0,0,0,0,0,0,0,0,0,0,0,0,0,0,0,0,0,0,0,0,0,0,0,0,0,0,0,0,0,0,0,0,0,0,0,0,0,0,0,0,0,0,0,0,0,0,0,0,0,0,0,0,0,0,0,0,0,0,0,0,0,0,0,0,0,0,0,0,0,0,0,0,0,0,0,0,0,0,0,0,0,0,0,0,0,0,0,0,0,0,0,0,0,0,0,0,0,0,0,0,0,0,0,0,0,0,0,0,0,0,0,0,0,0,0,0,0,0,0,0,0,0,0,0,0,0,0,0,0,0,0,0,0,0,0,0,0,0,0,0,0,0,0,0,0,0,0,0,0,0,0,0,0,0,0,0,0,0,0,0,0,0,0,0,0,0,0,0,0,0,0,0,0,0,0,0,0,0,0,0,0,0,0,0,0,0,0,0,0,0,0,0,0,0,0,0,0,0,0,0,0,0,0,0,0,0,0,0,0,0,0,0,0,0,0,0,0,0,0,0,0,0,0,0,0,0,0,0,0,0,0,0,0,0,0,0,0,0,0,0,0,0,0,0,0,0,0,0,0,0,0,0,0,0,0,0,0,0,0,0,0,0,0,0,0,0,0,0,0,0,0,0,0,0,0,0,0,0,0,0,0,0,0,0,0,0,0,0,0,0,0,0,0,0,0,0,0,0,0,0,0,0,0,0,0,0,0,0,0,0,0,0,0,0,0,0,0,0,0,0,0,0,0,0,0,0,0,0,0,0,0,0,0,0,0,0,0,0,0,0,0,0,0,0,0,0,0,0,0,0,0,0,0,0,0,0,0,0,0,0,0,0,0,0,0,0,0,0,0,0,0,0,0,0,0,0,0,0,0,0,0,0,0,0,0,0,0,0,0,0,0,0,0,0,0,0,0,0,0,0,0,0,0,0,0,0,0,0,0,0,0,0,0,0,0,0,0,0,0,0,0,0,0,0,0,0,0,0,0,0,0,0,0,0,0,0,0,0,0,0,0,0,0,0,0,0,0,0,0,0,0,0,0,0,0,0,0,0,0,0,0,0,0,0,0,0,0,0,0,0,0,0,0,0,0,0,0,0,0,0,0,0,0,0,0,0,0,0,0,0,0,0,0,0,0,0,0,0,0,0,0,0,0,0,0,0,0,0,0,0,0,0,0,0,0,0,0,0,0,0,0,0,0,0,0,0,0,0,0,0,0,0,0,0,0,0,0,0,0,0,0,0,0,0,0,0,0,0,0,0,0,0,0,0,0,0,0,0,0,0,0,0,0,0,0,0,0,0,0,0,0,0,0,0,0,0,0,0,0,0,0]},{"id":3,"name":"walls","type":"tilelayer","width":34,"height":22,"x":0,"y":0,"opacity":1,"visible":true,"data":[923,923,923,923,923,923,923,923,923,923,923,923,923,923,923,923,923,923,923,923,923,923,923,923,923,923,923,923,923,923,923,923,923,923,923,923,923,923,923,923,923,923,923,923,923,923,923,923,923,923,923,923,923,923,923,923,923,923,923,923,923,923,923,923,923,923,923,923,923,921,915,915,915,915,915,915,915,915,915,915,915,915,915,915,915,915,915,915,915,915,915,915,915,915,915,915,915,915,915,915,918,923,923,919,0,0,0,0,0,0,0,0,0,0,0,0,0,0,0,0,0,0,0,0,0,0,0,0,0,0,0,0,0,0,901,923,923,919,0,0,0,0,0,0,0,0,0,0,0,0,0,0,0,0,0,0,0,0,0,0,0,0,0,0,0,0,0,0,901,923,923,919,0,0,0,0,0,0,0,0,0,0,0,0,0,0,0,0,0,0,0,0,0,0,0,0,0,0,0,0,0,0,901,923,923,919,0,0,0,0,0,0,0,0,0,0,0,0,0,0,0,0,0,0,0,0,0,0,0,0,0,0,0,0,0,0,901,923,923,919,0,0,0,0,0,0,0,0,0,0,0,0,0,0,0,0,0,0,0,0,0,0,0,0,0,0,0,0,0,0,901,923,923,919,0,0,0,0,0,0,0,0,0,0,0,0,0,0,0,0,0,0,0,0,0,0,0,0,0,0,0,0,0,0,901,923,923,919,0,0,0,0,0,0,0,0,0,0,0,0,0,0,0,0,0,0,0,0,0,0,0,0,0,0,0,0,0,0,901,923,923,919,0,0,0,0,0,0,0,0,0,0,0,0,0,0,0,0,0,0,0,0,0,0,0,0,0,0,0,0,0,0,901,923,923,919,0,0,0,0,0,0,0,0,0,0,0,0,0,0,0,0,0,0,0,0,0,0,0,0,0,0,0,0,0,0,901,923,923,919,0,0,0,0,0,0,0,0,0,0,0,0,0,0,0,0,0,0,0,0,0,0,0,0,0,0,0,0,0,0,901,923,923,919,0,0,0,0,0,0,0,0,0,0,0,0,0,0,0,0,0,0,0,0,0,0,0,0,0,0,0,0,0,0,901,923,923,919,0,0,0,0,0,0,0,0,0,0,0,0,0,0,0,0,0,0,0,0,0,0,0,0,0,0,0,0,0,0,901,923,923,919,0,0,0,0,0,0,0,0,0,0,0,0,0,0,0,0,0,0,0,0,0,0,0,0,0,0,0,0,0,0,901,923,923,919,0,0,0,0,0,0,0,0,0,0,0,0,0,0,0,0,0,0,0,0,0,0,0,0,0,0,0,0,0,0,901,923,923,919,0,0,0,0,0,0,0,0,0,0,0,0,0,0,0,0,0,0,0,0,0,0,0,0,0,0,0,0,0,0,901,923,923,919,0,0,0,0,0,0,0,0,0,0,0,0,0,0,0,0,0,0,0,0,0,0,0,0,0,0,0,0,0,0,901,923,923,922,908,908,908,908,908,908,908,908,908,908,908,908,908,908,908,908,908,908,908,908,908,908,908,908,908,908,908,908,908,908,910,923,923,923,923,923,923,923,923,923,923,923,923,923,923,923,923,923,923,923,923,923,923,923,923,923,923,923,923,923,923,923,923,923,923,923,923,923,923,923,923,923,923,923,923,923,923,923,923,923,923,923,923,923,923,923,923,923,923,923,923,923,923,923,923,923,923,923,923,923]},{"id":4,"name":"objects","type":"objectgroup","draworder":"topdown","opacity":1,"visible":true,"x":0,"y":0,"objects":[{"id":1,"name":"pano_0","type":"prop","rotation":0,"visible":true,"x":128,"y":174.4,"width":128,"height":48},{"id":2,"name":"pano_1","type":"prop","rotation":0,"visible":true,"x":256,"y":174.4,"width":128,"height":48},{"id":3,"name":"pano_2","type":"prop","rotation":0,"visible":true,"x":384,"y":174.4,"width":128,"height":48},{"id":4,"name":"pano_0","type":"prop","rotation":0,"visible":true,"x":512,"y":174.4,"width":128,"height":48},{"id":5,"name":"pano_1","type":"prop","rotation":0,"visible":true,"x":640,"y":174.4,"width":128,"height":48},{"id":6,"name":"pano_2","type":"prop","rotation":0,"visible":true,"x":768,"y":174.4,"width":128,"height":48},{"id":7,"name":"pano_0","type":"prop","rotation":0,"visible":true,"x":896,"y":174.4,"width":128,"height":48},{"id":8,"name":"pano_1","type":"prop","rotation":0,"visible":true,"x":1024,"y":174.4,"width":128,"height":48},{"id":9,"name":"pano_2","type":"prop","rotation":0,"visible":true,"x":1152,"y":174.4,"width":128,"height":48},{"id":10,"name":"pano_0","type":"prop","rotation":0,"visible":true,"x":1280,"y":174.4,"width":128,"height":48},{"id":11,"name":"pano_1","type":"prop","rotation":0,"visible":true,"x":1408,"y":174.4,"width":128,"height":48},{"id":12,"name":"pano_2","type":"prop","rotation":0,"visible":true,"x":1536,"y":174.4,"width":128,"height":48},{"id":13,"name":"windows","type":"zone","rotation":0,"visible":true,"x":128,"y":102.4,"width":1536,"height":102.4,"properties":[{"name":"cine","type":"bool","value":true}]},{"id":14,"name":"table_round","type":"prop","rotation":0,"visible":true,"x":354,"y":418,"width":60,"height":60},{"id":15,"name":"chair_1_90","type":"prop","rotation":0,"visible":true,"x":288,"y":424,"width":64,"height":48},{"id":16,"name":"chair_1_270","type":"prop","rotation":0,"visible":true,"x":416,"y":424,"width":64,"height":48},{"id":17,"name":"table_round","type":"prop","rotation":0,"visible":true,"x":674,"y":418,"width":60,"height":60},{"id":18,"name":"chair_1_90","type":"prop","rotation":0,"visible":true,"x":608,"y":424,"width":64,"height":48},{"id":19,"name":"chair_1_270","type":"prop","rotation":0,"visible":true,"x":736,"y":424,"width":64,"height":48},{"id":20,"name":"table_round","type":"prop","rotation":0,"visible":true,"x":1378,"y":418,"width":60,"height":60},{"id":21,"name":"chair_1_90","type":"prop","rotation":0,"visible":true,"x":1312,"y":424,"width":64,"height":48},{"id":22,"name":"chair_1_270","type":"prop","rotation":0,"visible":true,"x":1440,"y":424,"width":64,"height":48},{"id":23,"name":"table_round","type":"prop","rotation":0,"visible":true,"x":354,"y":738,"width":60,"height":60},{"id":24,"name":"chair_1_90","type":"prop","rotation":0,"visible":true,"x":288,"y":744,"width":64,"height":48},{"id":25,"name":"chair_1_270","type":"prop","rotation":0,"visible":true,"x":416,"y":744,"width":64,"height":48},{"id":26,"name":"table_round","type":"prop","rotation":0,"visible":true,"x":674,"y":738,"width":60,"height":60},{"id":27,"name":"chair_1_90","type":"prop","rotation":0,"visible":true,"x":608,"y":744,"width":64,"height":48},{"id":28,"name":"chair_1_270","type":"prop","rotation":0,"visible":true,"x":736,"y":744,"width":64,"height":48},{"id":29,"name":"table_long","type":"prop","rotation":0,"visible":true,"x":962,"y":482,"width":188,"height":60},{"id":30,"name":"chicken_plate","type":"prop","rotation":0,"visible":true,"x":976.4,"y":472.4,"width":44,"height":28},{"id":31,"name":"chicken_plate","type":"prop","rotation":0,"visible":true,"x":1091.6,"y":472.4,"width":44,"height":28},{"id":32,"name":"coffee_cup","type":"prop","rotation":0,"visible":true,"x":1040,"y":521.6,"width":32,"height":32},{"id":33,"name":"chair_2","type":"prop","rotation":0,"visible":true,"x":905,"y":568.8,"width":46,"height":40},{"id":34,"name":"chair_2_180","type":"prop","rotation":0,"visible":true,"x":896,"y":411.2,"width":64,"height":48},{"id":35,"name":"chair_2","type":"prop","rotation":0,"visible":true,"x":1033,"y":568.8,"width":46,"height":40},{"id":36,"name":"chair_2_180","type":"prop","rotation":0,"visible":true,"x":1024,"y":411.2,"width":64,"height":48},{"id":37,"name":"chair_2","type":"prop","rotation":0,"visible":true,"x":1161,"y":568.8,"width":46,"height":40},{"id":38,"name":"chair_2_180","type":"prop","rotation":0,"visible":true,"x":1152,"y":411.2,"width":64,"height":48},{"id":39,"name":"lunch","type":"use","rotation":0,"visible":true,"x":1056,"y":601.6,"width":0,"height":0,"point":true,"properties":[{"name":"hint","type":"string","value":"пообедать: курочка гриль"}]},{"id":40,"name":"chicken_plate","type":"prop","rotation":0,"visible":true,"x":362,"y":414.8,"width":44,"height":28},{"id":41,"name":"chicken_plate","type":"prop","rotation":0,"visible":true,"x":1386,"y":414.8,"width":44,"height":28},{"id":42,"name":"coffee_cup","type":"prop","rotation":0,"visible":true,"x":688,"y":419.2,"width":32,"height":32},{"id":43,"name":"counter_a","type":"prop","rotation":0,"visible":true,"x":1632,"y":1018.5999999999999,"width":64,"height":62},{"id":44,"name":"stove","type":"prop","rotation":0,"visible":true,"x":1696,"y":1018.5999999999999,"width":64,"height":62},{"id":45,"name":"sink","type":"prop","rotation":0,"visible":true,"x":1760,"y":1018.5999999999999,"width":64,"height":62},{"id":46,"name":"counter_a","type":"prop","rotation":0,"visible":true,"x":1824,"y":1018.5999999999999,"width":64,"height":62},{"id":47,"name":"vending_b","type":"prop","rotation":0,"visible":true,"x":1899.6,"y":948.8,"width":92,"height":48},{"id":48,"name":"plant","type":"prop","rotation":0,"visible":true,"x":143.9,"y":1094.1,"width":45,"height":39},{"id":49,"name":"plant","type":"prop","rotation":0,"visible":true,"x":1987.1,"y":582.1,"width":45,"height":39},{"id":50,"name":"bar_stool","type":"prop","rotation":0,"visible":true,"x":1512,"y":1102.4,"width":48,"height":48},{"id":51,"name":"bar_stool","type":"prop","rotation":0,"visible":true,"x":1608,"y":1102.4,"width":48,"height":48},{"id":52,"name":"chef","type":"npc","rotation":0,"visible":true,"x":1760,"y":972.8,"width":0,"height":0,"point":true,"properties":[{"name":"title","type":"string","value":"Шеф Гриль Иваныч"},{"name":"mode","type":"string","value":"idle"},{"name":"hp","type":"int","value":200},{"name":"story","type":"bool","value":true},{"name":"essential","type":"bool","value":true},{"name":"untargetable","type":"bool","value":true},{"name":"angle","type":"int","value":90},{"name":"lines","type":"string","value":"Курочка гриль! Свежайшая!|Фирменное блюдо этажа!"}]},{"id":53,"name":"","type":"label","rotation":0,"visible":true,"x":1056,"y":857.6,"width":0,"height":0,"point":true,"properties":[{"name":"text","type":"string","value":"КАФЕ «12 ЭТАЖ» · ПАНОРАМА"},{"name":"size","type":"int","value":24},{"name":"color","type":"string","value":"#6b5440"}]},{"id":54,"name":"","type":"note","rotation":0,"visible":true,"x":1344,"y":793.6,"width":0,"height":0,"point":true,"properties":[{"name":"text","type":"string","value":"Меню: «Курочка гриль — 450 ₽. Курочка гриль (бывший сотрудник) — бесплатно». Вторая строка зачёркнута."}]},{"id":55,"name":"elevator","type":"prop","rotation":0,"visible":true,"x":1824,"y":134.4,"width":128,"height":128},{"id":56,"name":"","type":"label","rotation":0,"visible":true,"x":1888,"y":358.4,"width":0,"height":0,"point":true,"properties":[{"name":"text","type":"string","value":"ЛИФТ"},{"name":"size","type":"int","value":14},{"name":"color","type":"string","value":"#6b5440"}]},{"id":57,"name":"player","type":"spawn","rotation":0,"visible":true,"x":1824,"y":396.8,"width":0,"height":0,"point":true},{"id":58,"name":"player","type":"spawn","rotation":0,"visible":true,"x":1926.4,"y":396.8,"width":0,"height":0,"point":true},{"id":59,"name":"player","type":"spawn","rotation":0,"visible":true,"x":1824,"y":473.6,"width":0,"height":0,"point":true},{"id":60,"name":"player","type":"spawn","rotation":0,"visible":true,"x":1926.4,"y":473.6,"width":0,"height":0,"point":true},{"id":61,"name":"exit12","type":"trigger","rotation":0,"visible":true,"x":1728,"y":192,"width":320,"height":256,"properties":[{"name":"once","type":"bool","value":false},{"name":"all","type":"bool","value":true}]},{"id":62,"name":"window","type":"trigger","rotation":0,"visible":true,"x":192,"y":256,"width":1408,"height":384},{"id":63,"name":"health","type":"pickup","rotation":0,"visible":true,"x":192,"y":1024,"width":0,"height":0,"point":true},{"id":64,"name":"ammo","type":"pickup","rotation":0,"visible":true,"x":1920,"y":576,"width":0,"height":0,"point":true}]}]}