{"type":"map","version":"1.10","tiledversion":"1.11.0","orientation":"orthogonal","renderorder":"right-down","width":70,"height":50,"tilewidth":64,"tileheight":64,"infinite":false,"nextlayerid":5,"nextobjectid":223,"properties":[{"name":"theme","type":"string","value":"industrial"},{"name":"ambient","type":"float","value":0.45}],"tilesets":[{"firstgid":1,"name":"kenney","image":"../gen/tiles.png","imagewidth":1728,"imageheight":1280,"tilewidth":64,"tileheight":64,"tilecount":540,"columns":27,"margin":0,"spacing":0},{"firstgid":541,"name":"walls","image":"../gen/walls.png","imagewidth":1024,"imageheight":768,"tilewidth":64,"tileheight":64,"tilecount":192,"columns":16,"margin":0,"spacing":0}],"layers":[{"id":1,"name":"floor","type":"tilelayer","width":70,"height":50,"x":0,"y":0,"opacity":1,"visible":true,"data":[0,0,0,0,0,0,0,0,0,0,0,0,0,0,0,0,0,0,0,0,0,0,0,0,0,0,0,0,0,0,0,0,0,0,0,0,0,0,0,0,0,0,0,0,0,0,0,0,0,0,0,0,0,0,0,0,0,0,0,0,0,0,0,0,0,0,0,0,0,0,0,0,0,0,0,0,0,0,0,0,0,0,0,0,0,0,0,0,0,0,0,0,0,0,0,0,0,0,0,0,0,0,0,0,0,0,0,0,0,0,0,0,0,0,0,0,0,0,0,0,0,0,0,0,0,0,0,0,0,0,0,0,0,0,0,0,0,0,0,0,0,0,7,7,7,7,7,7,7,7,7,7,0,86,86,86,86,86,86,86,86,86,86,86,86,86,86,86,86,86,86,86,86,86,86,86,86,86,86,86,86,86,86,86,86,0,7,7,7,7,7,7,7,7,7,7,7,7,7,7,7,7,7,7,7,7,7,7,0,0,0,0,7,7,7,7,7,7,7,7,7,7,0,86,86,86,86,86,86,86,86,86,86,86,86,86,86,86,86,86,86,86,86,86,86,86,86,86,86,86,86,86,86,86,86,0,7,7,7,7,7,7,7,7,7,7,7,7,7,7,7,7,7,7,7,7,7,7,0,0,0,0,7,7,7,7,7,7,7,7,7,7,0,86,86,86,86,86,86,86,86,86,86,86,86,86,86,86,86,86,86,86,86,86,86,86,86,86,86,86,86,86,86,86,86,0,7,7,7,7,7,7,7,7,7,7,7,7,7,7,7,7,7,7,7,7,7,7,0,0,0,0,7,7,7,7,7,7,7,7,7,7,7,86,86,86,86,86,86,86,86,86,86,86,86,86,86,86,86,86,86,86,86,86,86,86,86,86,86,86,86,86,86,86,86,0,7,7,7,7,7,7,7,7,7,7,7,7,7,7,7,7,7,7,7,7,7,7,0,0,0,0,7,7,7,7,7,7,7,7,7,7,7,86,86,86,86,86,86,86,0,0,86,86,86,86,86,86,86,86,86,86,86,86,86,86,0,0,86,86,86,86,86,86,86,0,7,7,7,7,7,7,7,7,7,7,7,7,7,7,7,7,7,7,7,7,7,7,0,0,0,0,7,7,7,7,7,7,7,7,7,7,7,86,86,86,86,86,86,86,0,0,86,86,86,86,86,86,86,86,86,86,86,86,86,86,0,0,86,86,86,86,86,86,86,0,7,7,7,7,7,7,7,7,7,7,7,7,7,7,7,7,7,7,7,7,7,7,0,0,0,0,7,7,7,7,7,7,7,7,7,7,0,86,86,86,86,86,86,86,86,86,86,86,86,86,86,86,86,86,86,86,86,86,86,86,86,86,86,86,86,86,86,86,86,0,7,7,7,7,7,7,7,7,7,7,7,7,7,7,7,7,7,7,7,7,7,7,0,0,0,0,7,7,7,7,7,7,7,7,7,7,0,86,86,86,86,86,86,86,86,86,86,86,86,86,86,86,86,86,86,86,86,86,86,86,86,86,86,86,86,86,86,86,86,86,7,7,7,7,7,7,7,7,7,7,7,7,7,7,7,7,7,7,7,7,7,7,0,0,0,0,7,7,7,7,7,7,7,7,7,7,0,86,86,86,86,86,86,86,86,86,86,86,86,86,86,86,86,86,86,86,86,86,86,86,86,86,86,86,86,86,86,86,86,86,7,7,7,7,7,7,7,7,7,7,7,7,7,7,7,7,7,7,7,7,7,7,0,0,0,0,0,0,0,0,0,0,0,0,0,0,0,83,83,83,83,83,83,83,83,83,83,83,83,83,83,83,83,83,83,83,83,83,83,83,83,83,83,83,83,83,83,83,83,86,7,7,7,7,7,7,7,7,7,7,7,7,7,7,7,7,7,7,7,7,7,7,0,0,0,0,86,86,86,86,86,86,86,86,86,86,0,86,86,86,86,86,86,86,86,86,86,86,86,86,86,86,86,86,86,86,86,86,86,86,86,86,86,86,86,86,86,86,86,86,7,7,7,7,7,7,7,7,7,7,7,7,7,7,7,7,7,7,7,7,7,7,0,0,0,0,86,86,86,86,86,86,86,86,86,86,0,86,86,86,86,86,86,86,86,86,86,86,86,86,86,86,86,86,86,86,86,86,86,86,86,86,86,86,86,86,86,86,86,0,7,7,7,7,7,7,7,7,7,7,7,7,7,7,7,7,7,7,7,7,7,7,0,0,0,0,86,86,86,86,86,86,86,86,86,86,0,86,86,86,86,86,86,86,86,86,86,86,86,86,86,86,86,86,86,86,86,86,86,86,86,86,86,86,86,86,86,86,86,0,7,7,7,7,7,7,7,7,7,7,7,7,7,7,7,7,7,7,7,7,7,7,0,0,0,0,86,86,86,86,86,86,86,86,86,86,86,86,86,86,86,86,86,86,86,86,86,86,86,86,86,86,86,86,86,86,86,86,86,86,86,86,86,86,86,86,86,86,86,0,7,7,7,7,7,7,7,7,7,7,7,7,7,7,7,7,7,7,7,7,7,7,0,0,0,0,86,86,86,86,86,86,86,86,86,86,86,86,86,86,86,86,86,86,0,0,86,86,86,86,86,86,86,86,86,86,86,86,86,86,0,0,86,86,86,86,86,86,86,0,7,7,7,7,7,7,7,7,7,7,7,7,7,7,7,7,7,7,7,7,7,7,0,0,0,0,86,86,86,86,86,86,86,86,86,86,0,86,86,86,86,86,86,86,0,0,86,86,86,86,86,86,86,86,86,86,86,86,86,86,0,0,86,86,86,86,86,86,86,0,7,7,7,7,7,7,7,7,7,7,7,7,7,7,7,7,7,7,7,7,7,7,0,0,0,0,86,86,86,86,86,86,86,86,86,86,0,86,86,86,86,86,86,86,86,86,86,86,86,86,86,86,86,86,86,86,86,86,86,86,86,86,86,86,86,86,86,86,86,0,7,7,7,7,7,7,7,7,7,7,7,7,7,7,7,7,7,7,7,7,7,7,0,0,0,0,86,86,86,86,86,86,86,86,86,86,0,86,86,86,86,86,86,86,86,86,86,86,86,86,86,86,86,86,86,86,86,86,86,86,86,86,86,86,86,86,86,86,86,0,7,7,7,7,7,7,7,7,7,7,7,7,7,7,7,7,7,7,7,7,7,7,0,0,0,0,86,86,86,86,86,86,86,86,86,86,0,86,86,86,86,86,86,86,86,86,86,86,86,86,86,86,86,86,86,86,86,86,86,86,86,86,86,86,86,86,86,86,86,0,7,7,7,7,7,7,7,7,7,7,7,7,7,7,7,7,7,7,7,7,7,7,0,0,0,0,86,86,86,86,86,86,86,86,86,86,0,0,0,0,0,0,0,0,0,0,0,0,0,0,0,0,86,86,86,86,0,0,0,0,0,0,0,0,0,0,0,0,0,0,0,0,0,0,0,0,0,0,0,0,0,0,0,0,0,0,86,86,0,0,0,0,0,0,0,0,86,86,86,86,86,86,86,86,86,86,0,86,86,86,87,87,87,86,86,86,86,86,86,86,86,86,87,86,86,87,87,87,87,86,86,86,86,86,87,86,86,86,86,87,87,86,86,86,86,86,87,86,87,86,86,0,7,7,7,7,7,7,7,7,7,7,0,0,0,0,86,86,86,86,86,86,86,86,86,86,0,86,86,87,86,86,87,86,87,86,87,86,86,87,87,86,86,86,86,86,86,87,86,86,86,87,87,86,87,86,87,87,86,86,86,86,87,86,86,86,86,86,87,86,86,0,7,7,7,7,7,7,7,7,7,7,0,0,0,0,86,86,86,86,86,86,86,86,86,86,0,86,86,87,86,87,86,87,86,86,86,86,86,86,87,86,86,86,86,86,86,86,86,87,86,87,86,86,87,86,86,87,86,87,86,87,87,86,86,86,86,86,86,86,87,0,7,7,7,7,7,7,7,7,7,7,0,0,0,0,86,86,86,86,86,86,86,86,86,86,0,86,87,86,86,86,86,86,87,87,86,87,86,86,86,87,86,87,86,86,86,86,86,86,86,86,86,86,87,87,86,86,86,86,86,86,86,86,87,87,87,86,87,86,86,86,7,7,7,7,7,7,7,7,7,7,0,0,0,0,86,86,86,86,86,86,86,86,86,86,86,87,86,86,86,86,86,86,86,86,87,86,86,86,86,86,87,86,86,87,87,86,87,86,86,86,86,86,86,87,86,87,86,87,86,86,86,86,86,86,86,86,87,86,87,86,7,7,7,7,7,7,7,7,7,7,0,0,0,0,86,86,86,86,86,86,86,86,86,86,86,87,86,86,86,87,86,86,87,86,86,87,86,86,86,86,86,86,86,86,86,86,86,86,86,86,86,86,86,86,86,87,86,87,87,87,86,86,86,86,86,86,86,86,86,0,7,7,7,7,7,7,7,7,7,7,0,0,0,0,86,86,86,86,86,86,86,86,86,86,0,86,87,86,86,86,86,86,0,86,86,86,86,86,86,87,87,86,0,86,86,86,86,86,86,86,87,87,0,86,86,86,87,86,87,86,86,86,0,86,86,86,86,86,86,0,7,7,7,7,7,7,7,7,7,7,0,0,0,0,86,86,86,86,86,86,86,86,86,86,0,87,86,87,86,87,86,86,0,86,87,87,86,87,86,86,86,86,0,86,86,86,86,86,86,86,86,87,0,86,86,87,86,86,86,86,86,87,0,86,86,86,86,86,87,0,7,7,7,7,7,7,7,7,7,7,0,0,0,0,86,86,86,86,86,86,86,86,86,86,0,86,86,86,86,87,86,87,86,87,86,86,87,86,86,86,87,86,87,86,86,87,86,86,87,86,87,86,86,86,86,86,86,86,86,86,86,86,86,86,86,86,86,86,87,0,7,7,7,7,7,7,7,7,7,7,0,0,0,0,86,86,86,86,86,86,86,86,86,86,0,86,87,86,86,87,87,86,87,86,86,86,86,86,86,86,86,87,86,86,87,86,86,86,86,86,86,86,86,86,86,86,87,86,86,86,86,86,86,86,86,87,86,86,86,0,0,0,0,0,0,0,0,0,0,0,0,0,0,0,86,86,86,86,86,86,86,86,86,86,0,87,86,87,86,87,86,87,86,86,86,86,86,86,86,86,86,86,86,87,87,87,86,86,86,86,86,87,86,86,87,86,87,86,86,86,86,86,86,86,86,86,86,87,86,0,0,0,0,0,0,0,0,0,0,0,0,0,0,0,86,86,86,86,86,86,86,86,86,86,0,86,86,86,87,86,87,86,86,86,86,86,86,86,86,87,86,86,87,86,87,86,86,86,86,87,87,86,87,87,86,86,86,86,86,86,86,86,86,87,86,87,86,86,87,0,0,0,0,0,0,0,0,0,0,0,0,0,0,0,86,86,86,86,86,86,86,86,86,86,0,86,86,86,87,86,87,86,86,86,86,86,86,86,87,86,86,86,86,86,87,86,86,86,86,86,87,86,86,86,86,87,87,86,87,87,86,87,86,86,86,86,86,86,86,0,0,0,0,0,0,0,0,0,0,0,0,0,0,0,86,86,86,86,86,86,86,86,86,86,0,86,87,86,87,86,87,86,86,87,86,87,87,86,86,86,86,87,86,86,86,86,86,87,86,87,86,87,87,86,86,86,86,86,86,86,86,86,86,86,87,87,87,86,86,0,0,0,0,0,0,0,0,0,0,0,0,0,0,0,86,86,86,86,86,86,86,86,86,86,0,86,86,86,86,87,86,86,87,86,86,87,86,87,86,87,86,86,87,86,86,86,86,86,87,86,86,86,86,87,86,86,87,86,86,86,86,86,87,87,86,87,86,86,86,0,0,0,0,0,0,0,0,0,0,0,0,0,0,0,0,0,0,0,0,0,0,0,0,0,0,0,0,0,0,0,0,0,0,0,0,0,0,0,0,86,86,86,86,0,0,0,0,0,0,0,0,0,0,0,0,0,0,0,0,0,0,0,0,0,0,0,0,0,0,0,0,0,0,0,0,0,0,0,0,0,0,0,0,0,0,0,0,0,0,0,0,0,0,0,0,7,7,7,7,7,7,7,7,7,7,7,7,7,7,7,7,7,7,7,7,7,7,7,7,7,7,7,7,7,7,7,7,0,0,0,0,0,0,0,0,0,0,0,0,0,0,0,0,0,0,0,0,0,0,0,0,0,0,0,0,0,0,0,0,0,0,0,0,0,0,7,7,7,7,7,7,7,7,7,7,7,7,7,7,7,7,7,7,7,7,7,7,7,7,7,7,7,7,7,7,7,7,0,0,0,0,0,0,0,0,0,0,0,0,0,0,0,0,0,0,0,0,0,0,0,0,0,0,0,0,0,0,0,0,0,0,0,0,0,0,7,7,7,7,7,7,7,7,7,7,7,7,7,7,7,7,7,7,7,7,7,7,7,7,7,7,7,7,7,7,7,7,0,0,0,0,0,0,0,0,0,0,0,0,0,0,0,0,0,0,0,0,0,0,0,0,0,0,0,0,0,0,0,0,0,0,0,0,0,0,7,7,7,7,7,7,7,7,7,7,7,7,7,7,7,7,7,7,7,7,7,7,7,7,7,7,7,7,7,7,7,7,0,0,0,0,0,0,0,0,0,0,0,0,0,0,0,0,0,0,0,0,0,0,0,0,0,0,0,0,0,0,0,0,0,0,0,0,0,0,7,7,7,7,7,7,7,7,7,7,7,7,7,7,7,7,7,7,7,7,7,7,7,7,7,7,7,7,7,7,7,7,0,0,0,0,0,0,0,0,0,0,0,0,0,0,0,0,0,0,0,0,0,0,0,0,0,0,0,0,0,0,0,0,0,0,0,0,0,0,7,7,7,7,7,7,7,7,7,7,7,7,7,7,7,7,7,7,7,7,7,7,7,7,7,7,7,7,7,7,7,7,0,0,0,0,0,0,0,0,0,0,0,0,0,0,0,0,0,0,0,0,0,0,0,0,0,0,0,0,0,0,0,0,0,0,0,0,0,0,7,7,7,7,7,7,7,7,7,7,7,7,7,7,7,7,7,7,7,7,7,7,7,7,7,7,7,7,7,7,7,7,0,0,0,0,0,0,0,0,0,0,0,0,0,0,0,0,0,0,0,0,0,0,0,0,0,0,0,0,0,0,0,0,0,0,0,0,0,0,7,7,7,7,7,7,7,7,7,7,7,7,7,7,7,7,7,7,7,7,7,7,7,7,7,7,7,7,7,7,7,7,0,0,0,0,0,0,0,0,0,0,0,0,0,0,0,0,0,0,0,0,0,0,0,0,0,0,0,0,0,0,0,0,0,0,0,0,0,0,7,7,7,7,7,7,7,7,7,7,7,7,7,7,7,7,7,7,7,7,7,7,7,7,7,7,7,7,7,7,7,7,0,0,0,0,0,0,0,0,0,0,0,0,0,0,0,0,0,0,0,0,0,0,0,0,0,0,0,0,0,0,0,0,0,0,0,0,0,0,7,7,7,7,7,7,7,7,7,7,7,7,7,7,7,7,7,7,7,7,7,7,7,7,7,7,7,7,7,7,7,7,0,0,0,0,0,0,0,0,0,0,0,0,0,0,0,0,0,0,0,0,0,0,0,0,0,0,0,0,0,0,0,0,0,0,0,0,0,0,0,0,0,0,0,0,0,0,0,0,0,0,0,0,0,0,0,0,0,0,0,0,0,0,0,0,0,0,0,0,0,0,0,0,0,0,0,0,0,0,0,0,0,0,0,0,0,0,0,0,0,0,0,0,0,0,0,0,0,0,0,0,0,0,0,0,0,0,0,0,0,0,0,0,0,0,0,0,0,0,0,0,0,0,0,0,0,0,0,0,0,0,0,0,0,0,0,0,0,0,0,0,0,0,0,0,0,0,0,0,0,0,0,0,0,0,0,0,0,0,0,0,0,0,0,0,0]},{"id":2,"name":"decor","type":"tilelayer","width":70,"height":50,"x":0,"y":0,"opacity":1,"visible":true,"data":[0,0,0,0,0,0,0,0,0,0,0,0,0,0,0,0,0,0,0,0,0,0,0,0,0,0,0,0,0,0,0,0,0,0,0,0,0,0,0,0,0,0,0,0,0,0,0,0,0,0,0,0,0,0,0,0,0,0,0,0,0,0,0,0,0,0,0,0,0,0,0,0,0,0,0,0,0,0,0,0,0,0,0,0,0,0,0,0,0,0,0,0,0,0,0,0,0,0,0,0,0,0,0,0,0,0,0,0,0,0,0,0,0,0,0,0,0,0,0,0,0,0,0,0,0,0,0,0,0,0,0,0,0,0,0,0,0,0,0,0,0,0,0,0,0,0,0,0,0,0,0,0,0,0,0,0,0,0,0,0,0,0,0,0,0,0,0,0,0,0,0,0,0,0,0,0,0,0,0,0,0,0,0,0,0,0,0,0,0,0,0,0,0,0,0,0,0,0,0,0,0,0,0,0,0,0,0,0,0,0,0,0,0,0,0,0,0,0,0,0,0,0,0,0,0,0,0,0,0,0,0,0,0,0,0,0,0,0,0,0,0,0,0,0,0,0,0,0,0,0,0,0,0,0,0,0,0,0,0,0,0,0,0,0,0,0,0,0,0,0,0,0,0,0,0,0,0,0,0,0,0,0,0,0,0,0,0,0,0,0,0,0,0,0,0,0,0,0,0,0,0,0,0,0,0,0,0,0,0,0,0,0,0,0,0,0,0,0,0,0,0,0,0,0,0,0,0,0,0,0,0,0,0,0,0,0,0,0,0,0,0,0,0,0,0,0,0,0,0,0,0,0,0,0,0,0,0,0,0,0,0,0,0,0,0,0,0,0,0,0,0,0,0,0,0,0,0,0,0,0,0,0,0,0,0,0,0,0,0,0,0,0,0,0,0,0,0,0,0,0,0,0,0,0,0,0,0,0,0,0,0,0,0,0,0,0,0,0,0,0,0,0,0,0,0,0,0,0,0,0,0,0,0,0,0,0,0,0,0,0,0,0,0,0,0,0,0,0,0,0,0,0,0,0,0,0,0,0,0,0,0,0,0,0,0,0,0,0,0,0,0,0,0,0,0,0,0,0,0,0,0,0,0,0,0,0,0,0,0,0,0,0,0,0,0,0,0,0,0,0,0,0,0,0,0,0,0,0,0,0,0,0,0,0,0,0,0,0,0,0,0,0,0,0,0,0,0,0,0,0,0,0,0,0,0,0,0,0,0,0,0,0,0,0,0,0,0,0,0,0,0,0,0,0,0,0,0,0,0,0,0,0,0,0,0,0,0,0,0,0,0,0,0,0,0,0,0,0,0,0,0,0,0,0,0,0,0,0,0,0,0,0,0,0,0,0,0,0,0,0,0,0,0,0,0,0,0,0,0,0,0,0,0,0,0,0,0,0,0,0,0,0,0,0,0,0,0,0,0,0,0,0,0,0,0,0,0,0,0,0,0,0,0,0,0,0,0,0,0,0,0,0,0,0,0,0,0,0,0,0,0,0,0,0,0,0,0,0,0,0,0,0,0,0,0,0,0,0,0,0,0,0,0,0,0,0,0,0,0,0,0,0,0,0,0,0,0,0,0,0,0,0,0,0,0,0,0,0,0,0,0,0,0,0,0,0,0,0,0,0,0,0,0,0,0,0,0,0,0,0,0,0,0,0,0,0,0,0,0,0,0,0,0,0,0,0,0,0,0,0,0,0,0,0,0,0,0,0,0,0,0,0,0,0,0,0,0,0,0,0,0,0,0,0,0,0,0,0,0,0,0,0,0,0,0,0,0,0,0,0,0,0,0,0,0,0,0,0,0,0,0,0,0,0,0,0,0,0,0,0,0,0,0,0,0,0,0,0,0,0,0,0,0,0,0,0,0,0,0,0,0,0,0,0,0,0,0,0,0,0,0,0,0,0,0,0,0,0,0,0,0,0,0,0,0,0,0,0,0,0,0,0,0,0,0,0,0,0,0,0,0,0,0,0,0,0,0,0,0,0,0,0,0,0,0,0,0,0,0,0,0,0,0,0,0,0,0,0,0,0,0,0,0,0,0,0,0,0,0,0,0,0,0,0,0,0,0,0,0,0,0,0,0,0,0,0,0,0,0,0,0,0,0,0,0,0,0,0,0,0,0,0,0,0,0,0,0,0,0,0,0,0,0,0,0,0,0,0,0,0,0,0,0,0,0,0,0,0,0,0,0,0,0,0,0,0,0,0,0,0,0,0,0,0,0,0,0,0,0,0,0,0,0,0,0,0,0,0,0,0,0,0,0,0,0,0,0,0,0,0,0,0,0,0,0,0,0,0,0,0,0,0,0,0,0,0,0,0,0,0,0,0,0,0,0,0,0,0,0,0,0,0,0,0,0,0,0,0,0,0,0,0,0,0,0,0,0,0,0,0,0,0,0,0,0,0,0,0,0,0,0,0,0,0,0,0,0,0,0,0,0,0,0,0,0,0,0,0,0,0,0,0,0,0,0,0,0,0,0,0,0,0,0,0,0,0,0,0,0,0,0,0,0,0,0,0,0,0,0,0,0,0,0,0,0,0,0,0,0,0,0,0,0,0,0,0,0,0,0,0,0,0,0,0,0,0,0,0,0,0,0,0,0,0,0,0,0,0,0,0,0,0,0,0,0,0,0,0,0,0,0,0,0,0,0,0,0,0,0,0,0,0,0,0,0,0,0,0,0,0,0,0,0,0,0,0,0,0,0,0,0,0,0,0,0,0,0,0,0,0,0,0,0,0,0,0,0,0,0,0,0,0,0,0,0,0,0,0,0,0,0,0,0,0,0,0,0,0,0,0,0,0,0,0,0,0,0,0,0,0,0,0,0,0,0,0,0,0,0,0,0,0,0,0,0,0,0,0,0,0,0,0,0,0,0,0,0,0,0,0,0,0,0,0,0,0,0,0,0,0,0,0,0,0,0,0,0,0,0,0,0,0,0,0,0,0,0,0,0,0,0,0,0,0,0,0,0,0,0,0,0,0,0,0,0,0,0,0,0,0,0,0,0,0,0,0,0,0,0,0,0,0,0,0,0,0,0,0,0,0,0,0,0,0,0,0,0,0,0,0,0,0,0,0,0,0,0,0,0,0,0,0,0,0,0,0,0,0,0,0,0,0,0,0,0,0,0,0,0,0,0,0,0,0,0,0,0,0,0,0,0,0,0,0,0,0,0,0,0,0,0,0,0,0,0,0,0,0,0,0,0,0,0,0,0,0,0,0,0,0,0,0,0,0,0,0,0,0,0,0,0,0,0,0,0,0,0,0,0,0,0,0,0,0,0,0,0,0,0,0,0,0,0,0,0,0,0,0,0,0,0,0,0,0,0,0,0,0,0,0,0,0,0,0,0,0,0,0,0,0,0,0,0,0,0,0,0,0,0,0,0,0,0,0,0,0,0,0,0,0,0,0,0,0,0,0,0,0,0,0,0,0,0,0,0,0,0,0,0,0,0,0,0,0,0,0,0,0,0,0,0,0,0,0,0,0,0,0,0,0,0,0,0,0,0,0,0,0,0,0,0,0,0,0,0,0,0,0,0,0,0,0,0,0,0,0,0,0,0,0,0,0,0,0,0,0,0,0,0,0,0,0,0,0,0,0,0,0,0,0,0,0,0,0,0,0,0,0,0,0,0,0,0,0,0,0,0,0,0,0,0,0,0,0,0,0,0,0,0,0,0,0,0,0,0,0,0,0,0,0,0,0,0,0,0,0,0,0,0,0,0,0,0,0,0,0,0,0,0,0,0,0,0,0,0,0,0,0,0,0,0,0,0,0,0,0,0,0,0,0,0,0,0,0,0,0,0,0,0,0,0,0,0,0,0,0,0,0,0,0,0,0,0,0,0,0,0,0,0,0,0,0,0,0,0,0,0,0,0,0,0,0,0,0,0,0,0,0,0,0,0,0,0,0,0,0,0,0,0,0,0,0,0,0,0,0,0,0,0,0,0,0,0,0,0,0,0,0,0,0,0,0,0,0,0,0,0,0,0,0,0,0,0,0,0,0,0,0,0,0,0,0,0,0,0,0,0,0,0,0,0,0,0,0,0,0,0,0,0,0,0,0,0,0,0,0,0,0,0,0,0,0,0,0,0,0,0,0,0,0,0,0,0,0,0,0,0,0,0,0,0,0,0,0,0,0,0,0,0,0,0,0,0,0,0,0,0,0,0,0,0,0,0,0,0,0,0,0,0,0,0,0,0,0,0,0,0,0,0,0,0,0,0,0,0,0,0,0,0,0,0,0,0,0,0,0,0,0,0,0,0,0,0,0,0,0,0,0,0,0,0,0,0,0,0,0,0,0,0,0,0,0,0,0,0,0,0,0,0,0,0,0,0,0,0,0,0,0,0,0,0,0,0,0,0,0,0,0,0,0,0,0,0,0,0,0,0,0,0,0,0,0,0,0,0,0,0,0,0,0,0,0,0,0,0,0,0,0,0,0,0,0,0,0,0,0,0,0,0,0,0,0,0,0,0,0,0,0,0,0,0,0,0,0,0,0,0,0,0,0,0,0,0,0,0,0,0,0,0,0,0,0,0,0,0,0,0,0,0,0,0,0,0,0,0,0,0,0,0,0,0,0,0,0,0,0,0,0,0,0,0,0,0,0,0,0,0,0,0,0,0,0,0,0,0,0,0,0,0,0,0,0,0,0,0,0,0,0,0,0,0,0,0,0,0,0,0,0,0,0,0,0,0,0,0,0,0,0,0,0,0,0,0,0,0,0,0,0,0,0,0,0,0,0,0,0,0,0,0,0,0,0,0,0,0,0,0,0,0,0,0,0,0,0,0,0,0,0,0,0,0,0,0,0,0,0,0,0,0,0,0,0,0,0,0,0,0,0,0,0,0,0,0,0,0,0,0,0,0,0,0,0,0,0,0,0,0,0,0,0,0,0,0,0,0,0,0,0,0,0,0,0,0,0,0,0,0,0,0,0,0,0,0,0,0,0,0,0,0,0,0,0,0,0,0,0,0,0,0,0,0,0,0,0,0,0,0,0,0,0,0,0,0,0,0,0,0,0,0,0,0,0,0,0,0,0,0,0,0,0,0,0,0,0,0,0,0,0,0,0,0,0,0,0,0,0,0,0,0,0,0,0,0,0,0,0,0,0,0,0,0,0,0,0,0,0,0,0,0,0,0,0,0,0,0,0,0,0,0,0,0,0,0,0,0,0,0,0,0,0,0,0,0,0,0,0,0,0,0,0,0,0,0,0,0,0,0,0,0,0,0,0,0,0,0,0,0,0,0,0,0,0,0,0,0,0,0,0,0,0,0,0,0,0,0,0,0,0,0,0,0,0,0,0,0,0,0,0,0,0,0,0,0,0,0,0,0,0,0,0,0,0,0,0,0,0,0,0,0,0,0,0,0,0,0,0,0,0,0,0,0,0,0,0,0,0,0,0,0,0,0,0,0,0,0,0,0,0,0,0,0,0,0,0,0,0,0,0,0,0,0,0,0,0,0,0,0,0,0,0,0,0,0,0,0,0,0,0,0,0,0,0,0,0,0,0,0,0,0,0,0,0,0,0,0,0,0,0,0,0,0,0,0,0,0,0,0,0,0,0,0,0,0,0,0,0,0,0,0,0,0,0,0,0,0,0,0,0,0,0,0,0,0,0,0,0,0,0,0,0,0,0,0,0,0,0,0,0,0,0,0,0,0,0,0,0,0,0,0,0,0,0,0,0,0,0,0,0,0,0,0,0,0,0,0,0,0,0,0,0,0,0,0,0,0,0,0,0,0,0,0,0,0,0,0,0,0,0,0,0,0,0,0,0,0,0,0,0,0,0,0,0,0,0,0,0,0,0,0,0,0,0,0,0,0,0,0,0,0,0,0,0,0,0,0,0,0,0,0,0,0,0,0,0,0,0,0,0,0,0,0,0,0,0,0,0,0,0,0,0,0,0,0,0,0,0,0,0,0,0,0,0,0,0,0,0,0,0,0,0,0,0,0,0,0,0,0,0,0,0,0,0,0,0,0,0,0,0,0,0,0,0,0,0,0,0,0,0,0,0,0,0,0,0,0,0,0,0,0,0,0,0,0,0,0,0,0,0,0,0,0,0,0,0,0,0,0,0,0,0,0,0,0,0,0,0,0,0,0,0,0,0,0,0,0,0,0,0,0,0,0,0,0,0,0,0,0,0,0,0,0,0,0,0,0,0,0,0,0,0,0,0,0,0,0,0,0,0,0,0,0,0,0,0,0,0,0,0,0,0,0,0,0,0,0,0,0,0,0,0,0,0,0,0,0,0,0,0,0,0,0,0,0,0,0,0,0,0,0,0,0,0,0,0,0,0,0,0,0,0,0,0,0,0,0,0,0,0,0,0,0,0,0,0,0,0,0,0,0,0,0,0,0,0,0,0,0,0,0,0,0,0,0,0,0,0,0,0,0,0,0,0,0,0,0,0,0,0,0,0,0,0,0,0,0,0,0,0,0,0,0,0,0,0,0,0,0,0,0,0,0,0,0,0,0,0,0,0,0,0,0,0,0,0,0,0,0,0,0,0,0,0,0,0,0,0,0,0,0,0,0,0,0,0,0,0,0,0,0,0,0,0,0,0,0,0,0,0,0,0,0,0,0,0,0,0,0,0,0,0,0,0,0,0,0,0,0,0,0,0,0,0,0,0,0,0,0,0,0,0,0,0,0,0,0,0,0,0,0,0,0,0,0,0,0,0,0,0,0,0,0,0,0,0,0,0,0,0,0,0,0,0,0,0,0,0,0,0,0,0,0,0,0,0,0,0,0,0,0,0,0,0,0,0,0,0,0,0,0,0,0,0,0,0,0,0,0,0,0,0,0,0,0,0,0,0,0,0,0,0,0,0,0,0,0,0,0,0,0,0,0,0,0,0,0,0,0,0,0,0,0,0,0,0,0,0,0,0,0,0,0,0,0,0,0,0,0,0,0,0,0,0,0,0,0,0,0,0,0,0,0,0,0,0,0,0,0,0,0,0,0,0,0,0,0,0,0,0,0,0,0,0,0,0,0,0,0,0,0,0,0,0,0,0,0,0,0,0,0,0,0,0,0,0,0,0,0,0,0,0,0,0,0,0,0,0,0,0,0,0,0,0,0,0,0,0,0,0,0,0,0,0,0,0,0,0,0,0,0,0,0,0,0,0,0,0,0,0,0,0,0,0,0,0,0,0,0,0,0,0,0,0,0,0,0,0,0,0,0,0,0,0,0,0,0,0,0,0,0,0,0,0,0,0,0,0,0,0,0,0,0,0,0,0,0,0,0,0,0,0,0,0,0,0,0,0,0,0,0,0,0,0,0,0,0,0,0,0,0,0,0,0,0,0,0,0,0,0,0,0,0,0,0,0,0,0,0,0,0,0,0,0,0,0,0,0,0,0,0,0,0,0,0,0,0,0,0,0,0,0,0,0,0,0,0,0,0,0,0,0,0,0,0,0,0,0,0,0,0,0,0,0,0,0,0,0,0,0,0,0,0,0,0,0,0,0,0,0,0,0,0,0,0,0,0,0,0,0,0,0,0,0,0,0,0,0,0,0,0,0,0,0,0,0,0,0,0,0,0,0,0,0,0,0,0,0,0,0,0,0,0,0,0,0,0,0,0,0,0,0,0,0,0,0,0,0,0,0,0,0,0,0,0,0,0,0,0,0,0,0,0,0,0,0,0,0,0,0,0,0,0,0,0,0,0,0,0,0,0,0,0,0,0,0,0,0,0,0,0,0,0,0,0,0,0,0,0,0,0,0,0,0,0,0,0,0,0,0,0,0,0,0,0,0,0,0,0,0,0,0,0,0,0,0,0,0,0,0,0,0,0,0,0,0,0,0,0,0,0,0,0,0,0,0,0,0,0,0,0,0,0,0,0,0,0,0,0,0,0,0,0,0,0,0,0,0,0,0,0,0]},{"id":3,"name":"walls","type":"tilelayer","width":70,"height":50,"x":0,"y":0,"opacity":1,"visible":true,"data":[683,683,683,683,683,683,683,683,683,683,683,683,683,683,683,683,683,683,683,683,683,683,683,683,683,683,683,683,683,683,683,683,683,683,683,683,683,683,683,683,683,683,683,683,683,683,683,683,683,683,683,683,683,683,683,683,683,683,683,683,683,683,683,683,683,683,683,683,683,683,683,681,675,675,675,675,675,675,675,675,675,675,676,675,675,675,675,675,675,675,675,675,675,675,675,675,675,675,675,675,675,675,675,675,675,675,675,675,675,675,675,675,675,675,675,676,675,675,675,675,675,675,675,675,675,675,675,675,675,675,675,675,675,675,675,675,675,675,678,683,683,679,0,0,0,0,0,0,0,0,0,0,642,0,0,0,0,0,0,0,0,0,0,0,0,0,0,0,0,0,0,0,0,0,0,0,0,0,0,0,0,0,0,0,0,642,0,0,0,0,0,0,0,0,0,0,0,0,0,0,0,0,0,0,0,0,0,0,661,683,683,679,0,0,0,0,0,0,0,0,0,0,642,0,0,0,0,0,0,0,0,0,0,0,0,0,0,0,0,0,0,0,0,0,0,0,0,0,0,0,0,0,0,0,0,642,0,0,0,0,0,0,0,0,0,0,0,0,0,0,0,0,0,0,0,0,0,0,661,683,683,679,0,0,0,0,0,0,0,0,0,0,638,0,0,0,0,0,0,0,0,0,0,0,0,0,0,0,0,0,0,0,0,0,0,0,0,0,0,0,0,0,0,0,0,642,0,0,0,0,0,0,0,0,0,0,0,0,0,0,0,0,0,0,0,0,0,0,661,683,683,679,0,0,0,0,0,0,0,0,0,0,0,0,0,0,0,0,0,0,0,0,0,0,0,0,0,0,0,0,0,0,0,0,0,0,0,0,0,0,0,0,0,0,0,642,0,0,0,0,0,0,0,0,0,0,0,0,0,0,0,0,0,0,0,0,0,0,661,683,683,679,0,0,0,0,0,0,0,0,0,0,0,0,0,0,0,0,0,0,657,663,0,0,0,0,0,0,0,0,0,0,0,0,0,0,657,663,0,0,0,0,0,0,0,642,0,0,0,0,0,0,0,0,0,0,0,0,0,0,0,0,0,0,0,0,0,0,661,683,683,679,0,0,0,0,0,0,0,0,0,0,0,0,0,0,0,0,0,0,653,671,0,0,0,0,0,0,0,0,0,0,0,0,0,0,653,671,0,0,0,0,0,0,0,642,0,0,0,0,0,0,0,0,0,0,0,0,0,0,0,0,0,0,0,0,0,0,661,683,683,679,0,0,0,0,0,0,0,0,0,0,641,0,0,0,0,0,0,0,0,0,0,0,0,0,0,0,0,0,0,0,0,0,0,0,0,0,0,0,0,0,0,0,0,638,0,0,0,0,0,0,0,0,0,0,0,0,0,0,0,0,0,0,0,0,0,0,661,683,683,679,0,0,0,0,0,0,0,0,0,0,642,0,0,0,0,0,0,0,0,0,0,0,0,0,0,0,0,0,0,0,0,0,0,0,0,0,0,0,0,0,0,0,0,0,0,0,0,0,0,0,0,0,0,0,0,0,0,0,0,0,0,0,0,0,0,0,661,683,683,679,0,0,0,0,0,0,0,0,0,0,642,0,0,0,0,0,0,0,0,0,0,0,0,0,0,0,0,0,0,0,0,0,0,0,0,0,0,0,0,0,0,0,0,0,0,0,0,0,0,0,0,0,0,0,0,0,0,0,0,0,0,0,0,0,0,0,661,683,683,680,647,647,647,647,647,647,647,647,647,647,650,0,0,0,0,0,0,0,0,0,0,0,0,0,0,0,0,0,0,0,0,0,0,0,0,0,0,0,0,0,0,0,0,0,0,0,0,0,0,0,0,0,0,0,0,0,0,0,0,0,0,0,0,0,0,0,661,683,683,679,0,0,0,0,0,0,0,0,0,0,642,0,0,0,0,0,0,0,0,0,0,0,0,0,0,0,0,0,0,0,0,0,0,0,0,0,0,0,0,0,0,0,0,0,0,0,0,0,0,0,0,0,0,0,0,0,0,0,0,0,0,0,0,0,0,0,661,683,683,679,0,0,0,0,0,0,0,0,0,0,642,0,0,0,0,0,0,0,0,0,0,0,0,0,0,0,0,0,0,0,0,0,0,0,0,0,0,0,0,0,0,0,0,641,0,0,0,0,0,0,0,0,0,0,0,0,0,0,0,0,0,0,0,0,0,0,661,683,683,679,0,0,0,0,0,0,0,0,0,0,638,0,0,0,0,0,0,0,0,0,0,0,0,0,0,0,0,0,0,0,0,0,0,0,0,0,0,0,0,0,0,0,0,642,0,0,0,0,0,0,0,0,0,0,0,0,0,0,0,0,0,0,0,0,0,0,661,683,683,679,0,0,0,0,0,0,0,0,0,0,0,0,0,0,0,0,0,0,0,0,0,0,0,0,0,0,0,0,0,0,0,0,0,0,0,0,0,0,0,0,0,0,0,642,0,0,0,0,0,0,0,0,0,0,0,0,0,0,0,0,0,0,0,0,0,0,661,683,683,679,0,0,0,0,0,0,0,0,0,0,0,0,0,0,0,0,0,0,657,663,0,0,0,0,0,0,0,0,0,0,0,0,0,0,657,663,0,0,0,0,0,0,0,642,0,0,0,0,0,0,0,0,0,0,0,0,0,0,0,0,0,0,0,0,0,0,661,683,683,679,0,0,0,0,0,0,0,0,0,0,641,0,0,0,0,0,0,0,653,671,0,0,0,0,0,0,0,0,0,0,0,0,0,0,653,671,0,0,0,0,0,0,0,642,0,0,0,0,0,0,0,0,0,0,0,0,0,0,0,0,0,0,0,0,0,0,661,683,683,679,0,0,0,0,0,0,0,0,0,0,642,0,0,0,0,0,0,0,0,0,0,0,0,0,0,0,0,0,0,0,0,0,0,0,0,0,0,0,0,0,0,0,0,642,0,0,0,0,0,0,0,0,0,0,0,0,0,0,0,0,0,0,0,0,0,0,661,683,683,679,0,0,0,0,0,0,0,0,0,0,642,0,0,0,0,0,0,0,0,0,0,0,0,0,0,0,0,0,0,0,0,0,0,0,0,0,0,0,0,0,0,0,0,642,0,0,0,0,0,0,0,0,0,0,0,0,0,0,0,0,0,0,0,0,0,0,661,683,683,679,0,0,0,0,0,0,0,0,0,0,642,0,0,0,0,0,0,0,0,0,0,0,0,0,0,0,0,0,0,0,0,0,0,0,0,0,0,0,0,0,0,0,0,642,0,0,0,0,0,0,0,0,0,0,0,0,0,0,0,0,0,0,0,0,0,0,661,683,683,679,0,0,0,0,0,0,0,0,0,0,644,647,647,647,647,647,647,647,647,647,647,647,647,647,647,645,0,0,0,0,639,647,647,647,647,647,647,647,647,647,647,647,647,648,647,647,647,647,647,647,647,647,647,647,647,651,647,647,647,645,0,0,639,647,647,647,662,683,683,679,0,0,0,0,0,0,0,0,0,0,642,0,0,0,0,0,0,0,0,0,0,0,0,0,0,0,0,0,0,0,0,0,0,0,0,0,0,0,0,0,0,0,0,0,0,0,0,0,0,0,0,0,0,0,0,642,0,0,0,0,0,0,0,0,0,0,661,683,683,679,0,0,0,0,0,0,0,0,0,0,642,0,0,0,0,0,0,0,0,0,0,0,0,0,0,0,0,0,0,0,0,0,0,0,0,0,0,0,0,0,0,0,0,0,0,0,0,0,0,0,0,0,0,0,0,642,0,0,0,0,0,0,0,0,0,0,661,683,683,679,0,0,0,0,0,0,0,0,0,0,642,0,0,0,0,0,0,0,0,0,0,0,0,0,0,0,0,0,0,0,0,0,0,0,0,0,0,0,0,0,0,0,0,0,0,0,0,0,0,0,0,0,0,0,0,638,0,0,0,0,0,0,0,0,0,0,661,683,683,679,0,0,0,0,0,0,0,0,0,0,638,0,0,0,0,0,0,0,0,0,0,0,0,0,0,0,0,0,0,0,0,0,0,0,0,0,0,0,0,0,0,0,0,0,0,0,0,0,0,0,0,0,0,0,0,0,0,0,0,0,0,0,0,0,0,0,661,683,683,679,0,0,0,0,0,0,0,0,0,0,0,0,0,0,0,0,0,0,0,0,0,0,0,0,0,0,0,0,0,0,0,0,0,0,0,0,0,0,0,0,0,0,0,0,0,0,0,0,0,0,0,0,0,0,0,0,0,0,0,0,0,0,0,0,0,0,661,683,683,679,0,0,0,0,0,0,0,0,0,0,0,0,0,0,0,0,0,0,0,0,0,0,0,0,0,0,0,0,0,0,0,0,0,0,0,0,0,0,0,0,0,0,0,0,0,0,0,0,0,0,0,0,0,0,0,641,0,0,0,0,0,0,0,0,0,0,661,683,683,679,0,0,0,0,0,0,0,0,0,0,641,0,0,0,0,0,0,0,641,0,0,0,0,0,0,0,0,0,641,0,0,0,0,0,0,0,0,0,641,0,0,0,0,0,0,0,0,0,641,0,0,0,0,0,0,642,0,0,0,0,0,0,0,0,0,0,661,683,683,679,0,0,0,0,0,0,0,0,0,0,642,0,0,0,0,0,0,0,638,0,0,0,0,0,0,0,0,0,638,0,0,0,0,0,0,0,0,0,638,0,0,0,0,0,0,0,0,0,638,0,0,0,0,0,0,642,0,0,0,0,0,0,0,0,0,0,661,683,683,679,0,0,0,0,0,0,0,0,0,0,642,0,0,0,0,0,0,0,0,0,0,0,0,0,0,0,0,0,0,0,0,0,0,0,0,0,0,0,0,0,0,0,0,0,0,0,0,0,0,0,0,0,0,0,0,642,0,0,0,0,0,0,0,0,0,0,661,683,683,679,0,0,0,0,0,0,0,0,0,0,642,0,0,0,0,0,0,0,0,0,0,0,0,0,0,0,0,0,0,0,0,0,0,0,0,0,0,0,0,0,0,0,0,0,0,0,0,0,0,0,0,0,0,0,0,658,668,668,668,668,668,668,668,668,668,668,670,683,683,679,0,0,0,0,0,0,0,0,0,0,642,0,0,0,0,0,0,0,0,0,0,0,0,0,0,0,0,0,0,0,0,0,0,0,0,0,0,0,0,0,0,0,0,0,0,0,0,0,0,0,0,0,0,0,0,661,683,683,683,683,683,683,683,683,683,683,683,683,683,679,0,0,0,0,0,0,0,0,0,0,642,0,0,0,0,0,0,0,0,0,0,0,0,0,0,0,0,0,0,0,0,0,0,0,0,0,0,0,0,0,0,0,0,0,0,0,0,0,0,0,0,0,0,0,0,661,683,683,683,683,683,683,683,683,683,683,683,683,683,679,0,0,0,0,0,0,0,0,0,0,642,0,0,0,0,0,0,0,0,0,0,0,0,0,0,0,0,0,0,0,0,0,0,0,0,0,0,0,0,0,0,0,0,0,0,0,0,0,0,0,0,0,0,0,0,661,683,683,683,683,683,683,683,683,683,683,683,683,683,679,0,0,0,0,0,0,0,0,0,0,642,0,0,0,0,0,0,0,0,0,0,0,0,0,0,0,0,0,0,0,0,0,0,0,0,0,0,0,0,0,0,0,0,0,0,0,0,0,0,0,0,0,0,0,0,661,683,683,683,683,683,683,683,683,683,683,683,683,683,679,0,0,0,0,0,0,0,0,0,0,642,0,0,0,0,0,0,0,0,0,0,0,0,0,0,0,0,0,0,0,0,0,0,0,0,0,0,0,0,0,0,0,0,0,0,0,0,0,0,0,0,0,0,0,0,661,683,683,683,683,683,683,683,683,683,683,683,683,683,682,668,668,668,668,668,668,668,668,668,668,666,647,647,647,647,647,647,647,647,647,647,647,647,647,645,0,0,0,0,639,647,647,647,647,647,647,647,647,647,647,647,647,647,659,668,668,668,668,668,668,668,668,668,668,668,670,683,683,683,683,683,683,683,683,683,683,683,683,683,683,683,683,683,683,683,683,683,683,683,683,679,0,0,0,0,0,0,0,0,0,0,0,0,0,0,0,0,0,0,0,0,0,0,0,0,0,0,0,0,0,0,0,0,661,683,683,683,683,683,683,683,683,683,683,683,683,683,683,683,683,683,683,683,683,683,683,683,683,683,683,683,683,683,683,683,683,683,683,683,683,679,0,0,0,0,0,0,0,0,0,0,0,0,0,0,0,0,0,0,0,0,0,0,0,0,0,0,0,0,0,0,0,0,661,683,683,683,683,683,683,683,683,683,683,683,683,683,683,683,683,683,683,683,683,683,683,683,683,683,683,683,683,683,683,683,683,683,683,683,683,679,0,0,0,0,0,0,0,0,0,0,0,0,0,0,0,0,0,0,0,0,0,0,0,0,0,0,0,0,0,0,0,0,661,683,683,683,683,683,683,683,683,683,683,683,683,683,683,683,683,683,683,683,683,683,683,683,683,683,683,683,683,683,683,683,683,683,683,683,683,679,0,0,0,0,0,0,0,0,0,0,0,0,0,0,0,0,0,0,0,0,0,0,0,0,0,0,0,0,0,0,0,0,661,683,683,683,683,683,683,683,683,683,683,683,683,683,683,683,683,683,683,683,683,683,683,683,683,683,683,683,683,683,683,683,683,683,683,683,683,679,0,0,0,0,0,0,0,0,0,0,0,0,0,0,0,0,0,0,0,0,0,0,0,0,0,0,0,0,0,0,0,0,661,683,683,683,683,683,683,683,683,683,683,683,683,683,683,683,683,683,683,683,683,683,683,683,683,683,683,683,683,683,683,683,683,683,683,683,683,679,0,0,0,0,0,0,0,0,0,0,0,0,0,0,0,0,0,0,0,0,0,0,0,0,0,0,0,0,0,0,0,0,661,683,683,683,683,683,683,683,683,683,683,683,683,683,683,683,683,683,683,683,683,683,683,683,683,683,683,683,683,683,683,683,683,683,683,683,683,679,0,0,0,0,0,0,0,0,0,0,0,0,0,0,0,0,0,0,0,0,0,0,0,0,0,0,0,0,0,0,0,0,661,683,683,683,683,683,683,683,683,683,683,683,683,683,683,683,683,683,683,683,683,683,683,683,683,683,683,683,683,683,683,683,683,683,683,683,683,679,0,0,0,0,0,0,0,0,0,0,0,0,0,0,0,0,0,0,0,0,0,0,0,0,0,0,0,0,0,0,0,0,661,683,683,683,683,683,683,683,683,683,683,683,683,683,683,683,683,683,683,683,683,683,683,683,683,683,683,683,683,683,683,683,683,683,683,683,683,679,0,0,0,0,0,0,0,0,0,0,0,0,0,0,0,0,0,0,0,0,0,0,0,0,0,0,0,0,0,0,0,0,661,683,683,683,683,683,683,683,683,683,683,683,683,683,683,683,683,683,683,683,683,683,683,683,683,683,683,683,683,683,683,683,683,683,683,683,683,679,0,0,0,0,0,0,0,0,0,0,0,0,0,0,0,0,0,0,0,0,0,0,0,0,0,0,0,0,0,0,0,0,661,683,683,683,683,683,683,683,683,683,683,683,683,683,683,683,683,683,683,683,683,683,683,683,683,683,683,683,683,683,683,683,683,683,683,683,683,682,668,668,668,668,668,668,668,668,668,668,668,668,668,668,668,668,668,668,668,668,668,668,668,668,668,668,668,668,668,668,668,668,670,683,683,683,683,683,683,683,683,683,683,683,683,683,683,683,683,683,683,683,683,683,683,683,683,683,683,683,683,683,683,683,683,683,683,683,683,683,683,683,683,683,683,683,683,683,683,683,683,683,683,683,683,683,683,683,683,683,683,683,683,683,683,683,683,683,683,683,683,683,683,683,683,683,683,683,683,683,683,683,683,683,683,683,683,683,683,683,683,683,683,683,683,683,683]},{"id":4,"name":"objects","type":"objectgroup","draworder":"topdown","opacity":1,"visible":true,"x":0,"y":0,"objects":[{"id":1,"name":"lift","type":"door","rotation":0,"visible":true,"x":792,"y":320,"width":16,"height":192,"properties":[{"name":"theme","type":"string","value":"industrial"},{"name":"dir","type":"string","value":"v"}]},{"id":2,"name":"warehouse","type":"door","rotation":0,"visible":true,"x":2904,"y":576,"width":16,"height":256,"properties":[{"name":"theme","type":"string","value":"industrial"},{"name":"dir","type":"string","value":"v"}]},{"id":3,"name":"boiler","type":"door","rotation":0,"visible":true,"x":792,"y":960,"width":16,"height":128,"properties":[{"name":"theme","type":"string","value":"industrial"},{"name":"dir","type":"string","value":"v"}]},{"id":4,"name":"hall","type":"door","rotation":0,"visible":true,"x":1792,"y":1368,"width":256,"height":16,"properties":[{"name":"theme","type":"string","value":"industrial"},{"name":"dir","type":"string","value":"h"}]},{"id":5,"name":"wh_control","type":"door","rotation":0,"visible":true,"x":3968,"y":1368,"width":128,"height":16,"properties":[{"name":"theme","type":"string","value":"industrial"},{"name":"dir","type":"string","value":"h"}]},{"id":6,"name":"control","type":"door","rotation":0,"visible":true,"x":3672,"y":1600,"width":16,"height":128,"properties":[{"name":"theme","type":"string","value":"industrial"},{"name":"dir","type":"string","value":"v"}]},{"id":7,"name":"boiler_hall","type":"door","rotation":0,"visible":true,"x":792,"y":1664,"width":16,"height":128,"properties":[{"name":"theme","type":"string","value":"industrial"},{"name":"dir","type":"string","value":"v"}]},{"id":8,"name":"storage","type":"door","rotation":0,"visible":true,"x":1728,"y":2392,"width":256,"height":16,"properties":[{"name":"theme","type":"string","value":"industrial"},{"name":"locked","type":"string","value":"script"},{"name":"dir","type":"string","value":"h"}]},{"id":9,"name":"elevator","type":"prop","rotation":0,"visible":true,"x":352,"y":134.4,"width":128,"height":128},{"id":10,"name":"crate","type":"prop","rotation":0,"visible":true,"x":165,"y":574.6,"width":54,"height":54},{"id":11,"name":"crate_small","type":"prop","rotation":0,"visible":true,"x":238.5,"y":596.4,"width":35,"height":36},{"id":12,"name":"player","type":"spawn","rotation":0,"visible":true,"x":352,"y":435.2,"width":0,"height":0,"point":true},{"id":13,"name":"player","type":"spawn","rotation":0,"visible":true,"x":448,"y":435.2,"width":0,"height":0,"point":true},{"id":14,"name":"player","type":"spawn","rotation":0,"visible":true,"x":544,"y":435.2,"width":0,"height":0,"point":true},{"id":15,"name":"player","type":"spawn","rotation":0,"visible":true,"x":448,"y":524.8,"width":0,"height":0,"point":true},{"id":16,"name":"ammo","type":"pickup","rotation":0,"visible":true,"x":665.6,"y":601.6,"width":0,"height":0,"point":true},{"id":17,"name":"health","type":"pickup","rotation":0,"visible":true,"x":166.4,"y":384,"width":0,"height":0,"point":true},{"id":18,"name":"crate","type":"prop","rotation":0,"visible":true,"x":997,"y":229,"width":54,"height":54,"properties":[{"name":"rot","type":"int","value":52}]},{"id":19,"name":"crate","type":"prop","rotation":0,"visible":true,"x":1054.6,"y":241.8,"width":54,"height":54,"properties":[{"name":"rot","type":"float","value":85.29999999999995}]},{"id":20,"name":"crate","type":"prop","rotation":0,"visible":true,"x":1022.5999999999999,"y":299.4,"width":54,"height":54,"properties":[{"name":"rot","type":"float","value":66.79999999999995}]},{"id":21,"name":"crate","type":"prop","rotation":0,"visible":true,"x":2661,"y":1125,"width":54,"height":54,"properties":[{"name":"rot","type":"int","value":24}]},{"id":22,"name":"crate","type":"prop","rotation":0,"visible":true,"x":2603.4,"y":1144.2,"width":54,"height":54,"properties":[{"name":"rot","type":"float","value":80.70000000000005}]},{"id":23,"name":"pallet","type":"prop","rotation":0,"visible":true,"x":1506,"y":200.4,"width":60,"height":60},{"id":24,"name":"pallet","type":"prop","rotation":0,"visible":true,"x":2082,"y":200.4,"width":60,"height":60},{"id":25,"name":"pallet","type":"prop","rotation":0,"visible":true,"x":1506,"y":1147.6,"width":60,"height":60},{"id":26,"name":"pallet","type":"prop","rotation":0,"visible":true,"x":2082,"y":1147.6,"width":60,"height":60},{"id":27,"name":"forklift","type":"prop","rotation":0,"visible":true,"x":1705,"y":957,"width":110,"height":70,"properties":[{"name":"rot","type":"int","value":90}]},{"id":28,"name":"forklift","type":"prop","rotation":0,"visible":true,"x":2525,"y":265,"width":70,"height":110},{"id":29,"name":"","type":"barrel","rotation":0,"visible":true,"x":1152,"y":576,"width":0,"height":0,"point":true},{"id":30,"name":"","type":"barrel","rotation":0,"visible":true,"x":1190.4,"y":620.8,"width":0,"height":0,"point":true},{"id":31,"name":"","type":"barrel","rotation":0,"visible":true,"x":1664,"y":524.8,"width":0,"height":0,"point":true},{"id":32,"name":"","type":"barrel","rotation":0,"visible":true,"x":2432,"y":864,"width":0,"height":0,"point":true},{"id":33,"name":"","type":"barrel","rotation":0,"visible":true,"x":2476.8,"y":908.8,"width":0,"height":0,"point":true},{"id":34,"name":"","type":"barrel","rotation":0,"visible":true,"x":2784,"y":192,"width":0,"height":0,"point":true},{"id":35,"name":"","type":"barrel","rotation":0,"visible":true,"x":896,"y":1235.2,"width":0,"height":0,"point":true},{"id":36,"name":"","type":"barrel","rotation":0,"visible":true,"x":1984,"y":825.6,"width":0,"height":0,"point":true},{"id":37,"name":"","type":"barrel","rotation":0,"visible":true,"x":1440,"y":857.6,"width":0,"height":0,"point":true},{"id":38,"name":"","type":"barrel","rotation":0,"visible":true,"x":2777.6,"y":624,"width":0,"height":0,"point":true},{"id":39,"name":"","type":"barrel","rotation":0,"visible":true,"x":896,"y":195.2,"width":0,"height":0,"point":true},{"id":40,"name":"weapon","type":"pickup","rotation":0,"visible":true,"x":1824,"y":627.2,"width":0,"height":0,"point":true,"properties":[{"name":"weapon","type":"string","value":"grenade"}]},{"id":41,"name":"ammo","type":"pickup","rotation":0,"visible":true,"x":2336,"y":608,"width":0,"height":0,"point":true},{"id":42,"name":"armor","type":"pickup","rotation":0,"visible":true,"x":1344,"y":1184,"width":0,"height":0,"point":true},{"id":43,"name":"","type":"label","rotation":0,"visible":true,"x":1856,"y":422.4,"width":0,"height":0,"point":true,"properties":[{"name":"text","type":"string","value":"ПОГРУЗОЧНЫЙ ДВОР"},{"name":"size","type":"int","value":30},{"name":"color","type":"string","value":"#ffd27a"}]},{"id":44,"name":"","type":"note","rotation":0,"visible":true,"x":1049.6,"y":384,"width":0,"height":0,"point":true,"properties":[{"name":"text","type":"string","value":"Ящики: «КУКАРЕКС. 24 банки. Встряхнуть перед превращением»"}]},{"id":45,"name":"normal","type":"enemy","rotation":0,"visible":true,"x":1600,"y":384,"width":0,"height":0,"point":true,"properties":[{"name":"tag","type":"string","value":"yard0"}]},{"id":46,"name":"armored","type":"enemy","rotation":0,"visible":true,"x":2048,"y":896,"width":0,"height":0,"point":true,"properties":[{"name":"tag","type":"string","value":"yard0"}]},{"id":47,"name":"normal","type":"enemy","rotation":0,"visible":true,"x":2240,"y":512,"width":0,"height":0,"point":true,"properties":[{"name":"tag","type":"string","value":"yard0"}]},{"id":48,"name":"fast","type":"enemy","rotation":0,"visible":true,"x":2560,"y":1024,"width":0,"height":0,"point":true,"properties":[{"name":"tag","type":"string","value":"yard0"}]},{"id":49,"name":"yard","type":"spawner","rotation":0,"visible":true,"x":2816,"y":166.4,"width":0,"height":0,"point":true,"properties":[{"name":"how","type":"string","value":"vent"}]},{"id":50,"name":"yard","type":"spawner","rotation":0,"visible":true,"x":2816,"y":1241.6,"width":0,"height":0,"point":true,"properties":[{"name":"how","type":"string","value":"vent"}]},{"id":51,"name":"yard","type":"spawner","rotation":0,"visible":true,"x":864,"y":1241.6,"width":0,"height":0,"point":true,"properties":[{"name":"how","type":"string","value":"vent"}]},{"id":52,"name":"yard","type":"spawner","rotation":0,"visible":true,"x":1920,"y":166.4,"width":0,"height":0,"point":true,"properties":[{"name":"how","type":"string","value":"vent"}]},{"id":53,"name":"yard","type":"trigger","rotation":0,"visible":true,"x":832,"y":128,"width":2048,"height":1216},{"id":54,"name":"","type":"light","rotation":0,"visible":true,"x":1152,"y":192,"width":0,"height":0,"point":true,"properties":[{"name":"kind","type":"string","value":"lamp"},{"name":"color","type":"string","value":"ffd9a0"},{"name":"radius","type":"int","value":300}]},{"id":55,"name":"","type":"light","rotation":0,"visible":true,"x":2560,"y":192,"width":0,"height":0,"point":true,"properties":[{"name":"kind","type":"string","value":"lamp"},{"name":"color","type":"string","value":"ffd9a0"},{"name":"radius","type":"int","value":300}]},{"id":56,"name":"","type":"light","rotation":0,"visible":true,"x":1152,"y":1216,"width":0,"height":0,"point":true,"properties":[{"name":"kind","type":"string","value":"lamp"},{"name":"color","type":"string","value":"ffd9a0"},{"name":"radius","type":"int","value":300}]},{"id":57,"name":"","type":"light","rotation":0,"visible":true,"x":2560,"y":1216,"width":0,"height":0,"point":true,"properties":[{"name":"kind","type":"string","value":"lamp"},{"name":"color","type":"string","value":"ffd9a0"},{"name":"radius","type":"int","value":300}]},{"id":58,"name":"shelf","type":"prop","rotation":0,"visible":true,"x":3138,"y":298,"width":124,"height":44},{"id":59,"name":"shelf","type":"prop","rotation":0,"visible":true,"x":3554,"y":298,"width":124,"height":44},{"id":60,"name":"shelf","type":"prop","rotation":0,"visible":true,"x":3970,"y":298,"width":124,"height":44},{"id":61,"name":"shelf","type":"prop","rotation":0,"visible":true,"x":3138,"y":586,"width":124,"height":44},{"id":62,"name":"shelf","type":"prop","rotation":0,"visible":true,"x":3554,"y":586,"width":124,"height":44},{"id":63,"name":"shelf","type":"prop","rotation":0,"visible":true,"x":3970,"y":586,"width":124,"height":44},{"id":64,"name":"shelf","type":"prop","rotation":0,"visible":true,"x":3138,"y":874,"width":124,"height":44},{"id":65,"name":"shelf","type":"prop","rotation":0,"visible":true,"x":3554,"y":874,"width":124,"height":44},{"id":66,"name":"shelf","type":"prop","rotation":0,"visible":true,"x":3970,"y":874,"width":124,"height":44},{"id":67,"name":"forklift","type":"prop","rotation":0,"visible":true,"x":3785,"y":1142.6,"width":110,"height":70,"properties":[{"name":"rot","type":"int","value":90}]},{"id":68,"name":"pallet","type":"prop","rotation":0,"visible":true,"x":3042,"y":1154,"width":60,"height":60},{"id":69,"name":"crate","type":"prop","rotation":0,"visible":true,"x":4229,"y":139.4,"width":54,"height":54},{"id":70,"name":"crate_small","type":"prop","rotation":0,"visible":true,"x":4180.9,"y":174,"width":35,"height":36},{"id":71,"name":"mihalych","type":"npc","rotation":0,"visible":true,"x":4192,"y":1120,"width":0,"height":0,"point":true,"properties":[{"name":"kind","type":"string","value":"manBrown"},{"name":"title","type":"string","value":"Бригадир Михалыч"},{"name":"mode","type":"string","value":"guard"},{"name":"weapon","type":"string","value":"rifle"},{"name":"hp","type":"int","value":180},{"name":"angle","type":"int","value":180},{"name":"lines","type":"string","value":"Тридцать лет на заводе. Курицу от человека отличаю по походке.|План по розливу никто не отменял!|Держись за мной, салага."}]},{"id":72,"name":"ammo","type":"pickup","rotation":0,"visible":true,"x":3008,"y":179.2,"width":0,"height":0,"point":true},{"id":73,"name":"health","type":"pickup","rotation":0,"visible":true,"x":4249.6,"y":608,"width":0,"height":0,"point":true},{"id":74,"name":"","type":"label","rotation":0,"visible":true,"x":3616,"y":755.2,"width":0,"height":0,"point":true,"properties":[{"name":"text","type":"string","value":"СКЛАД СЫРЬЯ"},{"name":"size","type":"int","value":24},{"name":"color","type":"string","value":"#ffd27a"}]},{"id":75,"name":"","type":"note","rotation":0,"visible":true,"x":3200,"y":371.2,"width":0,"height":0,"point":true,"properties":[{"name":"text","type":"string","value":"Накладная: «Корм комбинированный, 40 т. Получатель: Отдел продаж»"}]},{"id":76,"name":"wh","type":"spawner","rotation":0,"visible":true,"x":2976,"y":166.4,"width":0,"height":0,"point":true,"properties":[{"name":"how","type":"string","value":"vent"}]},{"id":77,"name":"wh","type":"spawner","rotation":0,"visible":true,"x":2976,"y":1248,"width":0,"height":0,"point":true,"properties":[{"name":"how","type":"string","value":"vent"}]},{"id":78,"name":"wh","type":"spawner","rotation":0,"visible":true,"x":4288,"y":768,"width":0,"height":0,"point":true,"properties":[{"name":"how","type":"string","value":"vent"}]},{"id":79,"name":"warehouse","type":"trigger","rotation":0,"visible":true,"x":2944,"y":128,"width":1408,"height":1216},{"id":80,"name":"","type":"light","rotation":0,"visible":true,"x":3200,"y":736,"width":0,"height":0,"point":true,"properties":[{"name":"kind","type":"string","value":"lamp"},{"name":"color","type":"string","value":"cfe0ff"},{"name":"radius","type":"int","value":280},{"name":"flicker","type":"float","value":0.15}]},{"id":81,"name":"","type":"light","rotation":0,"visible":true,"x":4032,"y":736,"width":0,"height":0,"point":true,"properties":[{"name":"kind","type":"string","value":"lamp"},{"name":"color","type":"string","value":"cfe0ff"},{"name":"radius","type":"int","value":280},{"name":"flicker","type":"float","value":0.15}]},{"id":82,"name":"generator","type":"prop","rotation":0,"visible":true,"x":361,"y":838.4,"width":110,"height":64},{"id":83,"name":"machine","type":"prop","rotation":0,"visible":true,"x":356,"y":1284,"width":120,"height":120},{"id":84,"name":"pipe_h","type":"prop","rotation":0,"visible":true,"x":224,"y":1844,"width":64,"height":24},{"id":85,"name":"pipe_h","type":"prop","rotation":0,"visible":true,"x":544,"y":1844,"width":64,"height":24},{"id":86,"name":"generator","type":"prop","rotation":0,"visible":true,"x":361,"y":2176,"width":110,"height":64},{"id":87,"name":"","type":"barrel","rotation":0,"visible":true,"x":192,"y":1600,"width":0,"height":0,"point":true},{"id":88,"name":"","type":"barrel","rotation":0,"visible":true,"x":659.2,"y":1600,"width":0,"height":0,"point":true},{"id":89,"name":"","type":"barrel","rotation":0,"visible":true,"x":192,"y":2016,"width":0,"height":0,"point":true},{"id":90,"name":"health","type":"pickup","rotation":0,"visible":true,"x":665.6,"y":1152,"width":0,"height":0,"point":true},{"id":91,"name":"ammo","type":"pickup","rotation":0,"visible":true,"x":172.8,"y":1152,"width":0,"height":0,"point":true},{"id":92,"name":"","type":"label","rotation":0,"visible":true,"x":416,"y":1696,"width":0,"height":0,"point":true,"properties":[{"name":"text","type":"string","value":"КОТЕЛЬНАЯ"},{"name":"size","type":"int","value":18},{"name":"color","type":"string","value":"#ffd27a"}]},{"id":93,"name":"","type":"note","rotation":0,"visible":true,"x":416,"y":1510.4,"width":0,"height":0,"point":true,"properties":[{"name":"text","type":"string","value":"Табличка: «Температура 95°. Идеально для бульона»"}]},{"id":94,"name":"","type":"light","rotation":0,"visible":true,"x":416,"y":1536,"width":0,"height":0,"point":true,"properties":[{"name":"kind","type":"string","value":"alarm"},{"name":"color","type":"string","value":"ff6a1f"},{"name":"radius","type":"int","value":300}]},{"id":95,"name":"","type":"light","rotation":0,"visible":true,"x":416,"y":1152,"width":0,"height":0,"point":true,"properties":[{"name":"kind","type":"string","value":"lamp"},{"name":"color","type":"string","value":"ffb347"},{"name":"radius","type":"int","value":220},{"name":"flicker","type":"float","value":0.6}]},{"id":96,"name":"spitter","type":"enemy","rotation":0,"visible":true,"x":256,"y":1088,"width":0,"height":0,"point":true,"properties":[{"name":"tag","type":"string","value":"boil"}]},{"id":97,"name":"normal","type":"enemy","rotation":0,"visible":true,"x":576,"y":1408,"width":0,"height":0,"point":true,"properties":[{"name":"tag","type":"string","value":"boil"}]},{"id":98,"name":"exploder","type":"enemy","rotation":0,"visible":true,"x":384,"y":2048,"width":0,"height":0,"point":true,"properties":[{"name":"tag","type":"string","value":"boil"}]},{"id":99,"name":"conveyor","type":"prop","rotation":0,"visible":true,"x":1024,"y":1572,"width":64,"height":56},{"id":100,"name":"conveyor","type":"prop","rotation":0,"visible":true,"x":1024,"y":2058.4,"width":64,"height":56},{"id":101,"name":"conveyor","type":"prop","rotation":0,"visible":true,"x":1088,"y":1572,"width":64,"height":56},{"id":102,"name":"conveyor","type":"prop","rotation":0,"visible":true,"x":1088,"y":2058.4,"width":64,"height":56},{"id":103,"name":"conveyor","type":"prop","rotation":0,"visible":true,"x":1152,"y":1572,"width":64,"height":56},{"id":104,"name":"conveyor","type":"prop","rotation":0,"visible":true,"x":1152,"y":2058.4,"width":64,"height":56},{"id":105,"name":"conveyor","type":"prop","rotation":0,"visible":true,"x":1216,"y":1572,"width":64,"height":56},{"id":106,"name":"conveyor","type":"prop","rotation":0,"visible":true,"x":1216,"y":2058.4,"width":64,"height":56},{"id":107,"name":"conveyor","type":"prop","rotation":0,"visible":true,"x":1280,"y":1572,"width":64,"height":56},{"id":108,"name":"conveyor","type":"prop","rotation":0,"visible":true,"x":1280,"y":2058.4,"width":64,"height":56},{"id":109,"name":"conveyor","type":"prop","rotation":0,"visible":true,"x":1344,"y":1572,"width":64,"height":56},{"id":110,"name":"conveyor","type":"prop","rotation":0,"visible":true,"x":1344,"y":2058.4,"width":64,"height":56},{"id":111,"name":"conveyor","type":"prop","rotation":0,"visible":true,"x":1408,"y":1572,"width":64,"height":56},{"id":112,"name":"conveyor","type":"prop","rotation":0,"visible":true,"x":1408,"y":2058.4,"width":64,"height":56},{"id":113,"name":"conveyor","type":"prop","rotation":0,"visible":true,"x":1472,"y":1572,"width":64,"height":56},{"id":114,"name":"conveyor","type":"prop","rotation":0,"visible":true,"x":1472,"y":2058.4,"width":64,"height":56},{"id":115,"name":"conveyor","type":"prop","rotation":0,"visible":true,"x":1664,"y":1572,"width":64,"height":56},{"id":116,"name":"conveyor","type":"prop","rotation":0,"visible":true,"x":1664,"y":2058.4,"width":64,"height":56},{"id":117,"name":"conveyor","type":"prop","rotation":0,"visible":true,"x":1728,"y":1572,"width":64,"height":56},{"id":118,"name":"conveyor","type":"prop","rotation":0,"visible":true,"x":1728,"y":2058.4,"width":64,"height":56},{"id":119,"name":"conveyor","type":"prop","rotation":0,"visible":true,"x":1792,"y":1572,"width":64,"height":56},{"id":120,"name":"conveyor","type":"prop","rotation":0,"visible":true,"x":1792,"y":2058.4,"width":64,"height":56},{"id":121,"name":"conveyor","type":"prop","rotation":0,"visible":true,"x":1856,"y":1572,"width":64,"height":56},{"id":122,"name":"conveyor","type":"prop","rotation":0,"visible":true,"x":1856,"y":2058.4,"width":64,"height":56},{"id":123,"name":"conveyor","type":"prop","rotation":0,"visible":true,"x":1920,"y":1572,"width":64,"height":56},{"id":124,"name":"conveyor","type":"prop","rotation":0,"visible":true,"x":1920,"y":2058.4,"width":64,"height":56},{"id":125,"name":"conveyor","type":"prop","rotation":0,"visible":true,"x":1984,"y":1572,"width":64,"height":56},{"id":126,"name":"conveyor","type":"prop","rotation":0,"visible":true,"x":1984,"y":2058.4,"width":64,"height":56},{"id":127,"name":"conveyor","type":"prop","rotation":0,"visible":true,"x":2048,"y":1572,"width":64,"height":56},{"id":128,"name":"conveyor","type":"prop","rotation":0,"visible":true,"x":2048,"y":2058.4,"width":64,"height":56},{"id":129,"name":"conveyor","type":"prop","rotation":0,"visible":true,"x":2112,"y":1572,"width":64,"height":56},{"id":130,"name":"conveyor","type":"prop","rotation":0,"visible":true,"x":2112,"y":2058.4,"width":64,"height":56},{"id":131,"name":"conveyor","type":"prop","rotation":0,"visible":true,"x":2304,"y":1572,"width":64,"height":56},{"id":132,"name":"conveyor","type":"prop","rotation":0,"visible":true,"x":2304,"y":2058.4,"width":64,"height":56},{"id":133,"name":"conveyor","type":"prop","rotation":0,"visible":true,"x":2368,"y":1572,"width":64,"height":56},{"id":134,"name":"conveyor","type":"prop","rotation":0,"visible":true,"x":2368,"y":2058.4,"width":64,"height":56},{"id":135,"name":"conveyor","type":"prop","rotation":0,"visible":true,"x":2432,"y":1572,"width":64,"height":56},{"id":136,"name":"conveyor","type":"prop","rotation":0,"visible":true,"x":2432,"y":2058.4,"width":64,"height":56},{"id":137,"name":"conveyor","type":"prop","rotation":0,"visible":true,"x":2496,"y":1572,"width":64,"height":56},{"id":138,"name":"conveyor","type":"prop","rotation":0,"visible":true,"x":2496,"y":2058.4,"width":64,"height":56},{"id":139,"name":"conveyor","type":"prop","rotation":0,"visible":true,"x":2560,"y":1572,"width":64,"height":56},{"id":140,"name":"conveyor","type":"prop","rotation":0,"visible":true,"x":2560,"y":2058.4,"width":64,"height":56},{"id":141,"name":"conveyor","type":"prop","rotation":0,"visible":true,"x":2624,"y":1572,"width":64,"height":56},{"id":142,"name":"conveyor","type":"prop","rotation":0,"visible":true,"x":2624,"y":2058.4,"width":64,"height":56},{"id":143,"name":"conveyor","type":"prop","rotation":0,"visible":true,"x":2688,"y":1572,"width":64,"height":56},{"id":144,"name":"conveyor","type":"prop","rotation":0,"visible":true,"x":2688,"y":2058.4,"width":64,"height":56},{"id":145,"name":"conveyor","type":"prop","rotation":0,"visible":true,"x":2752,"y":1572,"width":64,"height":56},{"id":146,"name":"conveyor","type":"prop","rotation":0,"visible":true,"x":2752,"y":2058.4,"width":64,"height":56},{"id":147,"name":"conveyor","type":"prop","rotation":0,"visible":true,"x":2944,"y":1572,"width":64,"height":56},{"id":148,"name":"conveyor","type":"prop","rotation":0,"visible":true,"x":2944,"y":2058.4,"width":64,"height":56},{"id":149,"name":"conveyor","type":"prop","rotation":0,"visible":true,"x":3008,"y":1572,"width":64,"height":56},{"id":150,"name":"conveyor","type":"prop","rotation":0,"visible":true,"x":3008,"y":2058.4,"width":64,"height":56},{"id":151,"name":"conveyor","type":"prop","rotation":0,"visible":true,"x":3072,"y":1572,"width":64,"height":56},{"id":152,"name":"conveyor","type":"prop","rotation":0,"visible":true,"x":3072,"y":2058.4,"width":64,"height":56},{"id":153,"name":"conveyor","type":"prop","rotation":0,"visible":true,"x":3136,"y":1572,"width":64,"height":56},{"id":154,"name":"conveyor","type":"prop","rotation":0,"visible":true,"x":3136,"y":2058.4,"width":64,"height":56},{"id":155,"name":"conveyor","type":"prop","rotation":0,"visible":true,"x":3200,"y":1572,"width":64,"height":56},{"id":156,"name":"conveyor","type":"prop","rotation":0,"visible":true,"x":3200,"y":2058.4,"width":64,"height":56},{"id":157,"name":"conveyor","type":"prop","rotation":0,"visible":true,"x":3264,"y":1572,"width":64,"height":56},{"id":158,"name":"conveyor","type":"prop","rotation":0,"visible":true,"x":3264,"y":2058.4,"width":64,"height":56},{"id":159,"name":"conveyor","type":"prop","rotation":0,"visible":true,"x":3328,"y":1572,"width":64,"height":56},{"id":160,"name":"conveyor","type":"prop","rotation":0,"visible":true,"x":3328,"y":2058.4,"width":64,"height":56},{"id":161,"name":"conveyor","type":"prop","rotation":0,"visible":true,"x":3392,"y":1572,"width":64,"height":56},{"id":162,"name":"conveyor","type":"prop","rotation":0,"visible":true,"x":3392,"y":2058.4,"width":64,"height":56},{"id":163,"name":"machine","type":"prop","rotation":0,"visible":true,"x":989.5999999999999,"y":1796,"width":120,"height":120},{"id":164,"name":"machine","type":"prop","rotation":0,"visible":true,"x":3370.4,"y":1796,"width":120,"height":120},{"id":165,"name":"lab_console","type":"prop","rotation":0,"visible":true,"x":992,"y":1951.2,"width":64,"height":40},{"id":166,"name":"valve1","type":"use","rotation":0,"visible":true,"x":1024,"y":1971.2,"width":0,"height":0,"point":true,"properties":[{"name":"hint","type":"string","value":"открыть вентиль синтеза"}]},{"id":167,"name":"","type":"light","rotation":0,"visible":true,"x":1024,"y":1971.2,"width":0,"height":0,"point":true,"properties":[{"name":"kind","type":"string","value":"lamp"},{"name":"color","type":"string","value":"7dff8a"},{"name":"radius","type":"int","value":180}]},{"id":168,"name":"lab_console","type":"prop","rotation":0,"visible":true,"x":2208,"y":1452,"width":64,"height":40},{"id":169,"name":"valve2","type":"use","rotation":0,"visible":true,"x":2240,"y":1472,"width":0,"height":0,"point":true,"properties":[{"name":"hint","type":"string","value":"открыть вентиль синтеза"}]},{"id":170,"name":"","type":"light","rotation":0,"visible":true,"x":2240,"y":1472,"width":0,"height":0,"point":true,"properties":[{"name":"kind","type":"string","value":"lamp"},{"name":"color","type":"string","value":"7dff8a"},{"name":"radius","type":"int","value":180}]},{"id":171,"name":"lab_console","type":"prop","rotation":0,"visible":true,"x":3392,"y":2207.2,"width":64,"height":40},{"id":172,"name":"valve3","type":"use","rotation":0,"visible":true,"x":3424,"y":2227.2,"width":0,"height":0,"point":true,"properties":[{"name":"hint","type":"string","value":"открыть вентиль синтеза"}]},{"id":173,"name":"","type":"light","rotation":0,"visible":true,"x":3424,"y":2227.2,"width":0,"height":0,"point":true,"properties":[{"name":"kind","type":"string","value":"lamp"},{"name":"color","type":"string","value":"7dff8a"},{"name":"radius","type":"int","value":180}]},{"id":174,"name":"","type":"barrel","rotation":0,"visible":true,"x":1600,"y":1817.6,"width":0,"height":0,"point":true},{"id":175,"name":"","type":"barrel","rotation":0,"visible":true,"x":2880,"y":1932.8,"width":0,"height":0,"point":true},{"id":176,"name":"","type":"barrel","rotation":0,"visible":true,"x":2240,"y":1881.6,"width":0,"height":0,"point":true},{"id":177,"name":"ammo","type":"pickup","rotation":0,"visible":true,"x":1408,"y":2265.6,"width":0,"height":0,"point":true},{"id":178,"name":"ammo","type":"pickup","rotation":0,"visible":true,"x":3072,"y":1472,"width":0,"height":0,"point":true},{"id":179,"name":"health","type":"pickup","rotation":0,"visible":true,"x":2240,"y":2265.6,"width":0,"height":0,"point":true},{"id":180,"name":"","type":"label","rotation":0,"visible":true,"x":2240,"y":1843.2,"width":0,"height":0,"point":true,"properties":[{"name":"text","type":"string","value":"ЦЕХ РОЗЛИВА «КУКАРЕКС»"},{"name":"size","type":"int","value":30},{"name":"color","type":"string","value":"#ffd27a"}]},{"id":181,"name":"","type":"note","rotation":0,"visible":true,"x":2240,"y":1996.8,"width":0,"height":0,"point":true,"properties":[{"name":"text","type":"string","value":"Плакат: «Сто тысяч банок в день! Сто тысяч кур в неделю!»"}]},{"id":182,"name":"hall","type":"spawner","rotation":0,"visible":true,"x":870.4,"y":1446.4,"width":0,"height":0,"point":true,"properties":[{"name":"how","type":"string","value":"vent"}]},{"id":183,"name":"hall","type":"spawner","rotation":0,"visible":true,"x":3609.6,"y":1446.4,"width":0,"height":0,"point":true,"properties":[{"name":"how","type":"string","value":"vent"}]},{"id":184,"name":"hall","type":"spawner","rotation":0,"visible":true,"x":870.4,"y":2265.6,"width":0,"height":0,"point":true,"properties":[{"name":"how","type":"string","value":"vent"}]},{"id":185,"name":"hall","type":"spawner","rotation":0,"visible":true,"x":3609.6,"y":2265.6,"width":0,"height":0,"point":true,"properties":[{"name":"how","type":"string","value":"vent"}]},{"id":186,"name":"hall","type":"spawner","rotation":0,"visible":true,"x":2240,"y":1414.4,"width":0,"height":0,"point":true,"properties":[{"name":"how","type":"string","value":"vent"}]},{"id":187,"name":"hall","type":"trigger","rotation":0,"visible":true,"x":832,"y":1408,"width":2816,"height":960},{"id":188,"name":"","type":"light","rotation":0,"visible":true,"x":1152,"y":1856,"width":0,"height":0,"point":true,"properties":[{"name":"kind","type":"string","value":"lamp"},{"name":"color","type":"string","value":"ffe2a8"},{"name":"radius","type":"int","value":300},{"name":"flicker","type":"float","value":0.1}]},{"id":189,"name":"","type":"light","rotation":0,"visible":true,"x":1920,"y":1856,"width":0,"height":0,"point":true,"properties":[{"name":"kind","type":"string","value":"lamp"},{"name":"color","type":"string","value":"ffe2a8"},{"name":"radius","type":"int","value":300},{"name":"flicker","type":"float","value":0.1}]},{"id":190,"name":"","type":"light","rotation":0,"visible":true,"x":2688,"y":1856,"width":0,"height":0,"point":true,"properties":[{"name":"kind","type":"string","value":"lamp"},{"name":"color","type":"string","value":"ffe2a8"},{"name":"radius","type":"int","value":300},{"name":"flicker","type":"float","value":0.1}]},{"id":191,"name":"","type":"light","rotation":0,"visible":true,"x":3328,"y":1856,"width":0,"height":0,"point":true,"properties":[{"name":"kind","type":"string","value":"lamp"},{"name":"color","type":"string","value":"ffe2a8"},{"name":"radius","type":"int","value":300},{"name":"flicker","type":"float","value":0.1}]},{"id":192,"name":"","type":"light","rotation":0,"visible":true,"x":1408,"y":1856,"width":0,"height":0,"point":true,"properties":[{"name":"kind","type":"string","value":"alarm"},{"name":"color","type":"string","value":"ff3b1f"},{"name":"radius","type":"int","value":380}]},{"id":193,"name":"","type":"light","rotation":0,"visible":true,"x":3072,"y":1856,"width":0,"height":0,"point":true,"properties":[{"name":"kind","type":"string","value":"alarm"},{"name":"color","type":"string","value":"ff3b1f"},{"name":"radius","type":"int","value":380}]},{"id":194,"name":"lab_console","type":"prop","rotation":0,"visible":true,"x":3808,"y":1426.4,"width":64,"height":40},{"id":195,"name":"lab_console","type":"prop","rotation":0,"visible":true,"x":4032,"y":1426.4,"width":64,"height":40},{"id":196,"name":"cabinet","type":"prop","rotation":0,"visible":true,"x":4229.6,"y":1702,"width":40,"height":52,"properties":[{"name":"rot","type":"int","value":90}]},{"id":197,"name":"chair_blue","type":"prop","rotation":0,"visible":true,"x":3912,"y":1514.5,"width":48,"height":43},{"id":198,"name":"","type":"note","rotation":0,"visible":true,"x":3968,"y":1497.6,"width":0,"height":0,"point":true,"properties":[{"name":"text","type":"string","value":"Пульт: «Синтез антидота: требуется открыть 3 вентиля в цехе»"}]},{"id":199,"name":"weapon","type":"pickup","rotation":0,"visible":true,"x":4096,"y":1856,"width":0,"height":0,"point":true,"properties":[{"name":"weapon","type":"string","value":"flamethrower"}]},{"id":200,"name":"armor","type":"pickup","rotation":0,"visible":true,"x":3776,"y":1881.6,"width":0,"height":0,"point":true},{"id":201,"name":"","type":"label","rotation":0,"visible":true,"x":4000,"y":1760,"width":0,"height":0,"point":true,"properties":[{"name":"text","type":"string","value":"ПУЛЬТОВАЯ"},{"name":"size","type":"int","value":18},{"name":"color","type":"string","value":"#ffd27a"}]},{"id":202,"name":"","type":"light","rotation":0,"visible":true,"x":3968,"y":1664,"width":0,"height":0,"point":true,"properties":[{"name":"kind","type":"string","value":"lamp"},{"name":"color","type":"string","value":"b7ff9a"},{"name":"radius","type":"int","value":220}]},{"id":203,"name":"pallet","type":"prop","rotation":0,"visible":true,"x":994,"y":2530,"width":60,"height":60},{"id":204,"name":"pallet","type":"prop","rotation":0,"visible":true,"x":994,"y":2818,"width":60,"height":60},{"id":205,"name":"pallet","type":"prop","rotation":0,"visible":true,"x":1314,"y":2530,"width":60,"height":60},{"id":206,"name":"pallet","type":"prop","rotation":0,"visible":true,"x":1314,"y":2818,"width":60,"height":60},{"id":207,"name":"pallet","type":"prop","rotation":0,"visible":true,"x":1634,"y":2530,"width":60,"height":60},{"id":208,"name":"pallet","type":"prop","rotation":0,"visible":true,"x":1634,"y":2818,"width":60,"height":60},{"id":209,"name":"pallet","type":"prop","rotation":0,"visible":true,"x":2082,"y":2530,"width":60,"height":60},{"id":210,"name":"pallet","type":"prop","rotation":0,"visible":true,"x":2082,"y":2818,"width":60,"height":60},{"id":211,"name":"pallet","type":"prop","rotation":0,"visible":true,"x":2402,"y":2530,"width":60,"height":60},{"id":212,"name":"pallet","type":"prop","rotation":0,"visible":true,"x":2402,"y":2818,"width":60,"height":60},{"id":213,"name":"pallet","type":"prop","rotation":0,"visible":true,"x":2722,"y":2530,"width":60,"height":60},{"id":214,"name":"pallet","type":"prop","rotation":0,"visible":true,"x":2722,"y":2818,"width":60,"height":60},{"id":215,"name":"crate","type":"prop","rotation":0,"visible":true,"x":997,"y":2533,"width":54,"height":54},{"id":216,"name":"crate","type":"prop","rotation":0,"visible":true,"x":1637,"y":2533,"width":54,"height":54},{"id":217,"name":"crate","type":"prop","rotation":0,"visible":true,"x":2405,"y":2533,"width":54,"height":54},{"id":218,"name":"sign_exit","type":"prop","rotation":0,"visible":true,"x":1796,"y":3035.4,"width":56,"height":22},{"id":219,"name":"","type":"label","rotation":0,"visible":true,"x":1824,"y":2707.2,"width":0,"height":0,"point":true,"properties":[{"name":"text","type":"string","value":"СКЛАД ГОТОВОЙ ПРОДУКЦИИ"},{"name":"size","type":"int","value":22},{"name":"color","type":"string","value":"#ffd27a"}]},{"id":220,"name":"","type":"note","rotation":0,"visible":true,"x":1824,"y":3008,"width":0,"height":0,"point":true,"properties":[{"name":"text","type":"string","value":"Табличка: «К АНГАРУ. Вход только для руководства»"}]},{"id":221,"name":"exit","type":"trigger","rotation":0,"visible":true,"x":1536,"y":2880,"width":576,"height":192,"properties":[{"name":"all","type":"bool","value":true}]},{"id":222,"name":"","type":"light","rotation":0,"visible":true,"x":1824,"y":2944,"width":0,"height":0,"point":true,"properties":[{"name":"kind","type":"string","value":"emergency"},{"name":"color","type":"string","value":"ff2a1a"},{"name":"radius","type":"int","value":260}]}]}]}