{"type":"map","version":"1.10","tiledversion":"1.11.0","orientation":"orthogonal","renderorder":"right-down","width":64,"height":48,"tilewidth":64,"tileheight":64,"infinite":false,"nextlayerid":5,"nextobjectid":188,"properties":[{"name":"theme","type":"string","value":"lab"},{"name":"ambient","type":"float","value":0.86}],"tilesets":[{"firstgid":1,"name":"kenney","image":"../gen/tiles.png","imagewidth":1728,"imageheight":1280,"tilewidth":64,"tileheight":64,"tilecount":540,"columns":27,"margin":0,"spacing":0},{"firstgid":541,"name":"walls","image":"../gen/walls.png","imagewidth":1024,"imageheight":768,"tilewidth":64,"tileheight":64,"tilecount":192,"columns":16,"margin":0,"spacing":0}],"layers":[{"id":1,"name":"floor","type":"tilelayer","width":64,"height":48,"x":0,"y":0,"opacity":1,"visible":true,"data":[0,0,0,0,0,0,0,0,0,0,0,0,0,0,0,0,0,0,0,0,0,0,0,0,0,0,0,0,0,0,0,0,0,0,0,0,0,0,0,0,0,0,0,0,0,0,0,0,0,0,0,0,0,0,0,0,0,0,0,0,0,0,0,0,0,0,0,0,0,0,0,0,0,0,0,0,0,0,0,0,0,0,0,0,0,0,0,0,0,0,0,0,0,0,0,0,0,0,0,0,0,0,0,0,0,0,0,0,0,0,0,0,0,0,0,0,0,0,0,0,0,0,0,0,0,0,0,0,0,0,7,7,7,7,7,7,7,7,7,0,0,0,0,0,0,0,0,0,0,0,0,0,0,0,0,0,0,0,0,298,272,298,271,271,271,271,271,299,271,272,272,299,298,299,299,0,10,9,9,8,11,11,0,9,10,8,9,11,10,10,0,0,0,0,7,7,7,7,7,7,7,7,7,0,0,0,0,0,0,0,0,0,0,0,0,0,0,0,0,0,0,0,0,271,271,271,298,299,299,298,298,271,272,298,299,271,271,299,271,0,9,8,8,8,8,10,0,9,11,9,9,11,10,9,0,0,0,0,7,7,7,7,7,7,7,7,7,0,10,10,10,10,10,10,10,10,10,10,10,10,10,10,10,10,10,10,10,298,271,298,271,272,298,299,298,299,298,271,271,299,272,298,271,0,8,9,8,9,8,9,0,8,8,11,10,9,10,8,0,0,0,0,7,7,7,7,7,7,7,7,7,10,10,10,10,10,10,10,10,10,10,10,10,10,10,10,10,10,10,10,10,299,298,272,272,299,272,272,299,272,298,298,299,272,299,271,298,10,8,10,8,11,10,8,0,10,9,9,8,8,10,11,0,0,0,0,7,7,7,7,7,7,7,7,7,0,10,10,10,10,10,10,10,10,10,10,10,10,10,10,10,10,10,10,10,299,299,299,271,0,0,272,271,271,271,299,0,0,271,299,298,10,10,9,11,9,10,10,0,10,10,10,10,9,11,8,0,0,0,0,7,7,7,7,7,7,7,7,7,0,0,0,0,0,0,0,0,0,0,0,0,0,0,0,0,0,0,0,0,299,299,271,271,0,0,298,299,271,272,271,0,0,271,298,299,0,8,8,10,11,9,11,10,11,11,11,9,11,10,9,0,0,0,0,7,7,7,7,7,7,7,7,7,0,0,0,0,0,0,0,0,0,0,0,0,0,0,0,0,0,0,0,0,298,298,299,272,272,298,299,299,299,299,298,272,298,298,298,298,0,11,10,8,8,11,9,9,8,9,10,8,11,10,9,0,0,0,0,7,7,7,7,7,7,7,7,7,0,0,0,0,0,0,0,0,0,0,0,0,0,0,0,0,0,0,0,0,272,298,299,272,299,299,272,299,272,298,272,271,271,298,299,271,0,10,8,8,9,9,8,9,8,10,10,11,8,10,8,0,0,0,0,0,0,0,0,0,0,0,0,0,0,0,0,0,0,0,0,0,0,0,0,0,0,0,0,0,0,0,0,0,299,271,272,299,272,271,299,298,272,271,271,271,298,271,272,299,0,8,8,9,9,9,11,8,11,10,9,8,8,10,11,0,0,0,0,0,0,0,0,0,0,0,0,0,0,0,0,0,0,0,0,0,0,0,0,0,0,0,0,0,0,0,0,0,271,272,271,298,271,298,271,272,272,298,271,272,298,272,272,298,0,0,0,0,0,0,0,0,0,0,0,0,0,0,0,0,0,0,0,86,86,86,86,86,86,86,86,86,86,86,86,86,0,0,0,0,0,0,0,0,0,0,0,0,0,0,0,0,271,271,272,298,0,0,271,272,272,299,299,0,0,299,298,298,0,0,0,0,0,0,0,0,0,0,0,0,0,0,0,0,0,0,0,86,86,86,86,86,86,86,86,86,86,86,86,86,0,0,0,0,0,0,0,0,0,0,0,0,0,0,0,0,298,272,298,271,0,0,272,272,271,298,299,0,0,298,298,299,0,0,0,0,0,0,0,0,0,0,0,0,0,0,0,0,0,0,0,86,86,86,86,86,86,86,86,86,86,86,86,86,0,10,10,10,10,10,10,10,10,10,10,10,10,10,10,0,271,299,299,272,271,299,271,272,298,272,272,271,272,272,272,271,0,0,0,0,0,0,0,0,0,0,0,0,0,0,0,0,0,0,0,86,86,86,86,86,86,86,86,86,86,86,86,86,10,10,10,10,10,10,10,10,10,10,10,10,10,10,10,10,299,271,299,271,272,271,298,298,298,298,298,271,298,272,271,299,0,0,0,0,0,0,0,0,0,0,0,0,0,0,0,0,0,0,0,86,86,86,86,86,86,86,86,86,86,86,86,86,0,10,10,10,10,10,10,10,10,10,10,10,10,10,10,0,298,298,299,271,299,299,271,298,299,298,299,299,271,298,299,298,0,0,0,0,0,0,0,0,0,0,0,0,0,0,0,0,0,0,0,86,86,86,86,86,86,86,86,86,86,86,86,86,0,0,0,0,0,0,0,0,0,0,0,0,0,0,0,0,0,0,0,0,0,0,0,10,10,10,0,0,0,0,0,0,0,0,0,0,0,0,0,0,0,0,0,0,0,0,0,0,0,0,0,86,86,86,86,86,86,86,86,86,86,86,86,86,0,0,0,0,0,0,0,0,0,0,0,0,0,0,0,0,326,325,325,326,352,325,326,325,325,326,352,352,325,325,326,325,325,352,352,326,326,325,325,325,326,326,325,325,352,352,325,0,0,0,0,86,86,86,86,86,86,86,86,86,86,86,86,86,0,0,0,0,0,0,0,0,0,0,0,0,0,0,0,0,325,326,352,352,326,352,325,325,325,326,352,326,352,325,352,325,352,352,352,326,325,325,326,326,326,326,352,326,326,352,352,0,0,0,0,86,86,86,86,86,86,86,86,86,86,86,86,86,0,0,0,0,0,0,0,0,0,0,0,0,0,0,0,0,326,352,326,326,352,326,326,352,352,326,325,326,325,352,326,325,352,352,352,326,326,352,325,352,325,325,352,325,326,325,325,0,0,0,0,86,86,86,86,86,86,86,86,86,86,86,86,86,0,0,0,0,0,0,0,0,0,0,0,0,0,0,0,0,326,326,352,325,326,326,325,325,325,326,325,352,352,325,326,326,326,326,352,326,325,325,326,326,352,352,326,325,325,326,326,0,0,0,0,86,86,86,86,86,86,86,86,86,86,86,86,86,0,0,0,0,0,0,0,0,0,0,0,0,0,0,0,0,326,325,326,326,325,352,326,326,326,325,325,325,325,326,326,325,326,352,326,352,352,325,325,326,326,325,352,326,352,325,325,0,0,0,0,0,0,0,0,0,0,0,0,0,0,0,0,0,0,0,0,0,0,0,0,0,0,0,0,0,0,0,0,0,352,325,325,325,326,0,0,326,325,325,325,325,325,0,0,326,326,325,325,325,325,0,0,325,352,326,326,325,352,352,352,0,0,0,0,0,0,0,0,0,0,0,0,0,0,0,0,0,0,0,0,0,0,0,0,0,0,0,0,0,0,0,0,0,352,326,326,326,325,0,0,325,352,325,326,326,325,0,0,326,325,352,352,325,352,0,0,326,352,352,352,325,352,325,352,0,0,0,0,86,86,86,86,86,86,86,86,86,86,86,86,86,86,86,86,86,86,0,0,0,0,0,0,0,0,0,0,0,325,326,325,326,326,0,0,325,325,352,325,352,325,0,0,352,326,325,326,352,325,0,0,326,325,352,325,326,325,326,326,0,0,0,0,86,86,86,86,86,86,86,86,86,86,86,86,86,86,86,86,86,86,0,0,0,0,0,0,0,0,0,0,0,325,326,325,325,352,352,325,352,352,325,325,352,352,326,352,325,352,326,325,326,326,352,325,325,352,352,326,325,326,352,326,0,0,0,0,86,86,86,86,86,86,86,86,86,86,86,86,86,86,86,86,86,86,0,10,10,10,10,10,10,10,10,10,0,352,326,325,352,352,352,326,326,325,325,325,352,325,326,352,352,326,326,352,326,326,352,325,352,352,325,352,352,325,326,325,0,0,0,0,86,86,86,86,86,86,86,86,86,86,86,86,86,86,86,86,86,86,10,10,10,10,10,10,10,10,10,10,10,352,352,352,325,325,325,352,326,352,325,325,326,326,352,352,325,326,325,352,325,325,326,325,326,326,326,325,325,326,352,352,0,0,0,0,86,86,86,86,86,86,86,86,86,86,86,86,86,86,86,86,86,86,0,10,10,10,10,10,10,10,10,10,0,325,325,326,352,352,325,325,326,325,325,352,352,326,326,325,325,352,352,325,326,326,326,326,326,352,352,326,326,325,326,325,0,0,0,0,86,86,86,86,86,86,86,86,86,86,86,86,86,86,86,86,86,86,0,0,0,0,0,0,0,0,0,0,0,352,352,352,326,352,325,326,326,352,326,352,326,325,325,352,325,352,326,326,326,352,325,326,352,325,352,325,325,352,352,352,0,0,0,0,86,86,86,86,86,86,86,86,86,86,86,86,86,86,86,86,86,86,0,0,0,0,0,0,0,0,0,0,0,0,0,0,0,0,0,0,10,10,10,0,0,0,0,0,0,0,0,0,0,0,0,0,0,0,0,0,0,0,0,0,0,0,0,0,86,86,86,86,86,86,86,86,86,86,86,86,86,86,86,86,86,86,0,0,0,0,0,0,0,0,0,0,0,0,0,0,0,0,0,0,10,10,10,0,0,0,0,0,0,0,0,0,0,0,0,0,0,0,0,0,0,0,0,0,0,0,0,0,86,86,86,86,86,86,86,86,86,86,86,86,86,86,86,86,86,86,0,0,6,5,6,6,6,6,5,5,6,5,6,5,5,5,6,6,6,5,5,5,6,5,6,0,9,11,9,9,11,11,8,9,8,11,9,8,10,11,10,11,0,0,0,0,86,86,86,86,86,86,86,86,86,86,86,86,86,86,86,86,86,86,10,10,10,6,5,5,5,6,6,5,5,6,5,5,6,5,6,5,5,5,6,5,6,5,5,0,10,11,10,11,10,11,8,10,11,10,8,11,11,9,9,9,0,0,0,0,86,86,86,86,86,86,86,86,86,86,86,86,86,86,86,86,86,86,10,10,10,6,5,5,5,6,6,6,5,6,5,6,6,5,5,6,5,5,6,6,6,6,6,0,8,11,10,9,10,10,8,9,10,10,8,10,11,9,9,9,0,0,0,0,86,86,86,86,86,86,86,86,86,86,86,86,86,86,86,86,86,86,0,0,6,6,5,6,5,5,5,5,5,6,5,6,5,5,5,6,5,6,6,6,5,6,5,0,11,8,10,9,10,9,10,11,10,9,9,11,10,10,11,9,0,0,0,0,0,0,0,0,0,0,0,10,10,10,10,0,0,0,0,0,0,0,0,0,6,5,6,6,6,6,5,6,5,6,6,6,5,6,5,6,5,6,5,6,6,5,5,0,8,8,8,9,8,10,11,9,9,10,9,10,10,10,10,10,0,0,0,0,7,7,7,7,7,7,7,7,7,7,7,7,7,7,7,7,7,7,7,0,6,6,5,6,5,6,6,6,5,5,6,5,6,5,5,5,6,6,5,6,6,6,6,0,9,9,11,11,9,8,10,8,8,11,10,9,8,10,9,8,0,0,0,0,7,7,7,7,7,7,7,7,7,7,7,7,7,7,7,7,7,7,7,0,5,6,5,6,6,5,6,6,5,6,6,6,5,5,6,5,5,5,5,6,6,6,5,10,10,8,8,8,9,10,8,11,8,11,10,11,10,8,10,8,0,0,0,0,7,7,7,7,7,7,7,7,7,7,7,7,7,7,7,7,7,7,7,0,0,0,0,0,0,0,0,0,0,6,6,5,0,0,0,0,0,0,0,0,0,0,0,0,9,8,10,8,10,11,8,10,9,9,9,11,10,11,8,9,0,0,0,0,7,7,7,7,7,7,7,7,7,7,7,7,7,7,7,7,7,7,7,0,5,5,6,6,5,5,6,6,5,6,5,5,5,5,5,6,5,6,6,6,5,6,6,0,11,11,10,9,8,10,9,11,8,9,8,11,10,10,11,10,0,0,0,0,7,7,7,7,7,7,7,7,7,7,7,7,7,7,7,7,7,7,7,0,5,5,5,5,6,5,5,5,5,6,5,5,5,6,6,6,6,5,5,5,5,6,5,0,8,9,10,10,11,8,11,9,8,11,9,8,8,9,10,10,0,0,0,0,7,7,7,7,7,7,7,7,7,7,7,7,7,7,7,7,7,7,7,0,5,5,5,6,5,6,5,6,6,6,5,5,6,5,5,6,5,5,6,6,5,5,6,0,11,10,10,11,10,10,9,11,11,10,9,11,11,9,10,10,0,0,0,0,7,7,7,7,7,7,7,7,7,7,7,7,7,7,7,7,7,7,7,0,6,5,5,5,6,5,5,6,6,6,6,6,6,5,5,6,6,6,5,5,5,6,6,0,9,11,11,10,9,8,11,10,8,8,9,11,11,11,8,11,0,0,0,0,7,7,7,7,7,7,7,7,7,7,7,7,7,7,7,7,7,7,7,0,5,6,5,5,6,6,5,6,6,5,6,5,5,5,6,6,5,6,6,6,5,6,6,0,10,8,8,11,10,9,11,8,11,9,10,9,9,11,9,11,0,0,0,0,7,7,7,7,7,7,7,7,7,7,7,7,7,7,7,7,7,7,7,0,5,5,5,5,5,5,5,5,6,5,6,5,6,5,6,5,6,6,6,6,6,5,5,0,10,10,8,11,11,8,11,10,8,9,11,10,11,10,9,9,0,0,0,0,0,0,0,0,0,0,0,0,0,0,0,0,0,0,0,0,0,0,0,0,0,0,0,0,0,0,0,0,0,0,0,0,0,0,0,0,0,0,0,0,0,0,0,0,0,0,0,0,0,0,0,0,0,0,0,0,0,0,0,0,0,0]},{"id":2,"name":"decor","type":"tilelayer","width":64,"height":48,"x":0,"y":0,"opacity":1,"visible":true,"data":[0,0,0,0,0,0,0,0,0,0,0,0,0,0,0,0,0,0,0,0,0,0,0,0,0,0,0,0,0,0,0,0,0,0,0,0,0,0,0,0,0,0,0,0,0,0,0,0,0,0,0,0,0,0,0,0,0,0,0,0,0,0,0,0,0,0,0,0,0,0,0,0,0,0,0,0,0,0,0,0,0,0,0,0,0,0,0,0,0,0,0,0,0,0,0,0,0,0,0,0,0,0,0,0,0,0,0,0,0,0,0,0,0,0,0,0,0,0,0,0,0,0,0,0,0,0,0,0,0,0,0,0,0,0,0,0,0,0,0,0,0,0,0,0,0,0,0,0,0,0,0,0,0,0,0,0,0,0,0,0,0,0,0,0,0,0,0,0,0,0,0,0,0,0,0,0,0,0,0,0,0,0,0,0,0,0,0,0,0,0,0,0,0,0,0,0,0,0,0,0,0,0,0,0,0,0,0,0,0,0,0,0,0,0,0,0,0,0,0,0,0,0,0,0,0,0,0,0,0,0,0,0,0,0,0,0,0,0,0,0,0,0,0,0,0,0,0,0,0,0,0,0,0,0,0,0,0,0,0,0,0,0,0,0,0,0,0,0,0,0,0,0,0,0,0,0,0,0,0,0,0,0,0,0,0,0,0,0,0,0,0,0,0,0,0,0,0,0,0,0,0,0,0,0,0,0,0,0,0,0,0,0,0,0,0,0,0,0,0,0,0,0,0,0,0,0,0,0,0,0,0,0,0,0,0,0,0,0,0,0,0,0,0,0,0,0,0,0,0,0,0,0,0,0,0,0,0,0,0,0,0,0,0,0,0,0,0,0,0,0,0,0,0,0,0,0,0,0,0,0,0,0,0,0,0,0,0,0,0,0,0,0,0,0,0,0,0,0,0,0,0,0,0,0,0,0,0,0,0,0,0,0,0,0,0,0,0,0,0,0,0,0,0,0,0,0,0,0,0,0,0,0,0,0,0,0,0,0,0,0,0,0,0,0,0,0,0,0,0,0,0,0,0,0,0,0,0,0,0,0,0,0,0,0,0,0,0,0,0,0,0,0,0,0,0,0,0,0,0,0,0,0,0,0,0,0,0,0,0,0,0,0,0,0,0,0,0,0,0,0,0,0,0,0,0,0,0,0,0,0,0,0,0,0,0,0,0,0,0,0,0,0,0,0,0,0,0,0,0,0,0,0,0,0,0,0,0,0,0,0,0,0,0,0,0,0,0,0,0,0,0,0,0,0,0,0,0,0,0,0,0,0,0,0,0,0,0,0,0,0,0,0,0,0,0,0,0,0,0,0,0,0,0,0,0,0,0,0,0,0,0,0,0,0,0,0,0,0,0,0,0,0,0,0,0,0,0,0,0,0,0,0,0,0,0,0,0,0,0,0,0,0,0,0,0,0,0,0,0,0,0,0,0,0,0,0,0,0,0,0,0,0,0,0,0,0,0,0,0,0,0,0,0,0,0,0,0,0,0,0,0,0,0,0,0,0,0,0,0,0,0,0,0,0,0,0,0,0,0,0,0,0,0,0,0,0,0,0,0,0,0,0,0,0,0,0,0,0,0,0,0,0,0,0,0,0,0,0,0,0,0,0,0,0,0,0,0,0,0,0,0,0,0,0,0,0,0,0,0,0,0,0,0,0,0,0,0,0,0,0,0,0,0,0,0,0,0,0,0,0,0,0,0,0,0,0,0,0,0,0,0,0,0,0,0,0,0,0,0,0,0,0,0,0,0,0,0,0,0,0,0,0,0,0,0,0,0,0,0,0,0,0,0,0,0,0,0,0,0,0,0,0,0,0,0,0,0,0,0,0,0,0,0,0,0,0,0,0,0,0,0,0,0,0,0,0,0,0,0,0,0,0,0,0,0,0,0,0,0,0,0,0,0,0,0,0,0,0,0,0,0,0,0,0,0,0,0,0,0,0,0,0,0,0,0,0,0,0,0,0,0,0,0,0,0,0,0,0,0,0,0,0,0,0,0,0,0,0,0,0,0,0,0,0,0,0,0,0,0,0,0,0,0,0,0,0,0,0,0,0,0,0,0,0,0,0,0,0,0,0,0,0,0,0,0,0,0,0,0,0,0,0,0,0,0,0,0,0,0,0,0,0,0,0,0,0,0,0,0,0,0,0,0,0,0,0,0,0,0,0,0,0,0,0,0,0,0,0,0,0,0,0,0,0,0,0,0,0,0,0,0,0,0,0,0,0,0,0,0,0,0,0,0,0,0,0,0,0,0,0,0,0,0,0,0,0,0,0,0,0,0,0,0,0,0,0,0,0,0,0,0,0,0,0,0,0,0,0,0,0,0,0,0,0,0,0,0,0,0,0,0,0,0,0,0,0,0,0,0,0,0,0,0,0,0,0,0,0,0,0,0,0,0,0,0,0,0,0,0,0,0,0,0,0,0,0,0,0,0,0,0,0,0,0,0,0,0,0,0,0,0,0,0,0,0,0,0,0,0,0,0,0,0,0,0,0,0,0,0,0,0,0,0,0,0,0,0,0,0,0,0,0,0,0,0,0,0,0,0,0,0,0,0,0,0,0,0,0,0,0,0,0,0,0,0,0,0,0,0,0,0,0,0,0,0,0,0,0,0,0,0,0,0,0,0,0,0,0,0,0,0,0,0,0,0,0,0,0,0,0,0,0,0,0,0,0,0,0,0,0,0,0,0,0,0,0,0,0,0,0,0,0,0,0,0,0,0,0,0,0,0,0,0,0,0,0,0,0,0,0,0,0,0,0,0,0,0,0,0,0,0,0,0,0,0,0,0,0,0,0,0,0,0,0,0,0,0,0,0,0,0,0,0,0,0,0,0,0,0,0,0,0,0,0,0,0,0,0,0,0,0,0,0,0,0,0,0,0,0,0,0,0,0,0,0,0,0,0,0,0,0,0,0,0,0,0,0,0,0,0,0,0,0,0,0,0,0,0,0,0,0,0,0,0,0,0,0,0,0,0,0,0,0,0,0,0,0,0,0,0,0,0,0,0,0,0,0,0,0,0,0,0,0,0,0,0,0,0,0,0,0,0,0,0,0,0,0,0,0,0,0,0,0,0,0,0,0,0,0,0,0,0,0,0,0,0,0,0,0,0,0,0,0,0,0,0,0,0,0,0,0,0,0,0,0,0,0,0,0,0,0,0,0,0,0,0,0,0,0,0,0,0,0,0,0,0,0,0,0,0,0,0,0,0,0,0,0,0,0,0,0,0,0,0,0,0,0,0,0,0,0,0,0,0,0,0,0,0,0,0,0,0,0,0,0,0,0,0,0,0,0,0,0,0,0,0,0,0,0,0,0,0,0,0,0,0,0,0,0,0,0,0,0,0,0,0,0,0,0,0,0,0,0,0,0,0,0,0,0,0,0,0,0,0,0,0,0,0,0,0,0,0,0,0,0,0,0,0,0,0,0,0,0,0,0,0,0,0,0,0,0,0,0,0,0,0,0,0,0,0,0,0,0,0,0,0,0,0,0,0,0,0,0,0,0,0,0,0,0,0,0,0,0,0,0,0,0,0,0,0,0,0,0,0,0,0,0,0,0,0,0,0,0,0,0,0,0,0,0,0,0,0,0,0,0,0,0,0,0,0,0,0,0,0,0,0,0,0,0,0,0,0,0,0,0,0,0,0,0,0,0,0,0,0,0,0,0,0,0,0,0,0,0,0,0,0,0,0,0,0,0,0,0,0,0,0,0,0,0,0,0,0,0,0,0,0,0,0,0,0,0,0,0,0,0,0,0,0,0,0,0,0,0,0,0,0,0,0,0,0,0,0,0,0,0,0,0,0,0,0,0,0,0,0,0,0,0,0,0,0,0,0,0,0,0,0,0,0,0,0,0,0,0,0,0,0,0,0,0,0,0,0,0,0,0,0,0,0,0,0,0,0,0,0,0,0,0,0,0,0,0,0,0,0,0,0,0,0,0,0,0,0,0,0,0,0,0,0,0,0,0,0,0,0,0,0,0,0,0,0,0,0,0,0,0,0,0,0,0,0,0,0,0,0,0,0,0,0,0,0,0,0,0,0,0,0,0,0,0,0,0,0,0,0,0,0,0,0,0,0,0,0,0,0,0,0,0,0,0,0,0,0,0,0,0,0,0,0,0,0,0,0,0,0,0,0,0,0,0,0,0,0,0,0,0,0,0,0,0,0,0,0,0,0,0,0,0,0,0,0,0,0,0,0,0,0,0,0,0,0,0,0,0,0,0,0,0,0,0,0,0,0,0,0,0,0,0,0,0,0,0,0,0,0,0,0,0,0,0,0,0,0,0,0,0,0,0,0,0,0,0,0,0,0,0,0,0,0,0,0,0,0,0,0,0,0,0,0,0,0,0,0,0,0,0,0,0,0,0,0,0,0,0,0,0,0,0,0,0,0,0,0,0,0,0,0,0,0,0,0,0,0,0,0,0,0,0,0,0,0,0,0,0,0,0,0,0,0,0,0,0,0,0,0,0,0,0,0,0,0,0,0,0,0,0,0,0,0,0,0,0,0,0,0,0,0,0,0,0,0,0,0,0,0,0,0,0,0,0,0,0,0,0,0,0,0,0,0,0,0,0,0,0,0,0,0,0,0,0,0,0,0,0,0,0,0,0,0,0,0,0,0,0,0,0,0,0,0,0,0,0,0,0,0,0,0,0,0,0,0,0,0,0,0,0,0,0,0,0,0,0,0,0,0,0,0,0,0,0,0,0,0,0,0,0,0,0,0,0,0,0,0,0,0,0,0,0,0,0,0,0,0,0,0,0,0,0,0,0,0,0,0,0,0,0,0,0,0,0,0,0,0,0,0,0,0,0,0,0,0,0,0,0,0,0,0,0,0,0,0,0,0,0,0,0,0,0,0,0,0,0,0,0,0,0,0,0,0,0,0,0,0,0,0,0,0,0,0,0,0,0,0,0,0,0,0,0,0,0,0,0,0,0,0,0,0,0,0,0,0,0,0,0,0,0,0,0,0,0,0,0,0,0,0,0,0,0,0,0,0,0,0,0,0,0,0,0,0,0,0,0,0,0,0,0,0,0,0,0,0,0,0,0,0,0,0,0,0,0,0,0,0,0,0,0,0,0,0,0,0,0,0,0,0,0,0,0,0,0,0,0,0,0,0,0,0,0,0,0,0,0,0,0,0,0,0,0,0,0,0,0,0,0,0,0,0,0,0,0,0,0,0,0,0,0,0,0,0,0,0,0,0,0,0,0,0,0,0,0,0,0,0,0,0,0,0,0,0,0,0,0,0,0,0,0,0,0,0,0,0,0,0,0,0,0,0,0,0,0,0,0,0,0,0,0,0,0,0,0,0,0,0,0,0,0,0,0,0,0,0,0,0,0,0,0,0,0,0,0,0,0,0,0,0,0,0,0,0,0,0,0,0,0,0,0,0,0,0,0,0,0,0,0,0,0,0,0,0,0,0,0,0,0,0,0,0,0,0,0,0,0,0,0,0,0,0,0,0,0,0,0,0,0,0,0,0,0,0,0,0,0,0,0,0,0,0,0,0,0,0,0,0,0,0,0,0,0,0,0,0,0,0,0,0,0,0,0,0,0,0,0,0,0,0,0,0,0,0,0,0,0,0,0,0,0,0,0,0,0,0,0,0,0,0,0,0,0,0,0,0,0,0,0,0,0,0,0,0,0,0,0,0,0,0,0,0,0,0,0,0,0,0,0,0,0,0,0,0,0,0,0,0,0,0,0,0,0,0,0,0,0,0,0,0,0,0,0,0,0,0,0,0,0,0,0,0,0,0,0,0,0,0,0,0,0,0,0,0,0,0,0,0,0,0,0,0,0,0,0,0,0,0,0,0,0,0,0,0,0,0,0,0,0,0,0,0,0,0,0,0,0,0,0,0,0,0,0,0,0,0,0,0,0,0,0,0,0,0,0,0,0,0,0,0,0,0,0,0,0,0,0,0,0,0,0,0,0,0,0,0,0,0,0,0,0,0,0,0,0,0,0,0,0,0,0,0,0,0,0,0,0,0,0,0,0,0,0,0,0,0,0,0,0,0,0,0,0,0,0,0,0,0,0,0,0,0,0,0,0,0,0,0,0,0,0,0,0,0,0,0,0,0,0,0,0,0,0,0,0,0,0,0,0,0,0,0,0,0,0,0,0,0,0,0,0,0,0,0,0,0,0,0,0,0,0,0,0,0,0,0,0,0,0,0,0,0,0,0,0,0,0,0,0,0,0,0,0,0,0,0,0,0,0,0,0,0,0,0,0,0,0,0,0,0,0,0,0,0,0,0,0,0,0,0,0,0,0,0,0,0,0,0,0,0,0,0,0,0,0,0,0,0,0,0,0,0,0,0,0,0,0,0,0,0,0,0,0,0,0,0,0,0,0,0,0,0,0,0,0,0,0,0,0,0,0,0,0,0,0,0,0,0,0,0,0,0,0,0,0,0,0,0,0,0,0,0,0,0,0,0,0,0,0,0,0,0,0,0,0,0,0,0,0,0,0,0,0,0,0,0,0,0,0,0,0,0,0,0,0,0,0,0,0,0,0,0,0,0,0,0,0,0,0,0,0,0,0,0,0,0,0,0,0,0,0,0,0,0,0,0,0,0,0,0,0,0,0,0,0,0,0,0,0,0,0,0,0,0,0,0,0,0,0,0,0,0,0,0,0,0,0,0,0,0,0,0,0,0,0,0,0,0,0,0,0,0,0,0,0,0,0,0,0,0,0,0,0,0,0,0,0,0,0,0,0,0,0,0,0,0,0,0,0,0,0,0,0,0,0,0,0,0,0,0,0,0,0,0,0,0,0,0,0,0,0,0,0,0,0,0,0,0,0,0,0,0,0,0,0,0,0,0,0,0,0,0,0,0,0,0,0,0,0,0,0,0,0,0,0,0,0,0,0,0,0,0,0,0,0,0,0,0,0,0,0,0,0,0,0,0,0,0]},{"id":3,"name":"walls","type":"tilelayer","width":64,"height":48,"x":0,"y":0,"opacity":1,"visible":true,"data":[635,635,635,635,635,635,635,635,635,635,635,635,635,635,635,635,635,635,635,635,635,635,635,635,635,635,635,635,635,635,635,635,635,635,635,635,635,635,635,635,635,635,635,635,635,635,635,635,635,635,635,635,635,635,635,635,635,635,635,635,635,635,635,635,635,633,627,627,627,627,627,627,627,627,627,630,635,635,635,635,635,635,635,635,635,635,635,635,635,635,635,635,635,635,633,627,627,627,627,627,627,627,627,627,627,627,627,627,627,627,627,628,627,627,627,627,627,627,628,627,627,627,627,627,627,627,630,635,635,631,0,0,0,0,0,0,0,0,0,613,635,635,635,635,635,635,635,635,635,635,635,635,635,635,635,635,635,635,631,0,0,0,0,0,0,0,0,0,0,0,0,0,0,0,0,594,0,0,0,0,0,0,594,0,0,0,0,0,0,0,613,635,635,631,0,0,0,0,0,0,0,0,0,606,627,627,627,627,627,627,627,627,627,627,627,627,627,627,627,627,627,627,623,0,0,0,0,0,0,0,0,0,0,0,0,0,0,0,0,594,0,0,0,0,0,0,594,0,0,0,0,0,0,0,613,635,635,631,0,0,0,0,0,0,0,0,0,590,0,0,0,0,0,0,0,0,0,0,0,0,0,0,0,0,0,0,0,0,0,0,0,0,0,0,0,0,0,0,0,0,0,0,0,590,0,0,0,0,0,0,594,0,0,0,0,0,0,0,613,635,635,631,0,0,0,0,0,0,0,0,0,0,0,0,0,0,0,0,0,0,0,0,0,0,0,0,0,0,0,0,0,0,0,0,0,0,0,0,0,0,0,0,0,0,0,0,0,0,0,0,0,0,0,0,594,0,0,0,0,0,0,0,613,635,635,631,0,0,0,0,0,0,0,0,0,593,0,0,0,0,0,0,0,0,0,0,0,0,0,0,0,0,0,0,0,0,0,0,0,609,615,0,0,0,0,0,609,615,0,0,0,0,0,0,0,0,0,0,590,0,0,0,0,0,0,0,613,635,635,631,0,0,0,0,0,0,0,0,0,610,620,620,620,620,620,620,620,620,620,620,620,620,620,620,620,620,620,620,615,0,0,0,0,605,623,0,0,0,0,0,605,623,0,0,0,593,0,0,0,0,0,0,0,0,0,0,0,0,0,0,613,635,635,631,0,0,0,0,0,0,0,0,0,613,635,635,635,635,635,635,635,635,635,635,635,635,635,635,635,635,635,635,631,0,0,0,0,0,0,0,0,0,0,0,0,0,0,0,0,594,0,0,0,0,0,0,0,0,0,0,0,0,0,0,613,635,635,631,0,0,0,0,0,0,0,0,0,613,635,635,635,635,635,635,635,635,635,635,635,635,635,635,635,635,635,635,631,0,0,0,0,0,0,0,0,0,0,0,0,0,0,0,0,594,0,0,0,0,0,0,0,0,0,0,0,0,0,0,613,635,635,634,620,620,620,620,620,620,620,620,620,622,635,635,635,635,635,635,635,635,635,635,635,635,635,635,635,635,635,635,631,0,0,0,0,0,0,0,0,0,0,0,0,0,0,0,0,594,0,0,0,0,0,0,0,0,0,0,0,0,0,0,613,635,635,633,627,627,627,627,627,627,627,627,627,627,627,627,627,630,635,635,635,635,635,635,635,635,635,635,635,635,635,635,631,0,0,0,0,0,0,0,0,0,0,0,0,0,0,0,0,610,620,620,620,620,620,620,620,620,620,620,620,620,620,620,622,635,635,631,0,0,0,0,0,0,0,0,0,0,0,0,0,613,635,635,635,635,635,635,635,635,635,635,635,635,635,635,631,0,0,0,0,609,615,0,0,0,0,0,609,615,0,0,0,613,635,635,635,635,635,635,635,635,635,635,635,635,635,635,635,635,635,631,0,0,0,0,0,0,0,0,0,0,0,0,0,606,627,627,627,627,627,627,627,627,627,627,627,627,627,627,625,0,0,0,0,605,623,0,0,0,0,0,605,623,0,0,0,613,635,635,635,635,635,635,635,635,635,635,635,635,635,635,635,635,635,631,0,0,0,0,0,0,0,0,0,0,0,0,0,590,0,0,0,0,0,0,0,0,0,0,0,0,0,0,590,0,0,0,0,0,0,0,0,0,0,0,0,0,0,0,0,613,635,635,635,635,635,635,635,635,635,635,635,635,635,635,635,635,635,631,0,0,0,0,0,0,0,0,0,0,0,0,0,0,0,0,0,0,0,0,0,0,0,0,0,0,0,0,0,0,0,0,0,0,0,0,0,0,0,0,0,0,0,0,0,613,635,635,635,635,635,635,635,635,635,635,635,635,635,635,635,635,635,631,0,0,0,0,0,0,0,0,0,0,0,0,0,593,0,0,0,0,0,0,0,0,0,0,0,0,0,0,593,0,0,0,0,0,0,0,0,0,0,0,0,0,0,0,0,613,635,635,635,635,635,635,635,635,635,635,635,635,635,635,635,635,635,631,0,0,0,0,0,0,0,0,0,0,0,0,0,610,620,620,620,620,620,620,620,620,620,620,620,620,620,620,618,599,599,599,599,599,599,597,0,0,0,591,599,599,599,599,599,607,627,627,627,627,627,627,627,627,627,627,627,627,627,627,630,635,635,631,0,0,0,0,0,0,0,0,0,0,0,0,0,613,635,635,635,635,635,635,635,635,635,635,635,635,635,635,631,0,0,0,0,0,0,0,0,0,0,0,0,0,0,0,0,0,0,0,0,0,0,0,0,0,0,0,0,0,0,0,613,635,635,631,0,0,0,0,0,0,0,0,0,0,0,0,0,613,635,635,635,635,635,635,635,635,635,635,635,635,635,635,631,0,0,0,0,0,0,0,0,0,0,0,0,0,0,0,0,0,0,0,0,0,0,0,0,0,0,0,0,0,0,0,613,635,635,631,0,0,0,0,0,0,0,0,0,0,0,0,0,613,635,635,635,635,635,635,635,635,635,635,635,635,635,635,631,0,0,0,0,0,0,0,0,0,0,0,0,0,0,0,0,0,0,0,0,0,0,0,0,0,0,0,0,0,0,0,613,635,635,631,0,0,0,0,0,0,0,0,0,0,0,0,0,613,635,635,635,635,635,635,635,635,635,635,635,635,635,635,631,0,0,0,0,0,0,0,0,0,0,0,0,0,0,0,0,0,0,0,0,0,0,0,0,0,0,0,0,0,0,0,613,635,635,631,0,0,0,0,0,0,0,0,0,0,0,0,0,613,635,635,635,635,635,635,635,635,635,635,635,635,635,635,631,0,0,0,0,0,0,0,0,0,0,0,0,0,0,0,0,0,0,0,0,0,0,0,0,0,0,0,0,0,0,0,613,635,635,634,620,620,620,620,620,620,620,620,620,620,620,620,620,622,635,635,635,635,635,635,635,635,635,635,635,635,635,635,631,0,0,0,0,0,609,615,0,0,0,0,0,0,609,615,0,0,0,0,0,0,609,615,0,0,0,0,0,0,0,0,613,635,635,633,627,627,627,627,627,627,627,627,627,627,627,627,627,627,627,627,627,627,630,635,635,635,635,635,635,635,635,635,631,0,0,0,0,0,613,631,0,0,0,0,0,0,613,631,0,0,0,0,0,0,613,631,0,0,0,0,0,0,0,0,613,635,635,631,0,0,0,0,0,0,0,0,0,0,0,0,0,0,0,0,0,0,613,635,635,635,635,635,635,635,635,635,631,0,0,0,0,0,605,623,0,0,0,0,0,0,605,623,0,0,0,0,0,0,605,623,0,0,0,0,0,0,0,0,613,635,635,631,0,0,0,0,0,0,0,0,0,0,0,0,0,0,0,0,0,0,606,627,627,627,627,627,627,627,627,627,625,0,0,0,0,0,0,0,0,0,0,0,0,0,0,0,0,0,0,0,0,0,0,0,0,0,0,0,0,0,0,0,613,635,635,631,0,0,0,0,0,0,0,0,0,0,0,0,0,0,0,0,0,0,590,0,0,0,0,0,0,0,0,0,590,0,0,0,0,0,0,0,0,0,0,0,0,0,0,0,0,0,0,0,0,0,0,0,0,0,0,0,0,0,0,0,613,635,635,631,0,0,0,0,0,0,0,0,0,0,0,0,0,0,0,0,0,0,0,0,0,0,0,0,0,0,0,0,0,0,0,0,0,0,0,0,0,0,0,0,0,0,0,0,0,0,0,0,0,0,0,0,0,0,0,0,0,0,0,0,613,635,635,631,0,0,0,0,0,0,0,0,0,0,0,0,0,0,0,0,0,0,593,0,0,0,0,0,0,0,0,0,593,0,0,0,0,0,0,0,0,0,0,0,0,0,0,0,0,0,0,0,0,0,0,0,0,0,0,0,0,0,0,0,613,635,635,631,0,0,0,0,0,0,0,0,0,0,0,0,0,0,0,0,0,0,610,620,620,620,620,620,620,620,620,620,616,0,0,0,0,0,0,0,0,0,0,0,0,0,0,0,0,0,0,0,0,0,0,0,0,0,0,0,0,0,0,0,613,635,635,631,0,0,0,0,0,0,0,0,0,0,0,0,0,0,0,0,0,0,613,635,635,635,635,635,635,635,635,635,634,620,620,620,620,620,620,615,0,0,0,609,620,620,620,620,620,620,620,620,620,620,620,620,620,620,620,620,620,620,620,620,622,635,635,631,0,0,0,0,0,0,0,0,0,0,0,0,0,0,0,0,0,0,613,633,627,627,627,627,627,627,627,627,627,627,627,627,627,627,627,623,0,0,0,605,627,627,627,628,627,627,627,627,627,627,627,627,627,627,627,627,627,627,627,627,630,635,635,631,0,0,0,0,0,0,0,0,0,0,0,0,0,0,0,0,0,0,605,623,0,0,0,0,0,0,0,0,0,0,0,0,0,0,0,0,0,0,0,0,0,0,0,594,0,0,0,0,0,0,0,0,0,0,0,0,0,0,0,0,613,635,635,631,0,0,0,0,0,0,0,0,0,0,0,0,0,0,0,0,0,0,0,0,0,0,0,0,0,0,0,0,0,0,0,0,0,0,0,0,0,0,0,0,0,0,0,594,0,0,0,0,0,0,0,0,0,0,0,0,0,0,0,0,613,635,635,631,0,0,0,0,0,0,0,0,0,0,0,0,0,0,0,0,0,0,0,0,0,0,0,0,0,0,0,0,0,0,0,0,0,0,0,0,0,0,0,0,0,0,0,594,0,0,0,0,0,0,0,0,0,0,0,0,0,0,0,0,613,635,635,631,0,0,0,0,0,0,0,0,0,0,0,0,0,0,0,0,0,0,609,615,0,0,0,0,0,0,0,0,0,0,0,0,0,0,0,0,0,0,0,0,0,0,0,594,0,0,0,0,0,0,0,0,0,0,0,0,0,0,0,0,613,635,635,632,599,599,599,599,599,599,597,0,0,0,0,591,599,599,599,599,599,599,607,625,0,0,0,0,0,0,0,0,0,0,0,0,0,0,0,0,0,0,0,0,0,0,0,594,0,0,0,0,0,0,0,0,0,0,0,0,0,0,0,0,613,635,635,631,0,0,0,0,0,0,0,0,0,0,0,0,0,0,0,0,0,0,0,594,0,0,0,0,0,0,0,0,0,0,0,0,0,0,0,0,0,0,0,0,0,0,0,590,0,0,0,0,0,0,0,0,0,0,0,0,0,0,0,0,613,635,635,631,0,0,0,0,0,0,0,0,0,0,0,0,0,0,0,0,0,0,0,594,0,0,0,0,0,0,0,0,0,0,0,0,0,0,0,0,0,0,0,0,0,0,0,0,0,0,0,0,0,0,0,0,0,0,0,0,0,0,0,0,613,635,635,631,0,0,0,0,0,0,0,0,0,0,0,0,0,0,0,0,0,0,0,596,599,599,599,599,599,599,599,599,597,0,0,0,591,599,599,599,599,599,599,599,599,599,599,601,0,0,0,0,0,0,0,0,0,0,0,0,0,0,0,0,613,635,635,631,0,0,0,0,0,0,0,0,0,0,0,0,0,0,0,0,0,0,0,594,0,0,0,0,0,0,0,0,0,0,0,0,0,0,0,0,0,0,0,0,0,0,0,594,0,0,0,0,0,0,0,0,0,0,0,0,0,0,0,0,613,635,635,631,0,0,0,0,0,0,0,0,0,0,0,0,0,0,0,0,0,0,0,594,0,0,0,0,0,0,0,0,0,0,0,0,0,0,0,0,0,0,0,0,0,0,0,594,0,0,0,0,0,0,0,0,0,0,0,0,0,0,0,0,613,635,635,631,0,0,0,0,0,0,0,0,0,0,0,0,0,0,0,0,0,0,0,594,0,0,0,0,0,0,0,0,0,0,0,0,0,0,0,0,0,0,0,0,0,0,0,594,0,0,0,0,0,0,0,0,0,0,0,0,0,0,0,0,613,635,635,631,0,0,0,0,0,0,0,0,0,0,0,0,0,0,0,0,0,0,0,594,0,0,0,0,0,0,0,0,0,0,0,0,0,0,0,0,0,0,0,0,0,0,0,594,0,0,0,0,0,0,0,0,0,0,0,0,0,0,0,0,613,635,635,631,0,0,0,0,0,0,0,0,0,0,0,0,0,0,0,0,0,0,0,594,0,0,0,0,0,0,0,0,0,0,0,0,0,0,0,0,0,0,0,0,0,0,0,594,0,0,0,0,0,0,0,0,0,0,0,0,0,0,0,0,613,635,635,631,0,0,0,0,0,0,0,0,0,0,0,0,0,0,0,0,0,0,0,594,0,0,0,0,0,0,0,0,0,0,0,0,0,0,0,0,0,0,0,0,0,0,0,594,0,0,0,0,0,0,0,0,0,0,0,0,0,0,0,0,613,635,635,634,620,620,620,620,620,620,620,620,620,620,620,620,620,620,620,620,620,620,620,621,620,620,620,620,620,620,620,620,620,620,620,620,620,620,620,620,620,620,620,620,620,620,620,621,620,620,620,620,620,620,620,620,620,620,620,620,620,620,620,620,622,635]},{"id":4,"name":"objects","type":"objectgroup","draworder":"topdown","opacity":1,"visible":true,"x":0,"y":0,"objects":[{"id":1,"name":"decon","type":"door","rotation":0,"visible":true,"x":1368,"y":256,"width":16,"height":192,"properties":[{"name":"theme","type":"string","value":"lab"},{"name":"dir","type":"string","value":"v"}]},{"id":2,"name":"atrium","type":"door","rotation":0,"visible":true,"x":1944,"y":256,"width":16,"height":192,"properties":[{"name":"theme","type":"string","value":"lab"},{"name":"dir","type":"string","value":"v"}]},{"id":3,"name":"arrival","type":"door","rotation":0,"visible":true,"x":728,"y":320,"width":16,"height":64,"properties":[{"name":"theme","type":"string","value":"lab"},{"name":"dir","type":"string","value":"v"}]},{"id":4,"name":"labb","type":"door","rotation":0,"visible":true,"x":3032,"y":320,"width":16,"height":128,"properties":[{"name":"theme","type":"string","value":"lab"},{"name":"dir","type":"string","value":"v"}]},{"id":5,"name":"armory","type":"door","rotation":0,"visible":true,"x":984,"y":960,"width":16,"height":64,"properties":[{"name":"theme","type":"string","value":"lab"},{"name":"locked","type":"string","value":"lab"},{"name":"dir","type":"string","value":"v"}]},{"id":6,"name":"westc","type":"door","rotation":0,"visible":true,"x":1944,"y":960,"width":16,"height":64,"properties":[{"name":"theme","type":"string","value":"lab"},{"name":"dir","type":"string","value":"v"}]},{"id":7,"name":"incubator","type":"door","rotation":0,"visible":true,"x":2432,"y":1112,"width":192,"height":16,"properties":[{"name":"theme","type":"string","value":"lab"},{"name":"dir","type":"string","value":"h"}]},{"id":8,"name":"gen","type":"door","rotation":0,"visible":true,"x":1304,"y":1792,"width":16,"height":64,"properties":[{"name":"theme","type":"string","value":"lab"},{"name":"dir","type":"string","value":"v"}]},{"id":9,"name":"swc","type":"door","rotation":0,"visible":true,"x":1944,"y":1792,"width":16,"height":64,"properties":[{"name":"theme","type":"string","value":"lab"},{"name":"dir","type":"string","value":"v"}]},{"id":10,"name":"vivarium","type":"door","rotation":0,"visible":true,"x":2432,"y":2072,"width":192,"height":16,"properties":[{"name":"theme","type":"string","value":"lab"},{"name":"dir","type":"string","value":"h"}]},{"id":11,"name":"gen_east","type":"door","rotation":0,"visible":true,"x":1304,"y":2176,"width":16,"height":128,"properties":[{"name":"theme","type":"string","value":"lab"},{"name":"dir","type":"string","value":"v"}]},{"id":12,"name":"freight","type":"door","rotation":0,"visible":true,"x":576,"y":2392,"width":256,"height":16,"properties":[{"name":"theme","type":"string","value":"lab"},{"name":"locked","type":"string","value":"script"},{"name":"dir","type":"string","value":"h"}]},{"id":13,"name":"cold","type":"door","rotation":0,"visible":true,"x":2904,"y":2496,"width":16,"height":64,"properties":[{"name":"theme","type":"string","value":"lab"},{"name":"dir","type":"string","value":"v"}]},{"id":14,"name":"elevator","type":"prop","rotation":0,"visible":true,"x":320,"y":134.4,"width":128,"height":128},{"id":15,"name":"player","type":"spawn","rotation":0,"visible":true,"x":320,"y":416,"width":0,"height":0,"point":true},{"id":16,"name":"player","type":"spawn","rotation":0,"visible":true,"x":409.6,"y":416,"width":0,"height":0,"point":true},{"id":17,"name":"player","type":"spawn","rotation":0,"visible":true,"x":499.2,"y":416,"width":0,"height":0,"point":true},{"id":18,"name":"player","type":"spawn","rotation":0,"visible":true,"x":364.8,"y":499.2,"width":0,"height":0,"point":true},{"id":19,"name":"","type":"light","rotation":0,"visible":true,"x":384,"y":384,"width":0,"height":0,"point":true,"properties":[{"name":"kind","type":"string","value":"lamp"},{"name":"color","type":"string","value":"ffe2a8"},{"name":"radius","type":"int","value":300},{"name":"flicker","type":"float","value":0.4}]},{"id":20,"name":"","type":"label","rotation":0,"visible":true,"x":384,"y":563.2,"width":0,"height":0,"point":true,"properties":[{"name":"text","type":"string","value":"УРОВЕНЬ −3"},{"name":"size","type":"int","value":20},{"name":"color","type":"string","value":"#bfe9ff"}]},{"id":21,"name":"","type":"note","rotation":0,"visible":true,"x":608,"y":166.4,"width":0,"height":0,"point":true,"properties":[{"name":"text","type":"string","value":"Табличка: «Проект ЯЙЦО. Посторонним вход строго воспрещён. Курам — тем более»"}]},{"id":22,"name":"ammo","type":"pickup","rotation":0,"visible":true,"x":601.6,"y":550.4,"width":0,"height":0,"point":true},{"id":23,"name":"health","type":"pickup","rotation":0,"visible":true,"x":166.4,"y":550.4,"width":0,"height":0,"point":true},{"id":24,"name":"vending","type":"prop","rotation":0,"visible":true,"x":531.2,"y":189.2,"width":64,"height":44,"properties":[{"name":"incident","type":"string","value":"coffee"},{"name":"incidentId","type":"string","value":"incident_coffee_lab"}]},{"id":25,"name":"incident_coffee_lab","type":"use","rotation":0,"visible":true,"x":563.2,"y":262.4,"width":0,"height":0,"point":true,"properties":[{"name":"incident","type":"string","value":"coffee"},{"name":"hint","type":"string","value":"кофе: +15 HP и бег на 10 сек"}]},{"id":26,"name":"","type":"label","rotation":0,"visible":true,"x":480,"y":352,"width":0,"height":0,"point":true,"properties":[{"name":"text","type":"string","value":"КОФЕ БЕЗ КУКАРЕКСА"},{"name":"size","type":"int","value":18},{"name":"color","type":"string","value":"#bfe9ff"}]},{"id":27,"name":"","type":"note","rotation":0,"visible":true,"x":608,"y":345.6,"width":0,"height":0,"point":true,"properties":[{"name":"text","type":"string","value":"На автомате: «Двойной эспрессо. Ноль мутаций. Проверял лаборант — пока человек»."}]},{"id":28,"name":"","type":"light","rotation":0,"visible":true,"x":960,"y":320,"width":0,"height":0,"point":true,"properties":[{"name":"kind","type":"string","value":"emergency"},{"name":"color","type":"string","value":"ff2a1a"},{"name":"radius","type":"int","value":220}]},{"id":29,"name":"","type":"light","rotation":0,"visible":true,"x":1664,"y":320,"width":0,"height":0,"point":true,"properties":[{"name":"kind","type":"string","value":"emergency"},{"name":"color","type":"string","value":"ff2a1a"},{"name":"radius","type":"int","value":220}]},{"id":30,"name":"","type":"barrel","rotation":0,"visible":true,"x":832,"y":291.2,"width":0,"height":0,"point":true},{"id":31,"name":"","type":"barrel","rotation":0,"visible":true,"x":1836.8,"y":438.4,"width":0,"height":0,"point":true},{"id":32,"name":"","type":"note","rotation":0,"visible":true,"x":1024,"y":275.2,"width":0,"height":0,"point":true,"properties":[{"name":"text","type":"string","value":"Табло: «ДЕЗИНФЕКЦИЯ… ОШИБКА… ДЕЗИНФЕКЦИЯ… КО-КО»"}]},{"id":33,"name":"decon","type":"spawner","rotation":0,"visible":true,"x":1600,"y":268.8,"width":0,"height":0,"point":true,"properties":[{"name":"how","type":"string","value":"vent"}]},{"id":34,"name":"decon","type":"spawner","rotation":0,"visible":true,"x":1728,"y":435.2,"width":0,"height":0,"point":true,"properties":[{"name":"how","type":"string","value":"vent"}]},{"id":35,"name":"decon","type":"spawner","rotation":0,"visible":true,"x":1856,"y":320,"width":0,"height":0,"point":true,"properties":[{"name":"how","type":"string","value":"vent"}]},{"id":36,"name":"decon","type":"trigger","rotation":0,"visible":true,"x":1408,"y":256,"width":256,"height":192},{"id":37,"name":"","type":"light","rotation":0,"visible":true,"x":2112,"y":224,"width":0,"height":0,"point":true,"properties":[{"name":"kind","type":"string","value":"lamp"},{"name":"color","type":"string","value":"9fd6ff"},{"name":"radius","type":"int","value":260},{"name":"flicker","type":"float","value":0.25}]},{"id":38,"name":"","type":"light","rotation":0,"visible":true,"x":2848,"y":224,"width":0,"height":0,"point":true,"properties":[{"name":"kind","type":"string","value":"lamp"},{"name":"color","type":"string","value":"9fd6ff"},{"name":"radius","type":"int","value":260},{"name":"flicker","type":"float","value":0.25}]},{"id":39,"name":"","type":"light","rotation":0,"visible":true,"x":2112,"y":960,"width":0,"height":0,"point":true,"properties":[{"name":"kind","type":"string","value":"lamp"},{"name":"color","type":"string","value":"9fd6ff"},{"name":"radius","type":"int","value":260},{"name":"flicker","type":"float","value":0.25}]},{"id":40,"name":"","type":"light","rotation":0,"visible":true,"x":2848,"y":960,"width":0,"height":0,"point":true,"properties":[{"name":"kind","type":"string","value":"lamp"},{"name":"color","type":"string","value":"9fd6ff"},{"name":"radius","type":"int","value":260},{"name":"flicker","type":"float","value":0.25}]},{"id":41,"name":"lab_bench","type":"prop","rotation":0,"visible":true,"x":2404,"y":228,"width":120,"height":56},{"id":42,"name":"lab_bench","type":"prop","rotation":0,"visible":true,"x":2404,"y":893.6,"width":120,"height":56},{"id":43,"name":"lab_console","type":"prop","rotation":0,"visible":true,"x":2040.8000000000002,"y":544,"width":40,"height":64,"properties":[{"name":"rot","type":"int","value":90}]},{"id":44,"name":"lab_console","type":"prop","rotation":0,"visible":true,"x":2898.4,"y":544,"width":40,"height":64,"properties":[{"name":"rot","type":"int","value":270}]},{"id":45,"name":"","type":"barrel","rotation":0,"visible":true,"x":2592,"y":624,"width":0,"height":0,"point":true},{"id":46,"name":"","type":"barrel","rotation":0,"visible":true,"x":2419.2,"y":601.6,"width":0,"height":0,"point":true},{"id":47,"name":"","type":"barrel","rotation":0,"visible":true,"x":2764.8,"y":179.2,"width":0,"height":0,"point":true},{"id":48,"name":"crate","type":"prop","rotation":0,"visible":true,"x":2878.6,"y":952.2,"width":54,"height":54},{"id":49,"name":"crate_small","type":"prop","rotation":0,"visible":true,"x":2830.5,"y":980.4,"width":35,"height":36},{"id":50,"name":"","type":"label","rotation":0,"visible":true,"x":2464,"y":601.6,"width":0,"height":0,"point":true,"properties":[{"name":"text","type":"string","value":"АТРИУМ"},{"name":"size","type":"int","value":30},{"name":"color","type":"string","value":"#bfe9ff"}]},{"id":51,"name":"","type":"note","rotation":0,"visible":true,"x":2464,"y":307.2,"width":0,"height":0,"point":true,"properties":[{"name":"text","type":"string","value":"Журнал: «День 41. Куры научились открывать двери. День 42. Куры научились закрывать двери за нами»"}]},{"id":52,"name":"normal","type":"enemy","rotation":0,"visible":true,"x":2176,"y":576,"width":0,"height":0,"point":true,"properties":[{"name":"tag","type":"string","value":"atrium"}]},{"id":53,"name":"normal","type":"enemy","rotation":0,"visible":true,"x":2624,"y":320,"width":0,"height":0,"point":true,"properties":[{"name":"tag","type":"string","value":"atrium"}]},{"id":54,"name":"spitter","type":"enemy","rotation":0,"visible":true,"x":2816,"y":768,"width":0,"height":0,"point":true,"properties":[{"name":"tag","type":"string","value":"atrium"}]},{"id":55,"name":"fast","type":"enemy","rotation":0,"visible":true,"x":2496,"y":768,"width":0,"height":0,"point":true,"properties":[{"name":"tag","type":"string","value":"atrium"}]},{"id":56,"name":"normal","type":"enemy","rotation":0,"visible":true,"x":2304,"y":960,"width":0,"height":0,"point":true,"properties":[{"name":"tag","type":"string","value":"atrium"}]},{"id":57,"name":"atrium","type":"spawner","rotation":0,"visible":true,"x":2944,"y":160,"width":0,"height":0,"point":true,"properties":[{"name":"how","type":"string","value":"vent"}]},{"id":58,"name":"atrium","type":"spawner","rotation":0,"visible":true,"x":2016,"y":160,"width":0,"height":0,"point":true,"properties":[{"name":"how","type":"string","value":"vent"}]},{"id":59,"name":"atrium","type":"spawner","rotation":0,"visible":true,"x":2944,"y":992,"width":0,"height":0,"point":true,"properties":[{"name":"how","type":"string","value":"vent"}]},{"id":60,"name":"atrium","type":"trigger","rotation":0,"visible":true,"x":1984,"y":128,"width":1024,"height":960},{"id":61,"name":"lab_bench","type":"prop","rotation":0,"visible":true,"x":3204,"y":164,"width":120,"height":56},{"id":62,"name":"lab_bench","type":"prop","rotation":0,"visible":true,"x":3652,"y":164,"width":120,"height":56},{"id":63,"name":"lab_console","type":"prop","rotation":0,"visible":true,"x":3852,"y":512,"width":40,"height":64,"properties":[{"name":"rot","type":"int","value":270}]},{"id":64,"name":"cabinet","type":"prop","rotation":0,"visible":true,"x":3122.8,"y":581.6,"width":52,"height":40},{"id":65,"name":"egg_pod_broken","type":"prop","rotation":0,"visible":true,"x":3648,"y":499.20000000000005,"width":64,"height":64},{"id":66,"name":"","type":"light","rotation":0,"visible":true,"x":3264,"y":384,"width":0,"height":0,"point":true,"properties":[{"name":"kind","type":"string","value":"lamp"},{"name":"color","type":"string","value":"b7ff9a"},{"name":"radius","type":"int","value":220},{"name":"flicker","type":"float","value":0.6}]},{"id":67,"name":"omletov","type":"npc","rotation":0,"visible":true,"x":3744,"y":396.8,"width":0,"height":0,"point":true,"properties":[{"name":"kind","type":"string","value":"manOld"},{"name":"title","type":"string","value":"Профессор Омлетов"},{"name":"mode","type":"string","value":"cower"},{"name":"weapon","type":"string","value":"flamethrower"},{"name":"hp","type":"int","value":140},{"name":"angle","type":"int","value":180},{"name":"lines","type":"string","value":"КУКАРЕКС — побочный продукт проекта «ЯЙЦО». Простите.|Антидот можно синтезировать в цехе розлива.|Не стойте под вытяжкой. Оттуда что-то клюёт."}]},{"id":68,"name":"normal","type":"enemy","rotation":0,"visible":true,"x":3328,"y":448,"width":0,"height":0,"point":true,"properties":[{"name":"tag","type":"string","value":"labb"}]},{"id":69,"name":"fast","type":"enemy","rotation":0,"visible":true,"x":3584,"y":294.4,"width":0,"height":0,"point":true,"properties":[{"name":"tag","type":"string","value":"labb"}]},{"id":70,"name":"spitter","type":"enemy","rotation":0,"visible":true,"x":3840,"y":179.2,"width":0,"height":0,"point":true,"properties":[{"name":"tag","type":"string","value":"labb"}]},{"id":71,"name":"normal","type":"enemy","rotation":0,"visible":true,"x":3200,"y":288,"width":0,"height":0,"point":true,"properties":[{"name":"tag","type":"string","value":"labb"}]},{"id":72,"name":"","type":"note","rotation":0,"visible":true,"x":3264,"y":243.2,"width":0,"height":0,"point":true,"properties":[{"name":"text","type":"string","value":"Формула на доске: «C₈H₁₀N₄O₂ + 🐔 = 🐔🐔🐔». Подпись: «Почти готово!»"}]},{"id":73,"name":"","type":"label","rotation":0,"visible":true,"x":3520,"y":601.6,"width":0,"height":0,"point":true,"properties":[{"name":"text","type":"string","value":"ЛАБОРАТОРИЯ Б"},{"name":"size","type":"int","value":18},{"name":"color","type":"string","value":"#bfe9ff"}]},{"id":74,"name":"labb","type":"trigger","rotation":0,"visible":true,"x":3072,"y":128,"width":896,"height":576},{"id":75,"name":"","type":"light","rotation":0,"visible":true,"x":1408,"y":960,"width":0,"height":0,"point":true,"properties":[{"name":"kind","type":"string","value":"emergency"},{"name":"color","type":"string","value":"ff2a1a"},{"name":"radius","type":"int","value":220}]},{"id":76,"name":"cabinet","type":"prop","rotation":0,"visible":true,"x":166,"y":786.4,"width":52,"height":40},{"id":77,"name":"cabinet","type":"prop","rotation":0,"visible":true,"x":370.8,"y":786.4,"width":52,"height":40},{"id":78,"name":"shelf","type":"prop","rotation":0,"visible":true,"x":674,"y":784.4,"width":124,"height":44},{"id":79,"name":"lab_console","type":"prop","rotation":0,"visible":true,"x":832,"y":1343.2,"width":64,"height":40},{"id":80,"name":"weapon","type":"pickup","rotation":0,"visible":true,"x":512,"y":1088,"width":0,"height":0,"point":true,"properties":[{"name":"weapon","type":"string","value":"machinegun"}]},{"id":81,"name":"armor","type":"pickup","rotation":0,"visible":true,"x":256,"y":1344,"width":0,"height":0,"point":true},{"id":82,"name":"ammo","type":"pickup","rotation":0,"visible":true,"x":768,"y":1344,"width":0,"height":0,"point":true},{"id":83,"name":"ammo","type":"pickup","rotation":0,"visible":true,"x":192,"y":1024,"width":0,"height":0,"point":true},{"id":84,"name":"","type":"light","rotation":0,"visible":true,"x":512,"y":1088,"width":0,"height":0,"point":true,"properties":[{"name":"kind","type":"string","value":"lamp"},{"name":"color","type":"string","value":"ffb347"},{"name":"radius","type":"int","value":220}]},{"id":85,"name":"","type":"label","rotation":0,"visible":true,"x":512,"y":1248,"width":0,"height":0,"point":true,"properties":[{"name":"text","type":"string","value":"ОРУЖЕЙНАЯ"},{"name":"size","type":"int","value":22},{"name":"color","type":"string","value":"#bfe9ff"}]},{"id":86,"name":"","type":"note","rotation":0,"visible":true,"x":736,"y":857.6,"width":0,"height":0,"point":true,"properties":[{"name":"text","type":"string","value":"Опись: «Пулемёт — 1 шт. Назначение: усмирение лабораторных образцов»"}]},{"id":87,"name":"armory","type":"trigger","rotation":0,"visible":true,"x":128,"y":768,"width":832,"height":704},{"id":88,"name":"","type":"pod","rotation":0,"visible":true,"x":2112,"y":1254.4,"width":0,"height":0,"point":true,"properties":[{"name":"tag","type":"string","value":"inc_a"},{"name":"hatch","type":"string","value":"normal"}]},{"id":89,"name":"","type":"pod","rotation":0,"visible":true,"x":2112,"y":1382.4,"width":0,"height":0,"point":true,"properties":[{"name":"tag","type":"string","value":"inc_a"},{"name":"hatch","type":"string","value":"chick"}]},{"id":90,"name":"","type":"pod","rotation":0,"visible":true,"x":2112,"y":1843.2,"width":0,"height":0,"point":true,"properties":[{"name":"tag","type":"string","value":"inc_a"},{"name":"hatch","type":"string","value":"chick"}]},{"id":91,"name":"","type":"pod","rotation":0,"visible":true,"x":2464,"y":1254.4,"width":0,"height":0,"point":true,"properties":[{"name":"tag","type":"string","value":"inc_a"},{"name":"hatch","type":"string","value":"chick"}]},{"id":92,"name":"","type":"pod","rotation":0,"visible":true,"x":2464,"y":1715.2,"width":0,"height":0,"point":true,"properties":[{"name":"tag","type":"string","value":"inc_a"},{"name":"hatch","type":"string","value":"chick"}]},{"id":93,"name":"","type":"pod","rotation":0,"visible":true,"x":2464,"y":1843.2,"width":0,"height":0,"point":true,"properties":[{"name":"tag","type":"string","value":"inc_a"},{"name":"hatch","type":"string","value":"normal"}]},{"id":94,"name":"","type":"pod","rotation":0,"visible":true,"x":2624,"y":1382.4,"width":0,"height":0,"point":true,"properties":[{"name":"tag","type":"string","value":"inc_a"},{"name":"hatch","type":"string","value":"normal"}]},{"id":95,"name":"","type":"pod","rotation":0,"visible":true,"x":2624,"y":1715.2,"width":0,"height":0,"point":true,"properties":[{"name":"tag","type":"string","value":"inc_a"},{"name":"hatch","type":"string","value":"fast"}]},{"id":96,"name":"","type":"pod","rotation":0,"visible":true,"x":2976,"y":1254.4,"width":0,"height":0,"point":true,"properties":[{"name":"tag","type":"string","value":"inc_b"},{"name":"hatch","type":"string","value":"chick"}]},{"id":97,"name":"","type":"pod","rotation":0,"visible":true,"x":2976,"y":1382.4,"width":0,"height":0,"point":true,"properties":[{"name":"tag","type":"string","value":"inc_b"},{"name":"hatch","type":"string","value":"fast"}]},{"id":98,"name":"","type":"pod","rotation":0,"visible":true,"x":2976,"y":1843.2,"width":0,"height":0,"point":true,"properties":[{"name":"tag","type":"string","value":"inc_b"},{"name":"hatch","type":"string","value":"chick"}]},{"id":99,"name":"","type":"pod","rotation":0,"visible":true,"x":3136,"y":1254.4,"width":0,"height":0,"point":true,"properties":[{"name":"tag","type":"string","value":"inc_b"},{"name":"hatch","type":"string","value":"fast"}]},{"id":100,"name":"","type":"pod","rotation":0,"visible":true,"x":3136,"y":1715.2,"width":0,"height":0,"point":true,"properties":[{"name":"tag","type":"string","value":"inc_b"},{"name":"hatch","type":"string","value":"normal"}]},{"id":101,"name":"","type":"pod","rotation":0,"visible":true,"x":3136,"y":1843.2,"width":0,"height":0,"point":true,"properties":[{"name":"tag","type":"string","value":"inc_b"},{"name":"hatch","type":"string","value":"chick"}]},{"id":102,"name":"","type":"pod","rotation":0,"visible":true,"x":3488,"y":1382.4,"width":0,"height":0,"point":true,"properties":[{"name":"tag","type":"string","value":"inc_c"},{"name":"hatch","type":"string","value":"chick"}]},{"id":103,"name":"","type":"pod","rotation":0,"visible":true,"x":3488,"y":1715.2,"width":0,"height":0,"point":true,"properties":[{"name":"tag","type":"string","value":"inc_c"},{"name":"hatch","type":"string","value":"chick"}]},{"id":104,"name":"","type":"pod","rotation":0,"visible":true,"x":3648,"y":1254.4,"width":0,"height":0,"point":true,"properties":[{"name":"tag","type":"string","value":"inc_c"},{"name":"hatch","type":"string","value":"chick"}]},{"id":105,"name":"","type":"pod","rotation":0,"visible":true,"x":3648,"y":1382.4,"width":0,"height":0,"point":true,"properties":[{"name":"tag","type":"string","value":"inc_c"},{"name":"hatch","type":"string","value":"chick"}]},{"id":106,"name":"","type":"pod","rotation":0,"visible":true,"x":3648,"y":1843.2,"width":0,"height":0,"point":true,"properties":[{"name":"tag","type":"string","value":"inc_c"},{"name":"hatch","type":"string","value":"normal"}]},{"id":107,"name":"","type":"pod","rotation":0,"visible":true,"x":3840,"y":1254.4,"width":0,"height":0,"point":true,"properties":[{"name":"tag","type":"string","value":"inc_c"},{"name":"hatch","type":"string","value":"chick"}]},{"id":108,"name":"","type":"pod","rotation":0,"visible":true,"x":3840,"y":1715.2,"width":0,"height":0,"point":true,"properties":[{"name":"tag","type":"string","value":"inc_c"},{"name":"hatch","type":"string","value":"chick"}]},{"id":109,"name":"","type":"pod","rotation":0,"visible":true,"x":3840,"y":1843.2,"width":0,"height":0,"point":true,"properties":[{"name":"tag","type":"string","value":"inc_c"},{"name":"hatch","type":"string","value":"chick"}]},{"id":110,"name":"","type":"light","rotation":0,"visible":true,"x":2368,"y":1536,"width":0,"height":0,"point":true,"properties":[{"name":"kind","type":"string","value":"lamp"},{"name":"color","type":"string","value":"7dff8a"},{"name":"radius","type":"int","value":260},{"name":"flicker","type":"float","value":0.3}]},{"id":111,"name":"","type":"light","rotation":0,"visible":true,"x":3072,"y":1536,"width":0,"height":0,"point":true,"properties":[{"name":"kind","type":"string","value":"lamp"},{"name":"color","type":"string","value":"7dff8a"},{"name":"radius","type":"int","value":260}]},{"id":112,"name":"","type":"light","rotation":0,"visible":true,"x":3712,"y":1536,"width":0,"height":0,"point":true,"properties":[{"name":"kind","type":"string","value":"lamp"},{"name":"color","type":"string","value":"7dff8a"},{"name":"radius","type":"int","value":260},{"name":"flicker","type":"float","value":0.5}]},{"id":113,"name":"","type":"label","rotation":0,"visible":true,"x":2944,"y":1561.6,"width":0,"height":0,"point":true,"properties":[{"name":"text","type":"string","value":"ИНКУБАТОРНАЯ"},{"name":"size","type":"int","value":30},{"name":"color","type":"string","value":"#bfe9ff"}]},{"id":114,"name":"","type":"note","rotation":0,"visible":true,"x":2944,"y":1459.2,"width":0,"height":0,"point":true,"properties":[{"name":"text","type":"string","value":"Табличка: «Не стучите по яйцам. Они стучат в ответ»"}]},{"id":115,"name":"inc_a","type":"trigger","rotation":0,"visible":true,"x":1984,"y":1152,"width":768,"height":832},{"id":116,"name":"inc_b","type":"trigger","rotation":0,"visible":true,"x":2752,"y":1152,"width":512,"height":832},{"id":117,"name":"inc_c","type":"trigger","rotation":0,"visible":true,"x":3328,"y":1152,"width":640,"height":832},{"id":118,"name":"inc","type":"spawner","rotation":0,"visible":true,"x":3904,"y":1184,"width":0,"height":0,"point":true,"properties":[{"name":"how","type":"string","value":"vent"}]},{"id":119,"name":"inc","type":"spawner","rotation":0,"visible":true,"x":3904,"y":1888,"width":0,"height":0,"point":true,"properties":[{"name":"how","type":"string","value":"vent"}]},{"id":120,"name":"inc","type":"spawner","rotation":0,"visible":true,"x":2016,"y":1888,"width":0,"height":0,"point":true,"properties":[{"name":"how","type":"string","value":"vent"}]},{"id":121,"name":"generator","type":"prop","rotation":0,"visible":true,"x":329,"y":1708.8,"width":110,"height":64},{"id":122,"name":"generator","type":"prop","rotation":0,"visible":true,"x":905,"y":1708.8,"width":110,"height":64},{"id":123,"name":"machine","type":"prop","rotation":0,"visible":true,"x":644,"y":2084,"width":120,"height":120},{"id":124,"name":"pipe_h","type":"prop","rotation":0,"visible":true,"x":160,"y":1972,"width":64,"height":24},{"id":125,"name":"pipe_h","type":"prop","rotation":0,"visible":true,"x":1184,"y":1972,"width":64,"height":24},{"id":126,"name":"lab_console","type":"prop","rotation":0,"visible":true,"x":672,"y":1874.4,"width":64,"height":40},{"id":127,"name":"generator","type":"use","rotation":0,"visible":true,"x":704,"y":1894.4,"width":0,"height":0,"point":true,"properties":[{"name":"hint","type":"string","value":"запустить генератор"}]},{"id":128,"name":"","type":"light","rotation":0,"visible":true,"x":704,"y":1984,"width":0,"height":0,"point":true,"properties":[{"name":"kind","type":"string","value":"alarm"},{"name":"color","type":"string","value":"ff3b1f"},{"name":"radius","type":"int","value":420}]},{"id":129,"name":"","type":"light","rotation":0,"visible":true,"x":192,"y":2240,"width":0,"height":0,"point":true,"properties":[{"name":"kind","type":"string","value":"alarm"},{"name":"color","type":"string","value":"ff3b1f"},{"name":"radius","type":"int","value":360}]},{"id":130,"name":"","type":"light","rotation":0,"visible":true,"x":1216,"y":2240,"width":0,"height":0,"point":true,"properties":[{"name":"kind","type":"string","value":"alarm"},{"name":"color","type":"string","value":"ff3b1f"},{"name":"radius","type":"int","value":360}]},{"id":131,"name":"","type":"light","rotation":0,"visible":true,"x":704,"y":1952,"width":0,"height":0,"point":true,"properties":[{"name":"kind","type":"string","value":"lamp"},{"name":"color","type":"string","value":"ffb347"},{"name":"radius","type":"int","value":200},{"name":"flicker","type":"float","value":0.7}]},{"id":132,"name":"","type":"barrel","rotation":0,"visible":true,"x":192,"y":1664,"width":0,"height":0,"point":true},{"id":133,"name":"","type":"barrel","rotation":0,"visible":true,"x":1216,"y":1664,"width":0,"height":0,"point":true},{"id":134,"name":"","type":"barrel","rotation":0,"visible":true,"x":192,"y":2272,"width":0,"height":0,"point":true},{"id":135,"name":"","type":"label","rotation":0,"visible":true,"x":704,"y":2278.4,"width":0,"height":0,"point":true,"properties":[{"name":"text","type":"string","value":"ГЕНЕРАТОРНАЯ"},{"name":"size","type":"int","value":22},{"name":"color","type":"string","value":"#bfe9ff"}]},{"id":136,"name":"gen_corridor","type":"spawner","rotation":0,"visible":true,"x":1600,"y":1792,"width":0,"height":0,"point":true,"properties":[{"name":"how","type":"string","value":"rise"},{"name":"corridorOnly","type":"bool","value":true}]},{"id":137,"name":"gen_corridor","type":"spawner","rotation":0,"visible":true,"x":2048,"y":1856,"width":0,"height":0,"point":true,"properties":[{"name":"how","type":"string","value":"rise"},{"name":"corridorOnly","type":"bool","value":true}]},{"id":138,"name":"gen_corridor","type":"spawner","rotation":0,"visible":true,"x":1536,"y":2240,"width":0,"height":0,"point":true,"properties":[{"name":"how","type":"string","value":"rise"},{"name":"corridorOnly","type":"bool","value":true}]},{"id":139,"name":"gen_corridor","type":"spawner","rotation":0,"visible":true,"x":2432,"y":2240,"width":0,"height":0,"point":true,"properties":[{"name":"how","type":"string","value":"rise"},{"name":"corridorOnly","type":"bool","value":true}]},{"id":140,"name":"gen_corridor","type":"spawner","rotation":0,"visible":true,"x":2816,"y":1856,"width":0,"height":0,"point":true,"properties":[{"name":"how","type":"string","value":"rise"},{"name":"corridorOnly","type":"bool","value":true}]},{"id":141,"name":"gen_room","type":"trigger","rotation":0,"visible":true,"x":128,"y":1600,"width":1216,"height":768},{"id":142,"name":"elevator","type":"prop","rotation":0,"visible":true,"x":640,"y":2809.6,"width":128,"height":128},{"id":143,"name":"crate","type":"prop","rotation":0,"visible":true,"x":165,"y":2469,"width":54,"height":54},{"id":144,"name":"crate_rot","type":"prop","rotation":0,"visible":true,"x":225,"y":2529,"width":62,"height":62},{"id":145,"name":"pallet","type":"prop","rotation":0,"visible":true,"x":1154,"y":2498,"width":60,"height":60},{"id":146,"name":"","type":"label","rotation":0,"visible":true,"x":704,"y":2656,"width":0,"height":0,"point":true,"properties":[{"name":"text","type":"string","value":"ГРУЗОВОЙ ЛИФТ"},{"name":"size","type":"int","value":20},{"name":"color","type":"string","value":"#bfe9ff"}]},{"id":147,"name":"","type":"light","rotation":0,"visible":true,"x":704,"y":2688,"width":0,"height":0,"point":true,"properties":[{"name":"kind","type":"string","value":"emergency"},{"name":"color","type":"string","value":"ff2a1a"},{"name":"radius","type":"int","value":260}]},{"id":148,"name":"freight","type":"trigger","rotation":0,"visible":true,"x":128,"y":2432,"width":1216,"height":576,"properties":[{"name":"all","type":"bool","value":true}]},{"id":149,"name":"crate","type":"prop","rotation":0,"visible":true,"x":1477,"y":2635.4,"width":54,"height":54},{"id":150,"name":"crate","type":"prop","rotation":0,"visible":true,"x":1637,"y":2635.4,"width":54,"height":54},{"id":151,"name":"crate","type":"prop","rotation":0,"visible":true,"x":1797,"y":2635.4,"width":54,"height":54},{"id":152,"name":"egg_pod_broken","type":"prop","rotation":0,"visible":true,"x":2208,"y":2336,"width":64,"height":64},{"id":153,"name":"egg_pod_broken","type":"prop","rotation":0,"visible":true,"x":2400,"y":2336,"width":64,"height":64},{"id":154,"name":"egg_pod_broken","type":"prop","rotation":0,"visible":true,"x":2592,"y":2336,"width":64,"height":64},{"id":155,"name":"feather_pile","type":"prop","rotation":0,"visible":true,"x":1640,"y":2284,"width":48,"height":40},{"id":156,"name":"feather_pile","type":"prop","rotation":0,"visible":true,"x":2600,"y":2796,"width":48,"height":40},{"id":157,"name":"blood_trail","type":"prop","rotation":0,"visible":true,"x":2016,"y":2762.6,"width":64,"height":30},{"id":158,"name":"weapon","type":"pickup","rotation":0,"visible":true,"x":1600,"y":2848,"width":0,"height":0,"point":true,"properties":[{"name":"weapon","type":"string","value":"grenade"}]},{"id":159,"name":"health","type":"pickup","rotation":0,"visible":true,"x":2752,"y":2880,"width":0,"height":0,"point":true},{"id":160,"name":"ammo","type":"pickup","rotation":0,"visible":true,"x":1472,"y":2176,"width":0,"height":0,"point":true},{"id":161,"name":"exploder","type":"enemy","rotation":0,"visible":true,"x":1920,"y":2368,"width":0,"height":0,"point":true,"properties":[{"name":"tag","type":"string","value":"viv"}]},{"id":162,"name":"exploder","type":"enemy","rotation":0,"visible":true,"x":2560,"y":2816,"width":0,"height":0,"point":true,"properties":[{"name":"tag","type":"string","value":"viv"}]},{"id":163,"name":"spitter","type":"enemy","rotation":0,"visible":true,"x":1536,"y":2464,"width":0,"height":0,"point":true,"properties":[{"name":"tag","type":"string","value":"viv"}]},{"id":164,"name":"normal","type":"enemy","rotation":0,"visible":true,"x":2048,"y":2816,"width":0,"height":0,"point":true,"properties":[{"name":"tag","type":"string","value":"viv"}]},{"id":165,"name":"fat","type":"enemy","rotation":0,"visible":true,"x":2304,"y":2240,"width":0,"height":0,"point":true,"properties":[{"name":"tag","type":"string","value":"viv"}]},{"id":166,"name":"armored","type":"enemy","rotation":0,"visible":true,"x":2688,"y":2304,"width":0,"height":0,"point":true,"properties":[{"name":"tag","type":"string","value":"viv"}]},{"id":167,"name":"","type":"light","rotation":0,"visible":true,"x":2112,"y":2432,"width":0,"height":0,"point":true,"properties":[{"name":"kind","type":"string","value":"lamp"},{"name":"color","type":"string","value":"b7ff9a"},{"name":"radius","type":"int","value":240},{"name":"flicker","type":"float","value":0.5}]},{"id":168,"name":"","type":"label","rotation":0,"visible":true,"x":2112,"y":2726.4,"width":0,"height":0,"point":true,"properties":[{"name":"text","type":"string","value":"ВИВАРИЙ"},{"name":"size","type":"int","value":26},{"name":"color","type":"string","value":"#bfe9ff"}]},{"id":169,"name":"","type":"note","rotation":0,"visible":true,"x":2048,"y":2176,"width":0,"height":0,"point":true,"properties":[{"name":"text","type":"string","value":"Табличка: «Образцы 1–40: агрессивны. Образцы 41–80: тоже»"}]},{"id":170,"name":"terminal","type":"prop","rotation":0,"visible":true,"x":1701.2,"y":2194,"width":28,"height":28,"properties":[{"name":"incident","type":"string","value":"cache"},{"name":"incidentId","type":"string","value":"incident_cache_lab"}]},{"id":171,"name":"incident_cache_lab","type":"use","rotation":0,"visible":true,"x":1715.2,"y":2256,"width":0,"height":0,"point":true,"properties":[{"name":"incident","type":"string","value":"cache"},{"name":"group","type":"string","value":"inc"},{"name":"hint","type":"string","value":"припасы: держаться рядом 12 сек"}]},{"id":172,"name":"","type":"label","rotation":0,"visible":true,"x":1715.2,"y":2137.6,"width":0,"height":0,"point":true,"properties":[{"name":"text","type":"string","value":"ПРИПАСЫ · НЕОБЯЗАТЕЛЬНО"},{"name":"size","type":"int","value":18},{"name":"color","type":"string","value":"#bfe9ff"}]},{"id":173,"name":"","type":"note","rotation":0,"visible":true,"x":1779.2,"y":2336,"width":0,"height":0,"point":true,"properties":[{"name":"text","type":"string","value":"Терминал: «Ваши патроны очень важны для нас. Оставайтесь на линии». Вентиляция уже подключилась."}]},{"id":174,"name":"shelf","type":"prop","rotation":0,"visible":true,"x":3138,"y":2128.4,"width":124,"height":44},{"id":175,"name":"shelf","type":"prop","rotation":0,"visible":true,"x":3586,"y":2128.4,"width":124,"height":44},{"id":176,"name":"crate","type":"prop","rotation":0,"visible":true,"x":3838.6,"y":2878.6,"width":54,"height":54},{"id":177,"name":"crate_small","type":"prop","rotation":0,"visible":true,"x":3790.5,"y":2900.4,"width":35,"height":36},{"id":178,"name":"health","type":"pickup","rotation":0,"visible":true,"x":3072,"y":2880,"width":0,"height":0,"point":true},{"id":179,"name":"ammo","type":"pickup","rotation":0,"visible":true,"x":3840,"y":2560,"width":0,"height":0,"point":true},{"id":180,"name":"armor","type":"pickup","rotation":0,"visible":true,"x":3424,"y":2560,"width":0,"height":0,"point":true},{"id":181,"name":"fast","type":"enemy","rotation":0,"visible":true,"x":3328,"y":2688,"width":0,"height":0,"point":true,"properties":[{"name":"tag","type":"string","value":"cold"}]},{"id":182,"name":"fast","type":"enemy","rotation":0,"visible":true,"x":3584,"y":2432,"width":0,"height":0,"point":true,"properties":[{"name":"tag","type":"string","value":"cold"}]},{"id":183,"name":"normal","type":"enemy","rotation":0,"visible":true,"x":3776,"y":2752,"width":0,"height":0,"point":true,"properties":[{"name":"tag","type":"string","value":"cold"}]},{"id":184,"name":"","type":"light","rotation":0,"visible":true,"x":3424,"y":2560,"width":0,"height":0,"point":true,"properties":[{"name":"kind","type":"string","value":"lamp"},{"name":"color","type":"string","value":"cfe8ff"},{"name":"radius","type":"int","value":240},{"name":"flicker","type":"float","value":0.2}]},{"id":185,"name":"","type":"label","rotation":0,"visible":true,"x":3424,"y":2406.4,"width":0,"height":0,"point":true,"properties":[{"name":"text","type":"string","value":"ХОЛОДИЛЬНИК"},{"name":"size","type":"int","value":20},{"name":"color","type":"string","value":"#bfe9ff"}]},{"id":186,"name":"","type":"note","rotation":0,"visible":true,"x":3648,"y":2201.6,"width":0,"height":0,"point":true,"properties":[{"name":"text","type":"string","value":"Наклейка: «Окорочка. Не размораживать. Они шевелятся»"}]},{"id":187,"name":"","type":"zone","rotation":0,"visible":true,"x":128,"y":128,"width":576,"height":512,"properties":[{"name":"dark","type":"float","value":0.4}]}]}]}