{"type":"map","version":"1.10","tiledversion":"1.11.0","orientation":"orthogonal","renderorder":"right-down","width":64,"height":46,"tilewidth":64,"tileheight":64,"infinite":false,"nextlayerid":5,"nextobjectid":136,"properties":[{"name":"theme","type":"string","value":"dark"},{"name":"ambient","type":"float","value":0.94},{"name":"wallFace","type":"string","value":"dark"},{"name":"stealth","type":"bool","value":true},{"name":"redEyes","type":"bool","value":true}],"tilesets":[{"firstgid":1,"name":"kenney","image":"../gen/tiles.png","imagewidth":1728,"imageheight":1280,"tilewidth":64,"tileheight":64,"tilecount":540,"columns":27,"margin":0,"spacing":0},{"firstgid":541,"name":"walls","image":"../gen/walls.png","imagewidth":1024,"imageheight":1536,"tilewidth":64,"tileheight":64,"tilecount":384,"columns":16,"margin":0,"spacing":0}],"layers":[{"id":1,"name":"floor","type":"tilelayer","width":64,"height":46,"x":0,"y":0,"opacity":1,"visible":true,"data":[0,0,0,0,0,0,0,0,0,0,0,0,0,0,0,0,0,0,0,0,0,0,0,0,0,0,0,0,0,0,0,0,0,0,0,0,0,0,0,0,0,0,0,0,0,0,0,0,0,0,0,0,0,0,0,0,0,0,0,0,0,0,0,0,0,0,0,0,0,0,0,0,0,0,0,0,0,0,0,0,0,0,0,0,0,0,0,0,0,0,0,0,0,0,0,0,0,0,0,0,0,0,0,0,0,0,0,0,0,0,0,0,0,0,0,0,0,0,0,0,0,0,0,0,0,0,0,0,0,0,0,0,0,0,0,0,0,0,0,0,0,0,0,0,0,0,0,0,0,0,0,0,0,0,0,0,0,0,0,0,0,0,0,0,0,0,0,0,0,0,0,0,0,0,0,0,0,0,0,0,0,0,0,0,0,0,0,0,0,0,0,0,0,0,0,512,512,512,512,512,512,512,512,512,512,512,512,512,512,512,512,512,512,512,512,0,0,512,512,512,512,512,512,512,512,512,512,512,512,0,512,512,512,512,512,0,512,512,512,512,512,512,512,512,512,512,512,512,512,512,512,512,512,0,0,0,0,0,0,512,512,512,512,512,512,512,512,512,512,512,512,512,512,512,512,512,512,512,512,0,0,512,512,512,512,512,512,512,512,512,512,512,512,0,512,512,512,512,512,0,512,512,512,512,512,512,512,512,512,512,512,512,512,512,512,512,512,0,0,0,0,0,0,512,512,512,512,512,512,512,512,512,512,512,512,512,512,512,512,512,512,512,512,0,0,512,512,512,512,512,512,512,512,512,512,512,512,0,512,512,512,512,512,0,512,512,512,512,512,512,512,512,512,512,512,512,512,512,512,512,512,0,0,0,0,0,0,512,0,0,0,0,0,0,512,512,512,512,512,0,0,0,0,0,0,512,512,0,0,512,512,512,512,512,512,512,512,512,512,512,512,512,512,512,512,512,512,0,512,512,512,512,512,512,512,512,512,512,512,512,512,512,512,512,512,0,0,0,0,0,0,512,512,512,512,512,512,512,512,512,512,512,512,512,512,512,512,512,512,512,512,0,0,512,512,512,512,512,512,512,512,512,512,512,512,512,512,512,512,512,512,0,512,512,512,512,512,512,512,512,512,512,512,512,512,512,512,512,512,0,0,0,0,0,0,512,512,512,512,512,512,512,512,512,512,512,512,512,512,512,512,512,512,512,512,0,0,512,512,512,512,512,512,512,512,512,512,512,512,0,512,512,512,512,512,0,512,512,512,512,512,512,512,0,512,512,0,512,512,512,512,512,512,0,0,0,0,0,0,512,512,512,512,512,512,512,512,512,512,512,512,512,512,512,512,512,512,512,512,0,0,512,512,512,512,512,512,512,512,512,512,512,512,0,512,512,512,512,512,0,512,512,512,512,512,512,512,0,512,512,0,512,512,512,512,512,512,0,0,0,0,0,0,512,0,0,0,0,0,0,512,512,512,512,512,0,0,0,0,0,0,512,512,0,0,512,512,512,512,512,512,512,512,512,512,512,512,0,512,512,512,512,512,0,512,512,512,512,512,512,512,0,512,512,0,512,512,512,512,512,512,0,0,0,0,0,0,512,512,512,512,512,512,512,512,512,512,512,512,512,512,512,512,512,512,512,512,0,0,512,512,512,512,512,512,512,512,512,512,512,512,0,0,0,0,0,0,0,512,512,512,512,512,512,512,0,512,512,0,512,512,512,512,512,512,0,0,0,0,0,0,512,512,512,512,512,512,512,512,512,512,512,512,512,512,512,512,512,512,512,512,0,0,512,512,512,512,512,512,512,512,512,512,512,512,0,0,0,0,0,0,0,512,512,512,512,512,512,512,0,512,512,0,512,512,512,512,512,512,0,0,0,0,0,0,512,512,512,512,512,512,512,512,512,512,512,512,512,512,512,512,512,512,512,512,0,0,512,512,512,512,512,512,512,512,512,512,512,512,0,0,0,0,0,0,0,0,0,0,0,0,0,0,0,512,512,0,0,0,0,0,0,0,0,0,0,0,0,0,512,0,0,0,0,0,0,512,512,512,512,512,0,0,0,0,0,0,512,512,0,0,512,512,512,512,512,512,512,512,512,512,512,512,0,0,0,0,0,0,0,512,512,512,512,512,512,512,512,512,512,512,512,512,512,512,512,512,0,0,0,0,0,0,512,512,512,512,512,512,512,512,512,512,512,512,512,512,512,512,512,512,512,512,0,0,512,512,512,512,512,512,512,512,512,512,512,512,0,0,0,0,0,0,0,512,512,512,512,512,512,512,512,512,512,512,512,512,512,512,512,512,0,0,0,0,0,0,512,512,512,512,512,512,512,512,512,512,512,512,512,512,512,512,512,512,512,512,0,0,512,512,512,512,512,512,512,512,512,512,512,512,0,0,0,0,0,0,0,512,512,512,512,512,512,512,512,512,512,512,512,512,512,512,512,512,0,0,0,0,0,0,512,512,512,512,512,512,512,512,512,512,512,512,512,512,512,512,512,512,512,512,0,0,0,0,0,0,512,512,512,512,0,0,0,0,0,0,0,0,0,0,0,512,512,512,512,512,512,512,512,512,512,512,512,512,512,512,512,512,0,0,0,0,0,0,512,512,512,512,512,512,512,512,512,512,512,512,512,512,512,512,512,512,512,512,0,0,0,0,0,0,512,512,512,512,0,0,0,0,0,0,0,0,0,0,0,512,512,512,512,512,512,512,512,512,512,512,512,512,512,512,512,512,0,0,0,0,0,0,512,512,512,512,512,512,512,512,512,512,512,512,512,512,512,512,512,512,512,512,0,0,0,0,0,0,512,512,512,512,0,0,0,0,0,0,0,0,0,0,0,512,512,512,512,512,512,512,512,512,512,512,512,512,512,512,512,512,0,0,0,0,0,0,512,512,512,512,512,512,512,512,512,512,512,512,512,512,512,512,512,512,512,512,0,0,0,0,0,0,512,512,512,512,0,0,0,0,0,0,0,0,0,0,0,0,0,0,0,0,0,512,512,512,512,512,0,0,0,0,0,0,0,0,0,0,0,0,512,512,512,512,512,512,512,512,512,512,512,512,512,512,512,512,512,512,512,512,0,0,0,0,0,0,512,512,512,512,0,0,0,0,0,0,0,0,0,0,0,512,512,512,512,512,512,512,512,512,512,512,512,512,512,512,512,512,0,0,0,0,0,0,512,512,512,512,512,512,512,512,512,512,512,512,512,512,512,512,512,512,512,512,0,0,0,0,0,0,512,512,512,512,0,0,0,0,0,0,0,0,0,0,0,512,512,512,512,512,512,512,512,512,512,512,512,512,512,512,512,512,0,0,0,0,0,0,512,512,512,512,512,512,512,512,512,512,512,512,512,512,512,512,512,512,512,512,0,0,0,0,0,0,512,512,512,512,0,0,0,0,0,0,0,0,0,0,0,512,512,512,512,512,512,512,512,512,512,512,512,512,512,512,512,512,0,0,0,0,0,0,512,512,512,512,512,512,512,512,512,512,512,512,512,512,512,512,512,512,512,512,0,0,0,0,0,0,512,512,512,512,0,0,0,0,0,0,0,0,0,0,0,512,512,512,512,512,512,512,512,512,512,512,512,512,512,512,512,512,0,0,0,0,0,0,512,512,512,512,512,512,512,512,512,512,512,512,512,512,512,512,512,512,512,512,0,0,0,0,0,0,512,512,512,512,0,0,0,0,0,0,0,0,0,0,0,512,512,512,512,512,512,512,512,512,512,512,512,512,512,512,512,512,0,0,0,0,0,0,512,512,512,512,512,512,512,512,512,512,512,512,512,512,512,512,512,512,512,512,0,0,0,0,0,0,512,512,512,512,0,0,0,0,0,0,0,0,0,0,0,512,512,512,512,512,512,512,512,512,512,512,512,512,512,512,512,512,0,0,0,0,0,0,512,512,512,512,512,512,512,512,512,512,512,512,512,512,512,512,512,512,512,512,0,0,0,0,0,0,512,512,512,512,0,0,0,0,0,0,0,0,0,0,0,512,512,512,512,512,512,512,512,512,512,512,512,512,512,512,512,512,0,0,0,0,0,0,0,0,0,0,0,0,0,0,0,512,512,0,0,0,0,0,0,0,0,0,0,0,0,0,0,0,512,512,512,512,0,0,0,0,0,0,0,0,0,0,0,0,0,0,0,0,0,0,512,512,0,0,0,0,0,0,0,0,0,0,0,0,0,0,512,512,512,512,512,512,512,512,512,512,512,512,512,512,512,512,512,512,512,512,512,512,512,512,512,512,512,512,512,512,512,512,512,512,512,512,512,512,512,512,512,512,512,512,512,512,512,512,512,512,512,512,512,512,512,512,512,512,0,0,0,0,0,0,512,512,512,512,512,512,512,512,512,512,512,512,512,512,512,512,512,512,512,512,512,512,512,512,512,512,512,512,512,512,512,512,512,512,512,512,512,512,512,512,512,512,512,512,512,512,512,512,512,512,512,512,512,512,512,512,512,512,0,0,0,0,0,0,512,512,512,512,512,512,512,512,512,512,512,512,512,512,512,512,512,512,512,512,512,512,512,512,512,512,512,512,512,512,512,512,512,512,512,512,512,512,512,512,512,512,512,512,512,512,512,512,512,512,512,512,512,512,512,512,512,512,0,0,0,0,0,0,0,0,0,0,0,0,0,0,0,0,0,0,0,0,0,0,0,0,0,0,0,0,0,0,0,0,0,512,512,512,512,0,0,0,0,0,0,0,0,0,0,0,0,0,0,0,0,0,0,0,0,0,0,0,0,0,0,0,0,0,0,0,0,0,0,0,0,0,0,0,0,0,0,0,0,0,0,0,0,0,0,0,0,0,0,0,0,0,0,0,0,512,512,512,512,0,0,0,0,0,0,0,0,0,0,0,0,0,0,0,0,0,0,0,0,0,0,0,0,0,0,0,0,0,0,0,0,0,0,0,0,0,0,0,0,0,0,0,0,0,0,0,0,0,0,0,0,0,0,0,0,512,512,512,512,512,512,512,512,512,512,512,512,0,0,0,0,0,0,0,0,0,0,0,0,0,0,0,0,0,0,0,0,0,0,0,0,0,0,0,0,0,0,0,0,0,0,0,0,0,0,0,0,0,0,0,0,0,0,0,0,0,0,0,0,512,512,512,512,512,512,512,512,512,512,512,512,0,0,0,0,0,0,0,0,0,0,0,0,0,0,0,0,0,0,0,0,0,0,0,0,0,0,0,0,0,0,0,0,0,0,0,0,0,0,0,0,0,0,0,0,0,0,0,0,0,0,0,0,512,512,512,512,512,512,512,512,512,512,512,512,0,0,0,0,0,0,0,0,0,0,0,0,0,0,0,0,0,0,0,0,0,0,0,0,0,0,0,0,0,0,0,0,0,0,0,0,0,0,0,0,0,0,0,0,0,0,0,0,0,0,0,0,512,512,512,512,512,512,512,512,512,512,512,512,0,0,0,0,0,0,0,0,0,0,0,0,0,0,0,0,0,0,0,0,0,0,0,0,0,0,0,0,0,0,0,0,0,0,0,0,0,0,0,0,0,0,0,0,0,0,0,0,0,0,0,0,512,512,512,512,512,512,512,512,512,512,512,512,0,0,0,0,0,0,0,0,0,0,0,0,0,0,0,0,0,0,0,0,0,0,0,0,0,0,0,0,0,0,0,0,0,0,0,0,0,0,0,0,0,0,0,0,0,0,0,0,0,0,0,0,512,512,512,512,512,512,512,512,512,512,512,512,0,0,0,0,0,0,0,0,0,0,0,0,0,0,0,0,0,0,0,0,0,0,0,0,0,0,0,0,0,0,0,0,0,0,0,0,0,0,0,0,0,0,0,0,0,0,0,0,0,0,0,0,512,512,512,512,512,512,512,512,512,512,512,512,0,0,0,0,0,0,0,0,0,0,0,0,0,0,0,0,0,0,0,0,0,0,0,0,0,0,0,0,0,0,0,0,0,0,0,0,0,0,0,0,0,0,0,0,0,0,0,0,0,0,0,0,512,512,512,512,512,512,512,512,512,512,512,512,0,0,0,0,0,0,0,0,0,0,0,0,0,0,0,0,0,0,0,0,0,0,0,0,0,0,0,0,0,0,0,0,0,0,0,0,0,0,0,0,0,0,0,0,0,0,0,0,0,0,0,0,512,512,512,512,512,512,512,512,512,512,512,512,0,0,0,0,0,0,0,0,0,0,0,0,0,0,0,0,0,0,0,0,0,0,0,0,0,0,0,0,0,0,0,0,0,0,0,0,0,0,0,0,0,0,0,0,0,0,0,0,0,0,0,0,512,512,512,512,512,512,512,512,512,512,512,512,0,0,0,0,0,0,0,0,0,0,0,0,0,0,0,0,0,0,0,0,0,0,0,0,0,0,0,0,0,0,0,0,0,0,0,0,0,0,0,0,0,0,0,0,0,0,0,0,0,0,0,0,0,0,0,0,0,0,0,0,0,0,0,0,0,0,0,0,0,0,0,0,0,0,0,0,0,0,0,0,0,0,0,0,0,0,0,0,0,0,0,0,0,0,0,0,0,0,0,0,0,0,0,0,0,0,0,0,0,0,0,0,0,0,0,0,0,0,0,0,0,0,0,0,0,0,0,0,0,0,0,0,0,0,0,0,0,0,0,0,0,0,0,0,0,0,0,0,0,0,0,0,0,0]},{"id":2,"name":"decor","type":"tilelayer","width":64,"height":46,"x":0,"y":0,"opacity":1,"visible":true,"data":[0,0,0,0,0,0,0,0,0,0,0,0,0,0,0,0,0,0,0,0,0,0,0,0,0,0,0,0,0,0,0,0,0,0,0,0,0,0,0,0,0,0,0,0,0,0,0,0,0,0,0,0,0,0,0,0,0,0,0,0,0,0,0,0,0,0,0,0,0,0,0,0,0,0,0,0,0,0,0,0,0,0,0,0,0,0,0,0,0,0,0,0,0,0,0,0,0,0,0,0,0,0,0,0,0,0,0,0,0,0,0,0,0,0,0,0,0,0,0,0,0,0,0,0,0,0,0,0,0,0,0,0,0,0,0,0,0,0,0,0,0,0,0,0,0,0,0,0,0,0,0,0,0,0,0,0,0,0,0,0,0,0,0,0,0,0,0,0,0,0,0,0,0,0,0,0,0,0,0,0,0,0,0,0,0,0,0,0,0,0,0,0,0,0,0,0,0,0,0,0,0,0,0,0,0,0,0,0,0,0,0,0,0,0,0,0,0,0,0,0,0,0,0,0,0,0,0,0,0,0,0,0,0,0,0,0,0,0,0,0,0,0,0,0,0,0,0,0,0,0,0,0,0,0,0,0,0,0,0,0,0,0,0,0,0,0,0,0,0,0,0,0,0,0,0,0,0,0,0,0,0,0,0,0,0,0,0,0,0,0,0,0,0,0,0,0,0,0,0,0,0,0,0,0,0,0,0,0,0,0,0,0,0,0,0,0,0,0,0,0,0,0,0,0,0,0,0,0,0,0,0,0,0,0,0,0,0,0,0,0,0,0,0,0,0,0,0,0,0,0,0,0,0,0,0,0,0,0,0,0,0,0,0,0,0,0,0,0,0,0,0,0,0,0,0,0,0,0,0,0,0,0,0,0,0,0,0,0,0,0,0,0,0,0,0,0,0,0,0,0,0,0,0,0,0,0,0,0,0,0,0,0,0,0,0,0,0,0,0,0,0,0,0,0,0,0,0,0,0,0,0,0,0,0,0,0,0,0,0,0,0,0,0,0,0,0,0,0,0,0,0,0,0,0,0,0,0,0,0,0,0,0,0,0,0,0,0,0,0,0,0,0,0,0,0,0,0,0,0,0,0,0,0,0,0,0,0,0,0,0,0,0,0,0,0,0,0,0,0,0,0,0,0,0,0,0,0,0,0,0,0,0,0,0,0,0,0,0,0,0,0,0,0,0,0,0,0,0,0,0,0,0,0,0,0,0,0,0,0,0,0,0,0,0,0,0,0,0,0,0,0,0,0,0,0,0,0,0,0,0,0,0,0,0,0,0,0,0,0,0,0,0,0,0,0,0,0,0,0,0,0,0,0,0,0,0,0,0,0,0,0,0,0,0,0,0,0,0,0,0,0,0,0,0,0,0,0,0,0,0,0,0,0,0,0,0,0,0,0,0,0,0,0,0,0,0,0,0,0,0,0,0,0,0,0,0,0,0,0,0,0,0,0,0,0,0,0,0,0,0,0,0,0,0,0,0,0,0,0,0,0,0,0,0,0,0,0,0,0,0,0,0,0,0,0,0,0,0,0,0,0,0,0,0,0,0,0,0,0,0,0,0,0,0,0,0,0,0,0,0,0,0,0,0,0,0,0,0,0,0,0,0,0,0,0,0,0,0,0,0,0,0,0,0,0,0,0,0,0,0,0,0,0,0,0,0,0,0,0,0,0,0,0,0,0,0,0,0,0,0,0,0,0,0,0,0,0,0,0,0,0,0,0,0,0,0,0,0,0,0,0,0,0,0,0,0,0,0,0,0,0,0,0,0,0,0,0,0,0,0,0,0,0,0,0,0,0,0,0,0,0,0,0,0,0,0,0,0,0,0,0,0,0,0,0,0,0,0,0,0,0,0,0,0,0,0,0,0,0,0,0,0,0,0,0,0,0,0,0,0,0,0,0,0,0,0,0,0,0,0,0,0,0,0,0,0,0,0,0,0,0,0,0,0,0,0,0,0,0,0,0,0,0,0,0,0,0,0,0,0,0,0,0,0,0,0,0,0,0,0,0,0,0,0,0,0,0,0,0,0,0,0,0,0,0,0,0,0,0,0,0,0,0,0,0,0,0,0,0,0,0,0,0,0,0,0,0,0,0,0,0,0,0,0,0,0,0,0,0,0,0,0,0,0,0,0,0,0,0,0,0,0,0,0,0,0,0,0,0,0,0,0,0,0,0,0,0,0,0,0,0,0,0,0,0,0,0,0,0,0,0,0,0,0,0,0,0,0,0,0,0,0,0,0,0,0,0,0,0,0,0,0,0,0,0,0,0,0,0,0,0,0,0,0,0,0,0,0,0,0,0,0,0,0,0,0,0,0,0,0,0,0,0,0,0,0,0,0,0,0,0,0,0,0,0,0,0,0,0,0,0,0,0,0,0,0,0,0,0,0,0,0,0,0,0,0,0,0,0,0,0,0,0,0,0,0,0,0,0,0,0,0,0,0,0,0,0,0,0,0,0,0,0,0,0,0,0,0,0,0,0,0,0,0,0,0,0,0,0,0,0,0,0,0,0,0,0,0,0,0,0,0,0,0,0,0,0,0,0,0,0,0,0,0,0,0,0,0,0,0,0,0,0,0,0,0,0,0,0,0,0,0,0,0,0,0,0,0,0,0,0,0,0,0,0,0,0,0,0,0,0,0,0,0,0,0,0,0,0,0,0,0,0,0,0,0,0,0,0,0,0,0,0,0,0,0,0,0,0,0,0,0,0,0,0,0,0,0,0,0,0,0,0,0,0,0,0,0,0,0,0,0,0,0,0,0,0,0,0,0,0,0,0,0,0,0,0,0,0,0,0,0,0,0,0,0,0,0,0,0,0,0,0,0,0,0,0,0,0,0,0,0,0,0,0,0,0,0,0,0,0,0,0,0,0,0,0,0,0,0,0,0,0,0,0,0,0,0,0,0,0,0,0,0,0,0,0,0,0,0,0,0,0,0,0,0,0,0,0,0,0,0,0,0,0,0,0,0,0,0,0,0,0,0,0,0,0,0,0,0,0,0,0,0,0,0,0,0,0,0,0,0,0,0,0,0,0,0,0,0,0,0,0,0,0,0,0,0,0,0,0,0,0,0,0,0,0,0,0,0,0,0,0,0,0,0,0,0,0,0,0,0,0,0,0,0,0,0,0,0,0,0,0,0,0,0,0,0,0,0,0,0,0,0,0,0,0,0,0,0,0,0,0,0,0,0,0,0,0,0,0,0,0,0,0,0,0,0,0,0,0,0,0,0,0,0,0,0,0,0,0,0,0,0,0,0,0,0,0,0,0,0,0,0,0,0,0,0,0,0,0,0,0,0,0,0,0,0,0,0,0,0,0,0,0,0,0,0,0,0,0,0,0,0,0,0,0,0,0,0,0,0,0,0,0,0,0,0,0,0,0,0,0,0,0,0,0,0,0,0,0,0,0,0,0,0,0,0,0,0,0,0,0,0,0,0,0,0,0,0,0,0,0,0,0,0,0,0,0,0,0,0,0,0,0,0,0,0,0,0,0,0,0,0,0,0,0,0,0,0,0,0,0,0,0,0,0,0,0,0,0,0,0,0,0,0,0,0,0,0,0,0,0,0,0,0,0,0,0,0,0,0,0,0,0,0,0,0,0,0,0,0,0,0,0,0,0,0,0,0,0,0,0,0,0,0,0,0,0,0,0,0,0,0,0,0,0,0,0,0,0,0,0,0,0,0,0,0,0,0,0,0,0,0,0,0,0,0,0,0,0,0,0,0,0,0,0,0,0,0,0,0,0,0,0,0,0,0,0,0,0,0,0,0,0,0,0,0,0,0,0,0,0,0,0,0,0,0,0,0,0,0,0,0,0,0,0,0,0,0,0,0,0,0,0,0,0,0,0,0,0,0,0,0,0,0,0,0,0,0,0,0,0,0,0,0,0,0,0,0,0,0,0,0,0,0,0,0,0,0,0,0,0,0,0,0,0,0,0,0,0,0,0,0,0,0,0,0,0,0,0,0,0,0,0,0,0,0,0,0,0,0,0,0,0,0,0,0,0,0,0,0,0,0,0,0,0,0,0,0,0,0,0,0,0,0,0,0,0,0,0,0,0,0,0,0,0,0,0,0,0,0,0,0,0,0,0,0,0,0,0,0,0,0,0,0,0,0,0,0,0,0,0,0,0,0,0,0,0,0,0,0,0,0,0,0,0,0,0,0,0,0,0,0,0,0,0,0,0,0,0,0,0,0,0,0,0,0,0,0,0,0,0,0,0,0,0,0,0,0,0,0,0,0,0,0,0,0,0,0,0,0,0,0,0,0,0,0,0,0,0,0,0,0,0,0,0,0,0,0,0,0,0,0,0,0,0,0,0,0,0,0,0,0,0,0,0,0,0,0,0,0,0,0,0,0,0,0,0,0,0,0,0,0,0,0,0,0,0,0,0,0,0,0,0,0,0,0,0,0,0,0,0,0,0,0,0,0,0,0,0,0,0,0,0,0,0,0,0,0,0,0,0,0,0,0,0,0,0,0,0,0,0,0,0,0,0,0,0,0,0,0,0,0,0,0,0,0,0,0,0,0,0,0,0,0,0,0,0,0,0,0,0,0,0,0,0,0,0,0,0,0,0,0,0,0,0,0,0,0,0,0,0,0,0,0,0,0,0,0,0,0,0,0,0,0,0,0,0,0,0,0,0,0,0,0,0,0,0,0,0,0,0,0,0,0,0,0,0,0,0,0,0,0,0,0,0,0,0,0,0,0,0,0,0,0,0,0,0,0,0,0,0,0,0,0,0,0,0,0,0,0,0,0,0,0,0,0,0,0,0,0,0,0,0,0,0,0,0,0,0,0,0,0,0,0,0,0,0,0,0,0,0,0,0,0,0,0,0,0,0,0,0,0,0,0,0,0,0,0,0,0,0,0,0,0,0,0,0,0,0,0,0,0,0,0,0,0,0,0,0,0,0,0,0,0,0,0,0,0,0,0,0,0,0,0,0,0,0,0,0,0,0,0,0,0,0,0,0,0,0,0,0,0,0,0,0,0,0,0,0,0,0,0,0,0,0,0,0,0,0,0,0,0,0,0,0,0,0,0,0,0,0,0,0,0,0,0,0,0,0,0,0,0,0,0,0,0,0,0,0,0,0,0,0,0,0,0,0,0,0,0,0,0,0,0,0,0,0,0,0,0,0,0,0,0,0,0,0,0,0,0,0,0,0,0,0,0,0,0,0,0,0,0,0,0,0,0,0,0,0,0,0,0,0,0,0,0,0,0,0,0,0,0,0,0,0,0,0,0,0,0,0,0,0,0,0,0,0,0,0,0,0,0,0,0,0,0,0,0,0,0,0,0,0,0,0,0,0,0,0,0,0,0,0,0,0,0,0,0,0,0,0,0,0,0,0,0,0,0,0,0,0,0,0,0,0,0,0,0,0,0,0,0,0,0,0,0,0,0,0,0,0,0,0,0,0,0,0,0,0,0,0,0,0,0,0,0,0,0,0,0,0,0,0,0,0,0,0,0,0,0,0,0,0,0,0,0,0,0,0,0,0,0,0,0,0,0,0,0,0,0,0,0,0,0,0,0,0,0,0,0,0,0,0,0,0,0,0,0,0,0,0,0,0,0,0,0,0,0,0,0,0,0,0,0,0,0,0,0,0,0,0,0,0,0,0,0,0,0,0,0,0,0,0,0,0,0,0,0,0,0,0,0,0,0,0,0,0,0,0,0,0,0,0,0,0,0,0,0,0,0,0,0,0,0,0,0,0,0,0,0,0,0,0,0,0,0,0,0,0,0,0,0,0,0,0,0,0,0,0,0,0,0,0,0,0,0,0,0,0,0,0,0,0,0,0,0,0,0,0,0,0,0,0,0,0,0,0,0,0,0,0,0,0,0,0,0,0,0,0,0,0,0,0,0,0,0,0,0,0,0,0,0,0,0,0,0,0,0,0,0,0,0,0,0,0,0,0,0,0,0,0,0,0,0,0,0,0,0,0,0,0,0,0,0,0,0,0,0,0,0,0,0,0,0,0,0,0,0,0,0,0,0,0,0,0,0,0,0,0,0,0,0,0,0,0,0,0,0,0,0,0,0,0,0,0,0,0,0,0,0,0,0,0,0,0,0,0,0,0,0,0,0,0,0,0,0,0,0,0,0,0,0,0,0,0,0,0,0,0,0,0,0,0,0,0,0,0,0,0,0,0,0,0,0,0,0,0,0,0,0,0,0,0,0,0,0,0,0,0,0,0,0,0,0,0,0,0,0,0,0,0,0,0,0,0,0,0,0,0,0,0,0,0,0,0,0,0,0,0,0,0,0,0,0,0,0,0,0,0,0,0,0,0,0,0,0,0,0,0,0,0,0,0,0,0,0,0,0,0,0,0,0,0,0,0,0,0,0,0,0,0,0,0,0,0,0,0,0,0,0,0,0,0,0,0,0,0,0,0,0,0,0,0,0,0,0,0,0,0,0,0,0,0,0,0,0,0,0,0,0,0,0,0,0,0,0,0,0,0,0,0,0,0,0,0,0,0,0,0,0,0,0,0,0,0,0,0,0,0,0,0,0,0,0,0,0,0,0,0,0,0,0,0,0,0,0,0,0,0,0,0,0,0,0,0,0,0,0,0,0,0,0,0,0,0,0,0,0,0,0,0,0,0,0,0,0,0,0,0,0,0,0]},{"id":3,"name":"walls","type":"tilelayer","width":64,"height":46,"x":0,"y":0,"opacity":1,"visible":true,"data":[779,779,779,779,779,779,779,779,779,779,779,779,779,779,779,779,779,779,779,779,779,779,779,779,779,779,779,779,779,779,779,779,779,779,779,779,779,779,779,779,779,779,779,779,779,779,779,779,779,779,779,779,779,779,779,779,779,779,779,779,779,779,779,779,779,779,779,779,779,779,779,779,779,779,779,779,779,779,779,779,779,779,779,779,779,779,779,779,779,779,779,779,779,779,779,779,779,779,779,779,779,779,779,779,779,779,779,779,779,779,779,779,779,779,779,779,779,779,779,779,779,779,779,779,779,779,779,779,779,779,777,771,771,771,771,771,771,771,771,771,771,771,771,771,771,771,771,771,771,771,771,774,777,771,771,771,771,771,771,771,771,771,771,771,771,772,771,771,771,771,771,772,771,771,771,771,771,771,771,771,771,771,771,771,771,771,771,771,771,774,779,779,779,779,775,0,0,0,0,0,0,0,0,0,0,0,0,0,0,0,0,0,0,0,0,757,775,0,0,0,0,0,0,0,0,0,0,0,0,738,0,0,0,0,0,738,0,0,0,0,0,0,0,0,0,0,0,0,0,0,0,0,0,757,779,779,779,779,775,0,0,0,0,0,0,0,0,0,0,0,0,0,0,0,0,0,0,0,0,757,775,0,0,0,0,0,0,0,0,0,0,0,0,738,0,0,0,0,0,738,0,0,0,0,0,0,0,0,0,0,0,0,0,0,0,0,0,757,779,779,779,779,775,0,0,0,0,0,0,0,0,0,0,0,0,0,0,0,0,0,0,0,0,757,775,0,0,0,0,0,0,0,0,0,0,0,0,734,0,0,0,0,0,738,0,0,0,0,0,0,0,0,0,0,0,0,0,0,0,0,0,757,779,779,779,779,775,0,735,743,743,743,743,741,0,0,0,0,0,735,743,743,743,743,741,0,0,757,775,0,0,0,0,0,0,0,0,0,0,0,0,0,0,0,0,0,0,738,0,0,0,0,0,0,0,0,0,0,0,0,0,0,0,0,0,757,779,779,779,779,775,0,0,0,0,0,0,0,0,0,0,0,0,0,0,0,0,0,0,0,0,757,775,0,0,0,0,0,0,0,0,0,0,0,0,0,0,0,0,0,0,738,0,0,0,0,0,0,0,0,0,0,0,0,0,0,0,0,0,757,779,779,779,779,775,0,0,0,0,0,0,0,0,0,0,0,0,0,0,0,0,0,0,0,0,757,775,0,0,0,0,0,0,0,0,0,0,0,0,737,0,0,0,0,0,738,0,0,0,0,0,0,0,737,0,0,737,0,0,0,0,0,0,757,779,779,779,779,775,0,0,0,0,0,0,0,0,0,0,0,0,0,0,0,0,0,0,0,0,757,775,0,0,0,0,0,0,0,0,0,0,0,0,738,0,0,0,0,0,738,0,0,0,0,0,0,0,738,0,0,738,0,0,0,0,0,0,757,779,779,779,779,775,0,735,743,743,743,743,741,0,0,0,0,0,735,743,743,743,743,741,0,0,757,775,0,0,0,0,0,0,0,0,0,0,0,0,738,0,0,0,0,0,738,0,0,0,0,0,0,0,738,0,0,738,0,0,0,0,0,0,757,779,779,779,779,775,0,0,0,0,0,0,0,0,0,0,0,0,0,0,0,0,0,0,0,0,757,775,0,0,0,0,0,0,0,0,0,0,0,0,754,764,764,764,764,764,760,0,0,0,0,0,0,0,738,0,0,738,0,0,0,0,0,0,757,779,779,779,779,775,0,0,0,0,0,0,0,0,0,0,0,0,0,0,0,0,0,0,0,0,757,775,0,0,0,0,0,0,0,0,0,0,0,0,757,779,779,779,779,779,775,0,0,0,0,0,0,0,738,0,0,738,0,0,0,0,0,0,757,779,779,779,779,775,0,0,0,0,0,0,0,0,0,0,0,0,0,0,0,0,0,0,0,0,757,775,0,0,0,0,0,0,0,0,0,0,0,0,757,779,779,779,779,779,776,743,743,743,743,743,743,743,742,0,0,736,743,743,743,743,743,743,758,779,779,779,779,775,0,735,743,743,743,743,741,0,0,0,0,0,735,743,743,743,743,741,0,0,757,775,0,0,0,0,0,0,0,0,0,0,0,0,757,779,779,779,779,779,775,0,0,0,0,0,0,0,0,0,0,0,0,0,0,0,0,0,757,779,779,779,779,775,0,0,0,0,0,0,0,0,0,0,0,0,0,0,0,0,0,0,0,0,757,775,0,0,0,0,0,0,0,0,0,0,0,0,757,779,779,779,779,779,775,0,0,0,0,0,0,0,0,0,0,0,0,0,0,0,0,0,757,779,779,779,779,775,0,0,0,0,0,0,0,0,0,0,0,0,0,0,0,0,0,0,0,0,757,775,0,0,0,0,0,0,0,0,0,0,0,0,757,779,779,779,779,779,775,0,0,0,0,0,0,0,0,0,0,0,0,0,0,0,0,0,757,779,779,779,779,775,0,0,0,0,0,0,0,0,0,0,0,0,0,0,0,0,0,0,0,0,757,778,764,764,764,759,0,0,0,0,753,764,764,764,766,779,779,779,779,779,775,0,0,0,0,0,0,0,0,0,0,0,0,0,0,0,0,0,757,779,779,779,779,775,0,0,0,0,0,0,0,0,0,0,0,0,0,0,0,0,0,0,0,0,757,779,779,779,779,775,0,0,0,0,757,779,779,779,779,779,779,779,779,779,775,0,0,0,0,0,0,0,0,0,0,0,0,0,0,0,0,0,757,779,779,779,779,775,0,0,0,0,0,0,0,0,0,0,0,0,0,0,0,0,0,0,0,0,757,779,779,779,779,775,0,0,0,0,757,779,779,779,779,779,779,779,779,779,775,0,0,0,0,0,0,0,0,0,0,0,0,0,0,0,0,0,757,779,779,779,779,775,0,0,0,0,0,0,0,0,0,0,0,0,0,0,0,0,0,0,0,0,757,779,779,779,779,775,0,0,0,0,757,779,779,779,779,779,779,779,779,779,776,743,743,743,743,743,741,0,0,0,0,0,735,743,743,743,743,743,758,779,779,779,779,775,0,0,0,0,0,0,0,0,0,0,0,0,0,0,0,0,0,0,0,0,757,779,779,779,779,775,0,0,0,0,757,779,779,779,779,779,779,779,779,779,775,0,0,0,0,0,0,0,0,0,0,0,0,0,0,0,0,0,757,779,779,779,779,775,0,0,0,0,0,0,0,0,0,0,0,0,0,0,0,0,0,0,0,0,757,779,779,779,779,775,0,0,0,0,757,779,779,779,779,779,779,779,779,779,775,0,0,0,0,0,0,0,0,0,0,0,0,0,0,0,0,0,757,779,779,779,779,775,0,0,0,0,0,0,0,0,0,0,0,0,0,0,0,0,0,0,0,0,757,779,779,779,779,775,0,0,0,0,757,779,779,779,779,779,779,779,779,779,775,0,0,0,0,0,0,0,0,0,0,0,0,0,0,0,0,0,757,779,779,779,779,775,0,0,0,0,0,0,0,0,0,0,0,0,0,0,0,0,0,0,0,0,757,779,779,779,779,775,0,0,0,0,757,779,779,779,779,779,779,779,779,779,775,0,0,0,0,0,0,0,0,0,0,0,0,0,0,0,0,0,757,779,779,779,779,775,0,0,0,0,0,0,0,0,0,0,0,0,0,0,0,0,0,0,0,0,757,779,779,779,779,775,0,0,0,0,757,779,779,779,779,779,779,779,779,779,775,0,0,0,0,0,0,0,0,0,0,0,0,0,0,0,0,0,757,779,779,779,779,775,0,0,0,0,0,0,0,0,0,0,0,0,0,0,0,0,0,0,0,0,757,779,779,779,779,775,0,0,0,0,757,779,779,779,779,779,779,779,779,779,775,0,0,0,0,0,0,0,0,0,0,0,0,0,0,0,0,0,757,779,779,779,779,775,0,0,0,0,0,0,0,0,0,0,0,0,0,0,0,0,0,0,0,0,757,779,779,779,779,775,0,0,0,0,757,779,779,779,779,779,779,779,779,779,775,0,0,0,0,0,0,0,0,0,0,0,0,0,0,0,0,0,757,779,779,779,779,776,743,743,743,743,743,743,743,743,741,0,0,735,743,743,743,743,743,743,743,743,751,771,771,771,771,767,0,0,0,0,749,771,771,771,771,771,771,771,771,771,768,743,743,743,743,743,743,741,0,0,735,743,743,743,743,743,743,743,758,779,779,779,779,775,0,0,0,0,0,0,0,0,0,0,0,0,0,0,0,0,0,0,0,0,0,0,0,0,0,0,0,0,0,0,0,0,0,0,0,0,0,0,0,0,0,0,0,0,0,0,0,0,0,0,0,0,0,0,0,0,0,0,757,779,779,779,779,775,0,0,0,0,0,0,0,0,0,0,0,0,0,0,0,0,0,0,0,0,0,0,0,0,0,0,0,0,0,0,0,0,0,0,0,0,0,0,0,0,0,0,0,0,0,0,0,0,0,0,0,0,0,0,0,0,0,0,757,779,779,779,779,775,0,0,0,0,0,0,0,0,0,0,0,0,0,0,0,0,0,0,0,0,0,0,0,0,0,0,0,0,0,0,0,0,0,0,0,0,0,0,0,0,0,0,0,0,0,0,0,0,0,0,0,0,0,0,0,0,0,0,757,779,779,779,779,778,764,764,764,764,764,764,764,764,764,764,764,764,764,764,764,764,764,764,764,764,764,764,764,764,764,764,759,0,0,0,0,753,764,764,764,764,764,764,764,764,764,764,764,764,764,764,764,764,764,764,764,764,764,764,764,764,764,764,766,779,779,779,779,779,779,779,779,779,779,779,779,779,779,779,779,779,779,779,779,779,779,779,779,779,779,779,777,771,771,771,767,0,0,0,0,749,771,771,771,774,779,779,779,779,779,779,779,779,779,779,779,779,779,779,779,779,779,779,779,779,779,779,779,779,779,779,779,779,779,779,779,779,779,779,779,779,779,779,779,779,779,779,779,779,779,779,779,779,779,779,775,0,0,0,0,0,0,0,0,0,0,0,0,757,779,779,779,779,779,779,779,779,779,779,779,779,779,779,779,779,779,779,779,779,779,779,779,779,779,779,779,779,779,779,779,779,779,779,779,779,779,779,779,779,779,779,779,779,779,779,779,779,779,779,775,0,0,0,0,0,0,0,0,0,0,0,0,757,779,779,779,779,779,779,779,779,779,779,779,779,779,779,779,779,779,779,779,779,779,779,779,779,779,779,779,779,779,779,779,779,779,779,779,779,779,779,779,779,779,779,779,779,779,779,779,779,779,779,775,0,0,0,0,0,0,0,0,0,0,0,0,757,779,779,779,779,779,779,779,779,779,779,779,779,779,779,779,779,779,779,779,779,779,779,779,779,779,779,779,779,779,779,779,779,779,779,779,779,779,779,779,779,779,779,779,779,779,779,779,779,779,779,775,0,0,0,0,0,0,0,0,0,0,0,0,757,779,779,779,779,779,779,779,779,779,779,779,779,779,779,779,779,779,779,779,779,779,779,779,779,779,779,779,779,779,779,779,779,779,779,779,779,779,779,779,779,779,779,779,779,779,779,779,779,779,779,775,0,0,0,0,0,0,0,0,0,0,0,0,757,779,779,779,779,779,779,779,779,779,779,779,779,779,779,779,779,779,779,779,779,779,779,779,779,779,779,779,779,779,779,779,779,779,779,779,779,779,779,779,779,779,779,779,779,779,779,779,779,779,779,775,0,0,0,0,0,0,0,0,0,0,0,0,757,779,779,779,779,779,779,779,779,779,779,779,779,779,779,779,779,779,779,779,779,779,779,779,779,779,779,779,779,779,779,779,779,779,779,779,779,779,779,779,779,779,779,779,779,779,779,779,779,779,779,775,0,0,0,0,0,0,0,0,0,0,0,0,757,779,779,779,779,779,779,779,779,779,779,779,779,779,779,779,779,779,779,779,779,779,779,779,779,779,779,779,779,779,779,779,779,779,779,779,779,779,779,779,779,779,779,779,779,779,779,779,779,779,779,775,0,0,0,0,0,0,0,0,0,0,0,0,757,779,779,779,779,779,779,779,779,779,779,779,779,779,779,779,779,779,779,779,779,779,779,779,779,779,779,779,779,779,779,779,779,779,779,779,779,779,779,779,779,779,779,779,779,779,779,779,779,779,779,775,0,0,0,0,0,0,0,0,0,0,0,0,757,779,779,779,779,779,779,779,779,779,779,779,779,779,779,779,779,779,779,779,779,779,779,779,779,779,779,779,779,779,779,779,779,779,779,779,779,779,779,779,779,779,779,779,779,779,779,779,779,779,779,775,0,0,0,0,0,0,0,0,0,0,0,0,757,779,779,779,779,779,779,779,779,779,779,779,779,779,779,779,779,779,779,779,779,779,779,779,779,779,779,779,779,779,779,779,779,779,779,779,779,779,779,779,779,779,779,779,779,779,779,779,779,779,779,778,764,764,764,764,764,764,764,764,764,764,764,764,766,779,779,779,779,779,779,779,779,779,779,779,779,779,779,779,779,779,779,779,779,779,779,779,779,779,779,779,779,779,779,779,779,779,779,779,779,779,779,779,779,779,779,779,779,779,779,779,779,779,779,779,779,779,779,779,779,779,779,779,779,779,779,779,779,779,779,779,779,779,779,779,779,779,779,779,779,779,779,779,779,779,779,779,779,779,779,779,779,779]},{"id":4,"name":"objects","type":"objectgroup","draworder":"topdown","opacity":1,"visible":true,"x":0,"y":0,"objects":[{"id":1,"name":"service","type":"door","rotation":0,"visible":true,"x":2392,"y":384,"width":16,"height":128,"properties":[{"name":"theme","type":"string","value":"dark"},{"name":"locked","type":"string","value":"script"},{"name":"dir","type":"string","value":"v"}]},{"id":2,"name":"dark_door","type":"door","rotation":0,"visible":true,"x":1856,"y":1368,"width":256,"height":16,"properties":[{"name":"theme","type":"string","value":"dark"},{"name":"locked","type":"string","value":"script"},{"name":"dir","type":"string","value":"h"}]},{"id":3,"name":"west_door","type":"door","rotation":0,"visible":true,"x":768,"y":1816,"width":128,"height":16,"properties":[{"name":"theme","type":"string","value":"dark"},{"name":"dir","type":"string","value":"h"}]},{"id":4,"name":"east_door","type":"door","rotation":0,"visible":true,"x":3264,"y":1816,"width":128,"height":16,"properties":[{"name":"theme","type":"string","value":"dark"},{"name":"dir","type":"string","value":"h"}]},{"id":5,"name":"lobby_door","type":"door","rotation":0,"visible":true,"x":1920,"y":2136,"width":256,"height":16,"properties":[{"name":"theme","type":"string","value":"dark"},{"name":"dir","type":"string","value":"h"}]},{"id":6,"name":"elevator","type":"prop","rotation":0,"visible":true,"x":1824,"y":2182.4,"width":128,"height":128},{"id":7,"name":"elevator","type":"prop","rotation":0,"visible":true,"x":2112,"y":2182.4,"width":128,"height":128},{"id":8,"name":"player","type":"spawn","rotation":0,"visible":true,"x":1920,"y":2528,"width":0,"height":0,"point":true},{"id":9,"name":"player","type":"spawn","rotation":0,"visible":true,"x":2048,"y":2528,"width":0,"height":0,"point":true},{"id":10,"name":"player","type":"spawn","rotation":0,"visible":true,"x":1920,"y":2611.2,"width":0,"height":0,"point":true},{"id":11,"name":"player","type":"spawn","rotation":0,"visible":true,"x":2048,"y":2611.2,"width":0,"height":0,"point":true},{"id":12,"name":"nelya","type":"npc","rotation":0,"visible":true,"x":2144,"y":2624,"width":0,"height":0,"point":true,"properties":[{"name":"title","type":"string","value":"Неля · бухгалтерия"},{"name":"mode","type":"string","value":"idle"},{"name":"hp","type":"int","value":120},{"name":"story","type":"bool","value":true},{"name":"essential","type":"bool","value":true},{"name":"untargetable","type":"bool","value":true},{"name":"weapon","type":"string","value":"pistol"},{"name":"angle","type":"int","value":180},{"name":"lines","type":"string","value":"Тут Валера из IT выкрутил все лампочки.|Он даже на кофемашине тёмную тему включил."}]},{"id":13,"name":"","type":"light","rotation":0,"visible":true,"x":2016,"y":2432,"width":0,"height":0,"point":true,"properties":[{"name":"kind","type":"string","value":"lamp"},{"name":"color","type":"string","value":"ffe2a8"},{"name":"radius","type":"int","value":260},{"name":"flicker","type":"float","value":0.55}]},{"id":14,"name":"","type":"light","rotation":0,"visible":true,"x":1728,"y":2688,"width":0,"height":0,"point":true,"properties":[{"name":"kind","type":"string","value":"emergency"},{"name":"color","type":"string","value":"ff2a1a"},{"name":"radius","type":"int","value":200}]},{"id":15,"name":"vending","type":"prop","rotation":0,"visible":true,"x":2291.2,"y":2230.8,"width":64,"height":44},{"id":16,"name":"plant","type":"prop","rotation":0,"visible":true,"x":1679.9,"y":2239.7,"width":45,"height":39},{"id":17,"name":"water_cooler","type":"prop","rotation":0,"visible":true,"x":1730.2,"y":2709.4,"width":34,"height":34},{"id":18,"name":"","type":"label","rotation":0,"visible":true,"x":2016,"y":2393.6,"width":0,"height":0,"point":true,"properties":[{"name":"text","type":"string","value":"ЭТАЖ 8 · ТЁМНАЯ ТЕМА"},{"name":"size","type":"int","value":22},{"name":"color","type":"string","value":"#7d8aa6"}]},{"id":19,"name":"health","type":"pickup","rotation":0,"visible":true,"x":2336,"y":2720,"width":0,"height":0,"point":true},{"id":20,"name":"ammo","type":"pickup","rotation":0,"visible":true,"x":1715.2,"y":2496,"width":0,"height":0,"point":true},{"id":21,"name":"","type":"note","rotation":0,"visible":true,"x":2272,"y":2368,"width":0,"height":0,"point":true,"properties":[{"name":"text","type":"string","value":"Объявление: «С понедельника весь этаж переходит на тёмную тему. Лампы сданы в IT. — Валера»"}]},{"id":22,"name":"normal","type":"enemy","rotation":0,"visible":true,"x":384,"y":1920,"width":0,"height":0,"point":true,"properties":[{"name":"tag","type":"string","value":"corridor"},{"name":"dormant","type":"bool","value":true}]},{"id":23,"name":"fast","type":"enemy","rotation":0,"visible":true,"x":576,"y":1920,"width":0,"height":0,"point":true,"properties":[{"name":"tag","type":"string","value":"corridor"},{"name":"dormant","type":"bool","value":true}]},{"id":24,"name":"normal","type":"enemy","rotation":0,"visible":true,"x":1088,"y":1920,"width":0,"height":0,"point":true,"properties":[{"name":"tag","type":"string","value":"corridor"},{"name":"dormant","type":"bool","value":true}]},{"id":25,"name":"normal","type":"enemy","rotation":0,"visible":true,"x":1408,"y":1920,"width":0,"height":0,"point":true,"properties":[{"name":"tag","type":"string","value":"corridor"},{"name":"dormant","type":"bool","value":true}]},{"id":26,"name":"normal","type":"enemy","rotation":0,"visible":true,"x":2560,"y":1920,"width":0,"height":0,"point":true,"properties":[{"name":"tag","type":"string","value":"corridor"},{"name":"dormant","type":"bool","value":true}]},{"id":27,"name":"fast","type":"enemy","rotation":0,"visible":true,"x":2880,"y":1920,"width":0,"height":0,"point":true,"properties":[{"name":"tag","type":"string","value":"corridor"},{"name":"dormant","type":"bool","value":true}]},{"id":28,"name":"normal","type":"enemy","rotation":0,"visible":true,"x":3584,"y":1920,"width":0,"height":0,"point":true,"properties":[{"name":"tag","type":"string","value":"corridor"},{"name":"dormant","type":"bool","value":true}]},{"id":29,"name":"spitter","type":"enemy","rotation":0,"visible":true,"x":3776,"y":1920,"width":0,"height":0,"point":true,"properties":[{"name":"tag","type":"string","value":"corridor"},{"name":"dormant","type":"bool","value":true}]},{"id":30,"name":"","type":"light","rotation":0,"visible":true,"x":512,"y":1868.8,"width":0,"height":0,"point":true,"properties":[{"name":"kind","type":"string","value":"emergency"},{"name":"color","type":"string","value":"ff2a1a"},{"name":"radius","type":"int","value":150}]},{"id":31,"name":"","type":"light","rotation":0,"visible":true,"x":1280,"y":1868.8,"width":0,"height":0,"point":true,"properties":[{"name":"kind","type":"string","value":"emergency"},{"name":"color","type":"string","value":"ff2a1a"},{"name":"radius","type":"int","value":150}]},{"id":32,"name":"","type":"light","rotation":0,"visible":true,"x":2752,"y":1868.8,"width":0,"height":0,"point":true,"properties":[{"name":"kind","type":"string","value":"emergency"},{"name":"color","type":"string","value":"ff2a1a"},{"name":"radius","type":"int","value":150}]},{"id":33,"name":"","type":"light","rotation":0,"visible":true,"x":3712,"y":1868.8,"width":0,"height":0,"point":true,"properties":[{"name":"kind","type":"string","value":"emergency"},{"name":"color","type":"string","value":"ff2a1a"},{"name":"radius","type":"int","value":150}]},{"id":34,"name":"scare_flicker","type":"trigger","rotation":0,"visible":true,"x":1536,"y":1856,"width":1024,"height":192},{"id":35,"name":"scare_vent","type":"trigger","rotation":0,"visible":true,"x":1856,"y":1472,"width":256,"height":256},{"id":36,"name":"vent","type":"spawner","rotation":0,"visible":true,"x":1952,"y":1600,"width":0,"height":0,"point":true,"properties":[{"name":"how","type":"string","value":"vent"}]},{"id":37,"name":"vent","type":"spawner","rotation":0,"visible":true,"x":2016,"y":1632,"width":0,"height":0,"point":true,"properties":[{"name":"how","type":"string","value":"vent"}]},{"id":38,"name":"dark","type":"spawner","rotation":0,"visible":true,"x":256,"y":1920,"width":0,"height":0,"point":true,"properties":[{"name":"how","type":"string","value":"vent"},{"name":"corridorOnly","type":"bool","value":true}]},{"id":39,"name":"dark","type":"spawner","rotation":0,"visible":true,"x":3840,"y":1920,"width":0,"height":0,"point":true,"properties":[{"name":"how","type":"string","value":"vent"},{"name":"corridorOnly","type":"bool","value":true}]},{"id":40,"name":"dark","type":"spawner","rotation":0,"visible":true,"x":1952,"y":1152,"width":0,"height":0,"point":true,"properties":[{"name":"how","type":"string","value":"vent"},{"name":"corridorOnly","type":"bool","value":true}]},{"id":41,"name":"desk","type":"prop","rotation":0,"visible":true,"x":292,"y":1442,"width":120,"height":60},{"id":42,"name":"office_chair","type":"prop","rotation":0,"visible":true,"x":334,"y":1527.6,"width":36,"height":36},{"id":43,"name":"desk","type":"prop","rotation":0,"visible":true,"x":644,"y":1442,"width":120,"height":60},{"id":44,"name":"office_chair","type":"prop","rotation":0,"visible":true,"x":686,"y":1527.6,"width":36,"height":36},{"id":45,"name":"","type":"light","rotation":0,"visible":true,"x":704,"y":1459.2,"width":0,"height":0,"point":true,"properties":[{"name":"kind","type":"string","value":"lamp"},{"name":"color","type":"string","value":"3d6bff"},{"name":"radius","type":"int","value":90},{"name":"flicker","type":"float","value":0.15}]},{"id":46,"name":"desk","type":"prop","rotation":0,"visible":true,"x":1028,"y":1442,"width":120,"height":60},{"id":47,"name":"office_chair","type":"prop","rotation":0,"visible":true,"x":1070,"y":1527.6,"width":36,"height":36},{"id":48,"name":"desk","type":"prop","rotation":0,"visible":true,"x":292,"y":1122,"width":120,"height":60},{"id":49,"name":"office_chair","type":"prop","rotation":0,"visible":true,"x":334,"y":1207.6,"width":36,"height":36},{"id":50,"name":"desk","type":"prop","rotation":0,"visible":true,"x":1028,"y":1122,"width":120,"height":60},{"id":51,"name":"office_chair","type":"prop","rotation":0,"visible":true,"x":1070,"y":1207.6,"width":36,"height":36},{"id":52,"name":"printer","type":"prop","rotation":0,"visible":true,"x":740,"y":1085.2,"width":56,"height":44},{"id":53,"name":"scare_printer","type":"trigger","rotation":0,"visible":true,"x":576,"y":1024,"width":448,"height":320},{"id":54,"name":"cabinet","type":"prop","rotation":0,"visible":true,"x":262,"y":447.2,"width":52,"height":40},{"id":55,"name":"cabinet","type":"prop","rotation":0,"visible":true,"x":486,"y":447.2,"width":52,"height":40},{"id":56,"name":"cabinet","type":"prop","rotation":0,"visible":true,"x":998,"y":447.2,"width":52,"height":40},{"id":57,"name":"cabinet","type":"prop","rotation":0,"visible":true,"x":1222,"y":447.2,"width":52,"height":40},{"id":58,"name":"cabinet","type":"prop","rotation":0,"visible":true,"x":262,"y":703.2,"width":52,"height":40},{"id":59,"name":"cabinet","type":"prop","rotation":0,"visible":true,"x":1222,"y":703.2,"width":52,"height":40},{"id":60,"name":"shelf","type":"prop","rotation":0,"visible":true,"x":706,"y":234,"width":124,"height":44},{"id":61,"name":"shelf","type":"prop","rotation":0,"visible":true,"x":834,"y":234,"width":124,"height":44},{"id":62,"name":"normal","type":"enemy","rotation":0,"visible":true,"x":384,"y":1344,"width":0,"height":0,"point":true,"properties":[{"name":"tag","type":"string","value":"west"},{"name":"dormant","type":"bool","value":true}]},{"id":63,"name":"normal","type":"enemy","rotation":0,"visible":true,"x":960,"y":1344,"width":0,"height":0,"point":true,"properties":[{"name":"tag","type":"string","value":"west"},{"name":"dormant","type":"bool","value":true}]},{"id":64,"name":"fast","type":"enemy","rotation":0,"visible":true,"x":1280,"y":1152,"width":0,"height":0,"point":true,"properties":[{"name":"tag","type":"string","value":"west"},{"name":"dormant","type":"bool","value":true}]},{"id":65,"name":"normal","type":"enemy","rotation":0,"visible":true,"x":640,"y":768,"width":0,"height":0,"point":true,"properties":[{"name":"tag","type":"string","value":"west"},{"name":"dormant","type":"bool","value":true}]},{"id":66,"name":"spitter","type":"enemy","rotation":0,"visible":true,"x":832,"y":576,"width":0,"height":0,"point":true,"properties":[{"name":"tag","type":"string","value":"west"},{"name":"dormant","type":"bool","value":true}]},{"id":67,"name":"normal","type":"enemy","rotation":0,"visible":true,"x":384,"y":288,"width":0,"height":0,"point":true,"properties":[{"name":"tag","type":"string","value":"west"},{"name":"dormant","type":"bool","value":true}]},{"id":68,"name":"fast","type":"enemy","rotation":0,"visible":true,"x":1216,"y":288,"width":0,"height":0,"point":true,"properties":[{"name":"tag","type":"string","value":"west"},{"name":"dormant","type":"bool","value":true}]},{"id":69,"name":"normal","type":"enemy","rotation":0,"visible":true,"x":230.4,"y":1024,"width":0,"height":0,"point":true,"properties":[{"name":"tag","type":"string","value":"west"},{"name":"dormant","type":"bool","value":true}]},{"id":70,"name":"normal","type":"enemy","rotation":0,"visible":true,"x":768,"y":1632,"width":0,"height":0,"point":true,"properties":[{"name":"tag","type":"string","value":"west"},{"name":"dormant","type":"bool","value":true}]},{"id":71,"name":"terminal","type":"prop","rotation":0,"visible":true,"x":274,"y":216.4,"width":28,"height":28},{"id":72,"name":"lock_w","type":"use","rotation":0,"visible":true,"x":288,"y":281.6,"width":0,"height":0,"point":true,"properties":[{"name":"hint","type":"string","value":"взвести западный размыкатель"}]},{"id":73,"name":"","type":"light","rotation":0,"visible":true,"x":288,"y":275.2,"width":0,"height":0,"point":true,"properties":[{"name":"kind","type":"string","value":"lamp"},{"name":"color","type":"string","value":"ff4040"},{"name":"radius","type":"int","value":110},{"name":"flicker","type":"float","value":0.3}]},{"id":74,"name":"","type":"label","rotation":0,"visible":true,"x":768,"y":1689.6,"width":0,"height":0,"point":true,"properties":[{"name":"text","type":"string","value":"БУХГАЛТЕРИЯ · АРХИВ"},{"name":"size","type":"int","value":20},{"name":"color","type":"string","value":"#7d8aa6"}]},{"id":75,"name":"","type":"note","rotation":0,"visible":true,"x":864,"y":1484.8,"width":0,"height":0,"point":true,"properties":[{"name":"text","type":"string","value":"Квартальный отчёт: «Свет — 0 руб. Лампы — сданы. Нервы — на исходе»"}]},{"id":76,"name":"ammo","type":"pickup","rotation":0,"visible":true,"x":1344,"y":1632,"width":0,"height":0,"point":true},{"id":77,"name":"weapon","type":"pickup","rotation":0,"visible":true,"x":1344,"y":288,"width":0,"height":0,"point":true,"properties":[{"name":"weapon","type":"string","value":"shotgun"}]},{"id":78,"name":"west","type":"trigger","rotation":0,"visible":true,"x":192,"y":192,"width":1280,"height":1600},{"id":79,"name":"desk","type":"prop","rotation":0,"visible":true,"x":2884,"y":1538,"width":120,"height":60},{"id":80,"name":"office_chair","type":"prop","rotation":0,"visible":true,"x":2926,"y":1623.6,"width":36,"height":36},{"id":81,"name":"desk","type":"prop","rotation":0,"visible":true,"x":3140,"y":1538,"width":120,"height":60},{"id":82,"name":"office_chair","type":"prop","rotation":0,"visible":true,"x":3182,"y":1623.6,"width":36,"height":36},{"id":83,"name":"desk","type":"prop","rotation":0,"visible":true,"x":3588,"y":1538,"width":120,"height":60},{"id":84,"name":"office_chair","type":"prop","rotation":0,"visible":true,"x":3630,"y":1623.6,"width":36,"height":36},{"id":85,"name":"","type":"light","rotation":0,"visible":true,"x":3648,"y":1555.2,"width":0,"height":0,"point":true,"properties":[{"name":"kind","type":"string","value":"lamp"},{"name":"color","type":"string","value":"3d6bff"},{"name":"radius","type":"int","value":90},{"name":"flicker","type":"float","value":0.15}]},{"id":86,"name":"desk","type":"prop","rotation":0,"visible":true,"x":2884,"y":1058,"width":120,"height":60},{"id":87,"name":"office_chair","type":"prop","rotation":0,"visible":true,"x":2926,"y":1143.6,"width":36,"height":36},{"id":88,"name":"desk","type":"prop","rotation":0,"visible":true,"x":3652,"y":1058,"width":120,"height":60},{"id":89,"name":"office_chair","type":"prop","rotation":0,"visible":true,"x":3694,"y":1143.6,"width":36,"height":36},{"id":90,"name":"table_long","type":"prop","rotation":0,"visible":true,"x":2946,"y":546,"width":188,"height":60},{"id":91,"name":"table_long","type":"prop","rotation":0,"visible":true,"x":3586,"y":546,"width":188,"height":60},{"id":92,"name":"desk_phone","type":"prop","rotation":0,"visible":true,"x":3005.8,"y":553.2,"width":30,"height":20},{"id":93,"name":"scare_phone","type":"trigger","rotation":0,"visible":true,"x":2816,"y":896,"width":1088,"height":384},{"id":94,"name":"phone_near","type":"trigger","rotation":0,"visible":true,"x":2816,"y":384,"width":448,"height":384},{"id":95,"name":"normal","type":"enemy","rotation":0,"visible":true,"x":3040,"y":665.6,"width":0,"height":0,"point":true,"properties":[{"name":"tag","type":"string","value":"phone"},{"name":"dormant","type":"bool","value":true}]},{"id":96,"name":"normal","type":"enemy","rotation":0,"visible":true,"x":3072,"y":1440,"width":0,"height":0,"point":true,"properties":[{"name":"tag","type":"string","value":"east"},{"name":"dormant","type":"bool","value":true}]},{"id":97,"name":"fast","type":"enemy","rotation":0,"visible":true,"x":3584,"y":1408,"width":0,"height":0,"point":true,"properties":[{"name":"tag","type":"string","value":"east"},{"name":"dormant","type":"bool","value":true}]},{"id":98,"name":"normal","type":"enemy","rotation":0,"visible":true,"x":3328,"y":1024,"width":0,"height":0,"point":true,"properties":[{"name":"tag","type":"string","value":"east"},{"name":"dormant","type":"bool","value":true}]},{"id":99,"name":"spitter","type":"enemy","rotation":0,"visible":true,"x":3808,"y":1024,"width":0,"height":0,"point":true,"properties":[{"name":"tag","type":"string","value":"east"},{"name":"dormant","type":"bool","value":true}]},{"id":100,"name":"fast","type":"enemy","rotation":0,"visible":true,"x":2880,"y":288,"width":0,"height":0,"point":true,"properties":[{"name":"tag","type":"string","value":"east"},{"name":"dormant","type":"bool","value":true}]},{"id":101,"name":"normal","type":"enemy","rotation":0,"visible":true,"x":3648,"y":320,"width":0,"height":0,"point":true,"properties":[{"name":"tag","type":"string","value":"east"},{"name":"dormant","type":"bool","value":true}]},{"id":102,"name":"normal","type":"enemy","rotation":0,"visible":true,"x":3808,"y":704,"width":0,"height":0,"point":true,"properties":[{"name":"tag","type":"string","value":"east"},{"name":"dormant","type":"bool","value":true}]},{"id":103,"name":"armored","type":"enemy","rotation":0,"visible":true,"x":3360,"y":288,"width":0,"height":0,"point":true,"properties":[{"name":"tag","type":"string","value":"east"},{"name":"dormant","type":"bool","value":true}]},{"id":104,"name":"terminal","type":"prop","rotation":0,"visible":true,"x":3762,"y":216.4,"width":28,"height":28},{"id":105,"name":"lock_e","type":"use","rotation":0,"visible":true,"x":3776,"y":281.6,"width":0,"height":0,"point":true,"properties":[{"name":"hint","type":"string","value":"взвести восточный размыкатель"}]},{"id":106,"name":"","type":"light","rotation":0,"visible":true,"x":3776,"y":275.2,"width":0,"height":0,"point":true,"properties":[{"name":"kind","type":"string","value":"lamp"},{"name":"color","type":"string","value":"ff4040"},{"name":"radius","type":"int","value":110},{"name":"flicker","type":"float","value":0.3}]},{"id":107,"name":"","type":"label","rotation":0,"visible":true,"x":3328,"y":1689.6,"width":0,"height":0,"point":true,"properties":[{"name":"text","type":"string","value":"ОТДЕЛ ПРОДАЖ"},{"name":"size","type":"int","value":20},{"name":"color","type":"string","value":"#7d8aa6"}]},{"id":108,"name":"","type":"label","rotation":0,"visible":true,"x":3040,"y":780.8,"width":0,"height":0,"point":true,"properties":[{"name":"text","type":"string","value":"ПЕРЕГОВОРНАЯ «ОПТИМИЗМ»"},{"name":"size","type":"int","value":14},{"name":"color","type":"string","value":"#7d8aa6"}]},{"id":109,"name":"","type":"label","rotation":0,"visible":true,"x":3680,"y":780.8,"width":0,"height":0,"point":true,"properties":[{"name":"text","type":"string","value":"ПЕРЕГОВОРНАЯ «РЕАЛИЗМ»"},{"name":"size","type":"int","value":14},{"name":"color","type":"string","value":"#7d8aa6"}]},{"id":110,"name":"","type":"note","rotation":0,"visible":true,"x":3200,"y":1593.6,"width":0,"height":0,"point":true,"properties":[{"name":"text","type":"string","value":"Стикер на мониторе: «Сделка века: продать фонарик Валере». Зачёркнуто."}]},{"id":111,"name":"health","type":"pickup","rotation":0,"visible":true,"x":2854.4,"y":1664,"width":0,"height":0,"point":true},{"id":112,"name":"armor","type":"pickup","rotation":0,"visible":true,"x":3840,"y":1152,"width":0,"height":0,"point":true},{"id":113,"name":"east","type":"trigger","rotation":0,"visible":true,"x":2816,"y":192,"width":1088,"height":1600},{"id":114,"name":"server_rack","type":"prop","rotation":0,"visible":true,"x":1634,"y":200.4,"width":60,"height":60},{"id":115,"name":"server_rack","type":"prop","rotation":0,"visible":true,"x":1710.8,"y":200.4,"width":60,"height":60},{"id":116,"name":"server_rack","type":"prop","rotation":0,"visible":true,"x":2261.2,"y":584.4,"width":60,"height":60},{"id":117,"name":"desk","type":"prop","rotation":0,"visible":true,"x":1892,"y":571.6,"width":120,"height":60},{"id":118,"name":"office_chair","type":"prop","rotation":0,"visible":true,"x":1934,"y":487.6,"width":36,"height":36},{"id":119,"name":"desk_phone","type":"prop","rotation":0,"visible":true,"x":1879.4,"y":578.8,"width":30,"height":20},{"id":120,"name":"valera","type":"npc","rotation":0,"visible":true,"x":1952,"y":518.4,"width":0,"height":0,"point":true,"properties":[{"name":"reach","type":"int","value":130},{"name":"title","type":"string","value":"Валера · тимлид тёмной темы"},{"name":"mode","type":"string","value":"idle"},{"name":"hp","type":"int","value":200},{"name":"story","type":"bool","value":true},{"name":"essential","type":"bool","value":true},{"name":"untargetable","type":"bool","value":true},{"name":"angle","type":"int","value":90}]},{"id":121,"name":"","type":"light","rotation":0,"visible":true,"x":1952,"y":556.8,"width":0,"height":0,"point":true,"properties":[{"name":"kind","type":"string","value":"lamp"},{"name":"color","type":"string","value":"3d6bff"},{"name":"radius","type":"int","value":150},{"name":"flicker","type":"float","value":0.1}]},{"id":122,"name":"breaker","type":"prop","rotation":0,"visible":true,"x":2182,"y":174.4,"width":52,"height":48},{"id":123,"name":"breaker","type":"use","rotation":0,"visible":true,"x":2208,"y":262.4,"width":0,"height":0,"point":true,"properties":[{"name":"done","type":"bool","value":true},{"name":"hint","type":"string","value":"включить рубильник"}]},{"id":124,"name":"den","type":"trigger","rotation":0,"visible":true,"x":1600,"y":704,"width":768,"height":384},{"id":125,"name":"den","type":"spawner","rotation":0,"visible":true,"x":1664,"y":992,"width":0,"height":0,"point":true,"properties":[{"name":"how","type":"string","value":"vent"}]},{"id":126,"name":"den","type":"spawner","rotation":0,"visible":true,"x":2304,"y":992,"width":0,"height":0,"point":true,"properties":[{"name":"how","type":"string","value":"vent"}]},{"id":127,"name":"den","type":"spawner","rotation":0,"visible":true,"x":1664,"y":320,"width":0,"height":0,"point":true,"properties":[{"name":"how","type":"string","value":"vent"}]},{"id":128,"name":"den","type":"spawner","rotation":0,"visible":true,"x":2304,"y":288,"width":0,"height":0,"point":true,"properties":[{"name":"how","type":"string","value":"vent"}]},{"id":129,"name":"","type":"label","rotation":0,"visible":true,"x":1952,"y":934.4,"width":0,"height":0,"point":true,"properties":[{"name":"text","type":"string","value":"СЕРВЕРНАЯ ТЁМНОЙ ТЕМЫ"},{"name":"size","type":"int","value":18},{"name":"color","type":"string","value":"#7d8aa6"}]},{"id":130,"name":"","type":"note","rotation":0,"visible":true,"x":2080,"y":550.4,"width":0,"height":0,"point":true,"properties":[{"name":"text","type":"string","value":"На мониторе: «Не включайте свет. У меня мигрень, дедлайн и тёмная тема». Ниже: «Артём, перезвони»"}]},{"id":131,"name":"ammo","type":"pickup","rotation":0,"visible":true,"x":1696,"y":800,"width":0,"height":0,"point":true},{"id":132,"name":"health","type":"pickup","rotation":0,"visible":true,"x":2272,"y":800,"width":0,"height":0,"point":true},{"id":133,"name":"elevator","type":"prop","rotation":0,"visible":true,"x":2496,"y":166.4,"width":128,"height":128},{"id":134,"name":"lift8","type":"trigger","rotation":0,"visible":true,"x":2432,"y":192,"width":320,"height":512,"properties":[{"name":"once","type":"bool","value":false},{"name":"all","type":"bool","value":true}]},{"id":135,"name":"","type":"label","rotation":0,"visible":true,"x":2560,"y":614.4,"width":0,"height":0,"point":true,"properties":[{"name":"text","type":"string","value":"СЛУЖЕБНЫЙ ЛИФТ"},{"name":"size","type":"int","value":16},{"name":"color","type":"string","value":"#7d8aa6"}]}]}]}