{"type":"map","version":"1.10","tiledversion":"1.11.0","orientation":"orthogonal","renderorder":"right-down","width":66,"height":46,"tilewidth":64,"tileheight":64,"infinite":false,"nextlayerid":5,"nextobjectid":186,"properties":[{"name":"theme","type":"string","value":"exec"},{"name":"ambient","type":"int","value":0},{"name":"wallFace","type":"string","value":"exec"}],"tilesets":[{"firstgid":1,"name":"kenney","image":"../gen/tiles.png","imagewidth":1728,"imageheight":1280,"tilewidth":64,"tileheight":64,"tilecount":540,"columns":27,"margin":0,"spacing":0},{"firstgid":541,"name":"walls","image":"../gen/walls.png","imagewidth":1024,"imageheight":1536,"tilewidth":64,"tileheight":64,"tilecount":384,"columns":16,"margin":0,"spacing":0}],"layers":[{"id":1,"name":"floor","type":"tilelayer","width":66,"height":46,"x":0,"y":0,"opacity":1,"visible":true,"data":[0,0,0,0,0,0,0,0,0,0,0,0,0,0,0,0,0,0,0,0,0,0,0,0,0,0,0,0,0,0,0,0,0,0,0,0,0,0,0,0,0,0,0,0,0,0,0,0,0,0,0,0,0,0,0,0,0,0,0,0,0,0,0,0,0,0,0,0,0,0,0,0,0,0,0,0,0,0,0,0,0,0,0,0,0,0,0,0,0,0,0,0,0,0,0,0,0,0,0,0,0,0,0,0,0,0,0,0,0,0,0,0,0,0,0,0,0,0,0,0,0,0,0,0,0,0,0,0,0,0,0,0,0,0,0,0,0,0,0,0,0,0,0,0,0,0,0,0,0,0,0,0,0,0,0,0,0,0,0,0,513,513,513,513,513,513,513,513,513,513,0,0,0,0,0,0,0,0,0,0,0,0,0,0,0,0,0,0,0,0,0,0,0,0,0,0,0,0,0,0,0,42,42,42,42,42,42,42,42,42,42,42,42,42,42,42,42,42,0,0,0,0,0,0,0,0,513,513,513,513,513,513,513,513,513,513,0,0,0,0,0,0,42,42,42,42,42,42,42,42,42,42,0,42,42,42,42,42,42,42,42,0,0,0,0,0,0,42,42,42,42,42,42,42,42,42,42,42,42,42,42,42,42,42,0,0,0,0,0,0,0,0,513,513,513,513,513,513,513,513,513,513,0,0,0,0,0,0,42,42,42,42,42,42,42,42,42,42,0,42,42,42,42,42,42,42,42,0,0,0,0,0,0,42,42,42,42,42,42,42,42,42,42,42,42,42,42,42,42,42,0,0,0,0,0,0,0,0,513,513,513,513,513,513,513,513,513,513,0,0,0,0,0,0,42,42,42,42,42,42,42,42,42,42,0,42,42,42,42,42,42,42,42,0,0,0,0,0,0,42,42,42,42,42,42,42,42,42,42,42,42,42,42,42,42,42,0,0,0,0,0,0,0,0,513,513,513,513,513,513,513,513,513,513,0,0,0,0,0,0,42,42,42,42,42,42,42,42,42,42,0,42,42,42,42,42,42,42,42,0,0,0,0,0,0,42,42,42,42,42,42,42,42,42,42,42,42,42,42,42,42,42,0,0,0,0,0,0,0,0,513,513,513,513,513,513,513,513,513,513,0,0,0,0,0,0,42,42,42,42,42,42,42,42,42,42,0,42,42,42,42,42,42,42,42,0,0,0,0,0,0,42,42,42,42,42,42,42,42,42,42,42,42,42,42,42,42,42,0,0,0,0,0,0,0,0,513,513,513,513,513,513,513,513,513,513,0,0,0,0,0,0,42,42,42,42,42,42,42,42,42,42,42,42,42,42,42,42,42,42,42,0,0,0,0,0,0,42,42,42,42,42,42,42,42,42,42,42,42,42,42,42,42,42,0,0,0,0,0,0,0,0,0,0,0,513,513,513,513,0,0,0,0,0,0,0,0,0,42,42,42,42,42,42,42,42,42,42,42,42,42,42,42,42,42,42,42,0,0,0,0,0,0,42,42,42,42,42,42,42,42,42,42,42,42,42,42,42,42,42,0,0,0,0,0,514,514,514,514,514,514,514,514,514,514,514,514,514,514,514,514,0,0,0,42,42,42,42,42,42,42,42,42,42,0,42,42,42,42,42,42,42,42,0,0,0,0,0,0,42,42,42,42,42,42,42,42,42,42,42,42,42,42,42,42,42,0,0,0,0,0,514,514,514,514,514,514,514,514,514,514,514,514,514,514,514,514,0,0,0,42,42,42,42,42,42,42,42,42,42,0,42,42,42,42,42,42,42,42,0,0,0,0,0,0,42,42,42,42,42,42,42,42,42,42,42,42,42,42,42,42,42,0,0,0,0,0,514,514,514,514,514,514,514,514,514,514,514,514,514,514,514,514,0,0,0,42,42,42,42,42,42,42,42,42,42,0,42,42,42,42,42,42,42,42,0,0,0,0,0,0,42,42,42,42,42,42,42,42,42,42,42,42,42,42,42,42,42,0,0,0,0,0,514,514,514,514,514,514,514,514,514,514,514,514,514,514,514,514,0,0,0,42,42,42,42,42,42,42,42,42,42,42,42,42,42,42,42,42,42,42,0,0,0,0,0,0,42,42,42,42,42,42,42,42,42,42,42,42,42,42,42,42,42,0,0,0,0,0,514,514,514,514,514,514,514,514,514,514,514,514,514,514,514,514,0,0,0,42,42,42,42,42,42,42,42,42,42,42,42,42,42,42,42,42,42,42,0,0,0,0,0,0,42,42,42,42,42,42,42,42,42,42,42,42,42,42,42,42,42,0,0,0,0,0,514,514,514,514,514,514,514,514,514,514,514,514,514,514,514,514,0,0,0,42,42,42,42,42,42,42,42,42,42,42,42,42,42,42,42,42,42,42,0,0,0,0,0,0,42,42,42,42,42,42,42,42,42,42,42,42,42,42,42,42,42,0,0,0,0,0,514,514,514,514,514,514,514,514,514,514,514,514,514,514,514,514,0,0,0,42,42,42,42,42,42,42,42,42,42,42,42,42,42,42,42,42,42,42,0,0,0,0,0,0,42,42,42,42,42,42,42,42,42,42,42,42,42,42,42,42,42,0,0,0,0,0,514,514,514,514,514,514,514,514,514,514,514,514,514,514,514,514,0,0,0,42,42,42,42,42,42,42,42,42,42,42,42,42,42,42,42,42,42,42,0,0,0,0,0,0,0,0,0,0,0,0,0,513,513,0,0,0,0,0,0,0,0,0,0,0,0,0,514,514,514,514,514,514,514,514,514,514,514,514,514,514,514,514,0,0,0,0,0,0,0,0,0,0,0,513,513,0,0,0,0,0,0,0,0,0,0,0,0,0,0,0,0,0,0,0,0,0,0,513,513,0,0,0,0,0,0,0,0,0,0,0,0,0,0,0,0,0,0,0,513,513,513,513,0,0,0,0,0,0,0,0,0,0,0,0,0,0,0,0,0,513,513,0,0,0,0,0,0,0,0,0,0,0,0,0,0,0,513,513,513,513,513,513,513,513,513,513,513,513,513,513,513,513,513,513,513,513,513,513,513,513,513,513,513,513,513,513,513,513,513,513,513,513,513,513,513,513,513,513,513,513,513,513,513,513,513,513,513,513,513,513,513,513,513,513,513,513,0,0,0,0,0,0,513,513,513,513,513,513,513,513,513,513,513,513,513,513,513,513,513,513,513,513,513,513,513,513,513,513,513,513,513,513,513,513,513,513,513,513,513,513,513,513,513,513,513,513,513,513,513,513,513,513,513,513,513,513,513,513,513,513,513,513,0,0,0,0,0,0,513,513,513,513,513,513,513,513,513,513,513,513,513,513,513,513,513,513,513,513,513,513,513,513,513,513,513,513,513,513,513,513,513,513,513,513,513,513,513,513,513,513,513,513,513,513,513,513,513,513,513,513,513,513,513,513,513,513,513,513,0,0,0,0,0,0,0,0,0,0,0,0,0,513,513,0,0,0,0,0,0,0,0,0,0,0,0,0,0,0,0,0,0,0,513,513,513,513,0,0,0,0,0,0,0,0,0,0,0,0,0,0,0,0,0,0,0,0,0,0,0,0,0,0,0,0,0,0,0,0,0,0,96,96,96,96,96,96,96,96,96,96,96,96,96,96,96,96,96,96,0,0,0,0,0,0,0,0,0,0,513,513,513,513,0,0,0,0,0,0,0,0,0,0,0,0,0,0,0,0,0,0,0,0,0,0,0,0,0,0,0,0,0,0,0,0,0,0,96,96,96,96,96,96,96,96,96,96,96,96,96,96,96,96,96,96,0,0,0,0,0,0,0,0,0,0,513,513,513,513,0,0,0,0,0,0,0,0,0,0,0,0,0,0,0,0,0,0,0,0,0,0,0,0,0,0,0,0,0,0,0,0,0,0,96,96,96,96,96,96,96,96,96,96,96,96,96,96,96,96,96,96,0,0,0,513,513,513,513,513,513,513,513,513,513,513,513,513,513,513,513,513,513,0,0,42,42,42,42,42,42,42,42,42,42,42,42,42,42,42,42,42,42,42,0,0,0,0,0,0,96,96,96,96,96,96,96,96,96,96,96,96,96,96,96,96,96,96,0,0,0,513,513,513,513,513,513,513,513,513,513,513,513,513,513,513,513,513,513,0,0,42,42,42,42,42,42,42,42,42,42,42,42,42,42,42,42,42,42,42,0,0,0,0,0,0,96,0,0,0,0,0,0,96,96,96,0,0,0,0,0,0,0,96,0,0,0,513,513,513,513,513,513,513,513,513,513,513,513,513,513,513,513,513,513,0,0,42,42,42,42,42,42,42,42,42,42,42,42,42,42,42,42,42,42,42,0,0,0,0,0,0,96,96,96,96,96,96,96,96,96,96,96,96,96,96,96,96,96,96,0,0,0,513,513,513,513,513,513,513,513,513,513,513,513,513,513,513,513,513,513,0,0,42,42,42,42,42,42,42,42,42,42,42,42,42,42,42,42,42,42,42,0,0,0,0,0,0,96,96,96,96,96,96,96,96,96,96,96,96,96,96,96,96,96,96,0,0,0,513,513,513,513,513,513,513,513,513,513,513,513,513,513,513,513,513,513,0,0,42,42,42,42,42,42,42,42,42,42,42,42,42,42,42,42,42,42,42,0,0,0,0,0,0,96,96,96,96,96,96,96,96,96,96,96,96,96,96,96,96,96,96,0,0,0,513,513,513,513,513,513,513,513,513,513,513,513,513,513,513,513,513,513,0,0,42,42,42,42,42,42,42,42,42,42,42,42,42,42,42,42,42,42,42,0,0,0,0,0,0,96,0,0,0,0,0,0,96,96,96,0,0,0,0,0,0,0,96,0,0,0,513,513,513,513,513,513,513,513,513,513,513,513,513,513,513,513,513,513,0,0,42,42,42,42,42,42,42,42,42,42,42,42,42,42,42,42,42,42,42,0,0,0,0,0,0,96,96,96,96,96,96,96,96,96,96,96,96,96,96,96,96,96,96,0,0,0,513,513,513,513,513,513,513,513,513,513,513,513,513,513,513,513,513,513,42,42,42,42,42,42,42,42,42,42,42,42,42,42,42,42,42,42,42,42,42,0,0,0,0,0,0,96,96,96,96,96,96,96,96,96,96,96,96,96,96,96,96,96,96,0,0,0,513,513,513,513,513,513,513,513,513,513,513,513,513,513,513,513,513,513,42,42,42,42,42,42,42,42,42,42,42,42,42,42,42,42,42,42,42,42,42,0,0,0,0,0,0,96,96,96,96,96,96,96,96,96,96,96,96,96,96,96,96,96,96,0,0,0,513,513,513,513,513,513,513,513,513,513,513,513,513,513,513,513,513,513,0,0,42,42,42,42,42,42,42,42,42,42,42,42,42,42,42,42,42,42,42,0,0,0,0,0,0,96,0,0,0,0,0,0,96,96,96,0,0,0,0,0,0,0,96,0,0,0,513,513,513,513,513,513,513,513,513,513,513,513,513,513,513,513,513,513,0,0,42,42,42,42,42,42,42,42,42,42,42,42,42,42,42,42,42,42,42,0,0,0,0,0,0,96,96,96,96,96,96,96,96,96,96,96,96,96,96,96,96,96,96,0,0,0,513,513,513,513,513,513,513,513,513,513,513,513,513,513,513,513,513,513,0,0,42,42,42,42,42,42,42,42,42,42,42,42,42,42,42,42,42,42,42,0,0,0,0,0,0,96,96,96,96,96,96,96,96,96,96,96,96,96,96,96,96,96,96,0,0,0,513,513,513,513,513,513,513,513,513,513,513,513,513,513,513,513,513,513,0,0,42,42,42,42,42,42,42,42,42,42,42,42,42,42,42,42,42,42,42,0,0,0,0,0,0,96,96,96,96,96,96,96,96,96,96,96,96,96,96,96,96,96,96,0,0,0,513,513,513,513,513,513,513,513,513,513,513,513,513,513,513,513,513,513,0,0,42,42,42,42,42,42,42,42,42,42,42,42,42,42,42,42,42,42,42,0,0,0,0,0,0,96,96,96,96,96,96,96,96,96,96,96,96,96,96,96,96,96,96,0,0,0,513,513,513,513,513,513,513,513,513,513,513,513,513,513,513,513,513,513,0,0,42,42,42,42,42,42,42,42,42,42,42,42,42,42,42,42,42,42,42,0,0,0,0,0,0,96,96,96,96,96,96,96,96,96,96,96,96,96,96,96,96,96,96,0,0,0,513,513,513,513,513,513,513,513,513,513,513,513,513,513,513,513,513,513,0,0,42,42,42,42,42,42,42,42,42,42,42,42,42,42,42,42,42,42,42,0,0,0,0,0,0,96,96,96,96,96,96,96,96,96,96,96,96,96,96,96,96,96,96,0,0,0,513,513,513,513,513,513,513,513,513,513,513,513,513,513,513,513,513,513,0,0,42,42,42,42,42,42,42,42,42,42,42,42,42,42,42,42,42,42,42,0,0,0,0,0,0,0,0,0,0,0,0,0,0,0,0,0,0,0,0,0,0,0,0,0,0,0,0,0,0,0,0,0,0,0,0,0,0,0,0,0,0,0,0,0,0,0,0,0,0,0,0,0,0,0,0,0,0,0,0,0,0,0,0,0,0,0,0,0,0,0,0,0,0,0,0,0,0,0,0,0,0,0,0,0,0,0,0,0,0,0,0,0,0,0,0,0,0,0,0,0,0,0,0,0,0,0,0,0,0,0,0,0,0,0,0,0,0,0,0,0,0,0,0,0,0,0,0,0,0,0,0,0,0,0,0,0,0,0,0,0,0,0,0,0,0,0,0,0,0,0,0,0,0,0,0,0,0,0,0,0,0,0,0,0,0,0,0,0,0,0,0,0,0,0,0,0,0,0,0,0,0,0,0,0,0,0,0,0,0,0,0,0,0,0,0,0,0,0,0,0]},{"id":2,"name":"decor","type":"tilelayer","width":66,"height":46,"x":0,"y":0,"opacity":1,"visible":true,"data":[0,0,0,0,0,0,0,0,0,0,0,0,0,0,0,0,0,0,0,0,0,0,0,0,0,0,0,0,0,0,0,0,0,0,0,0,0,0,0,0,0,0,0,0,0,0,0,0,0,0,0,0,0,0,0,0,0,0,0,0,0,0,0,0,0,0,0,0,0,0,0,0,0,0,0,0,0,0,0,0,0,0,0,0,0,0,0,0,0,0,0,0,0,0,0,0,0,0,0,0,0,0,0,0,0,0,0,0,0,0,0,0,0,0,0,0,0,0,0,0,0,0,0,0,0,0,0,0,0,0,0,0,0,0,0,0,0,0,0,0,0,0,0,0,0,0,0,0,0,0,0,0,0,0,0,0,0,0,0,0,0,0,0,0,0,0,0,0,0,0,0,0,0,0,0,0,0,0,0,0,0,0,0,0,0,0,0,0,0,0,0,0,0,0,0,0,0,0,0,0,0,0,0,0,0,0,0,0,0,0,0,0,0,0,0,0,0,0,0,0,0,0,0,0,0,0,0,0,0,0,0,0,0,0,0,0,0,0,0,0,0,0,0,0,0,0,0,0,0,0,0,0,0,0,0,0,0,0,0,0,0,0,0,0,0,0,0,0,0,0,0,0,0,0,0,0,0,0,0,0,0,0,0,0,0,0,0,0,0,0,0,0,0,0,0,0,0,0,0,0,0,0,0,0,0,0,0,0,0,0,0,0,0,0,0,0,0,0,0,0,0,0,0,0,0,0,0,0,0,0,0,0,0,0,0,0,0,0,0,0,0,0,0,0,0,0,0,0,0,0,0,0,0,0,0,0,0,0,0,0,0,0,0,0,0,0,0,0,0,0,0,0,0,0,0,0,0,0,0,0,0,0,0,0,0,0,0,0,0,0,0,0,0,0,0,0,0,0,0,0,0,0,0,0,0,0,0,0,0,0,0,0,0,0,0,0,0,0,0,0,0,0,0,0,0,0,0,0,0,0,0,0,0,0,0,0,0,0,0,0,0,0,0,0,0,0,0,0,0,0,0,0,0,0,0,0,0,0,0,0,0,0,0,0,0,0,0,0,0,0,0,0,0,0,0,0,0,0,0,0,0,0,0,0,0,0,0,0,0,0,0,0,0,0,0,0,0,0,0,0,0,0,0,0,0,0,0,0,0,0,0,0,0,0,0,0,0,0,0,0,0,0,0,0,0,0,0,0,0,0,0,0,0,0,0,0,0,0,0,0,0,0,0,0,0,0,0,0,0,0,0,0,0,0,0,0,0,0,0,0,0,0,0,0,0,0,0,0,0,0,0,0,0,0,0,0,0,0,0,0,0,0,0,0,0,0,0,0,0,0,0,0,0,0,0,0,0,0,0,0,0,0,0,0,0,0,0,0,0,0,0,0,0,0,0,0,0,0,0,0,0,0,0,0,0,0,0,0,0,0,0,0,0,0,0,0,0,0,0,0,0,0,0,0,0,0,0,0,0,0,0,0,0,0,0,0,0,0,0,0,0,0,0,0,0,0,0,0,0,0,0,0,0,0,0,0,0,0,0,0,0,0,0,0,0,0,0,0,0,0,0,0,0,0,0,0,0,0,0,0,0,0,0,0,0,0,0,0,0,0,0,0,0,0,0,0,0,0,0,0,0,0,0,0,0,0,0,0,0,0,0,0,0,0,0,0,0,0,0,0,0,0,0,0,0,0,0,0,0,0,0,0,0,0,0,0,0,0,0,0,0,0,0,0,0,0,0,0,0,0,0,0,0,0,0,0,0,0,0,0,0,0,0,0,0,0,0,0,0,0,0,0,0,0,0,0,0,0,0,0,0,0,0,0,0,0,0,0,0,0,0,0,0,0,0,0,0,0,0,0,0,0,0,0,0,0,0,0,0,0,0,0,0,0,0,0,0,0,0,0,0,0,0,0,0,0,0,0,0,0,0,0,0,0,0,0,0,0,0,0,0,0,0,0,0,0,0,0,0,0,0,0,0,0,0,0,0,0,0,0,0,0,0,0,0,0,0,0,0,0,0,0,0,0,0,0,0,0,0,0,0,0,0,0,0,0,0,0,0,0,0,0,0,0,0,0,0,0,0,0,0,0,0,0,0,0,0,0,0,0,0,0,0,0,0,0,0,0,0,0,0,0,0,0,0,0,0,0,0,0,0,0,0,0,0,0,0,0,0,0,0,0,0,0,0,0,0,0,0,0,0,0,0,0,0,0,0,0,0,0,0,0,0,0,0,0,0,0,0,0,0,0,0,0,0,0,0,0,0,0,0,0,0,0,0,0,0,0,0,0,0,0,0,0,0,0,0,0,0,0,0,0,0,0,0,0,0,0,0,0,0,0,0,0,0,0,0,0,0,0,0,0,0,0,0,0,0,0,0,0,0,0,0,0,0,0,0,0,0,0,0,0,0,0,0,0,0,0,0,0,0,0,0,0,0,0,0,0,0,0,0,0,0,0,0,0,0,0,0,0,0,0,0,0,0,0,0,0,0,0,0,0,0,0,0,0,0,0,0,0,0,0,0,0,0,0,0,0,0,0,0,0,0,0,0,0,0,0,0,0,0,0,0,0,0,0,0,0,0,0,0,0,0,0,0,0,0,0,0,0,0,0,0,0,0,0,0,0,0,0,0,0,0,0,0,0,0,0,0,0,0,0,0,0,0,0,0,0,0,0,0,0,0,0,0,0,0,0,0,0,0,0,0,0,0,0,0,0,0,0,0,0,0,0,0,0,0,0,0,0,0,0,0,0,0,0,0,0,0,0,0,0,0,0,0,0,0,0,0,0,0,0,0,0,0,0,0,0,0,0,0,0,0,0,0,0,0,0,0,0,0,0,0,0,0,0,0,0,0,0,0,0,0,0,0,0,0,0,0,0,0,0,0,0,0,0,0,0,0,0,0,0,0,0,0,0,0,0,0,0,0,0,0,0,0,0,0,0,0,0,0,0,0,0,0,0,0,0,0,0,0,0,0,0,0,0,0,0,0,0,0,0,0,0,0,0,0,0,0,0,0,0,0,0,0,0,0,0,0,0,0,0,0,0,0,0,0,0,0,0,0,0,0,0,0,0,0,0,0,0,0,0,0,0,0,0,0,0,0,0,0,0,0,0,0,0,0,0,0,0,0,0,0,0,0,0,0,0,0,0,0,0,0,0,0,0,0,0,0,0,0,0,0,0,0,0,0,0,0,0,0,0,0,0,0,0,0,0,0,0,0,0,0,0,0,0,0,0,0,0,0,0,0,0,0,0,0,0,0,0,0,0,0,0,0,0,0,0,0,0,0,0,0,0,0,0,0,0,0,0,0,0,0,0,0,0,0,0,0,0,0,0,0,0,0,0,0,0,0,0,0,0,0,0,0,0,0,0,0,0,0,0,0,0,0,0,0,0,0,0,0,0,0,0,0,0,0,0,0,0,0,0,0,0,0,0,0,0,0,0,0,0,0,0,0,0,0,0,0,0,0,0,0,0,0,0,0,0,0,0,0,0,0,0,0,0,0,0,0,0,0,0,0,0,0,0,0,0,0,0,0,0,0,0,0,0,0,0,0,0,0,0,0,0,0,0,0,0,0,0,0,0,0,0,0,0,0,0,0,0,0,0,0,0,0,0,0,0,0,0,0,0,0,0,0,0,0,0,0,0,0,0,0,0,0,0,0,0,0,0,0,0,0,0,0,0,0,0,0,0,0,0,0,0,0,0,0,0,0,0,0,0,0,0,0,0,0,0,0,0,0,0,0,0,0,0,0,0,0,0,0,0,0,0,0,0,0,0,0,0,0,0,0,0,0,0,0,0,0,0,0,0,0,0,0,0,0,0,0,0,0,0,0,0,0,0,0,0,0,0,0,0,0,0,0,0,0,0,0,0,0,0,0,0,0,0,0,0,0,0,0,0,0,0,0,0,0,0,0,0,0,0,0,0,0,0,0,0,0,0,0,0,0,0,0,0,0,0,0,0,0,0,0,0,0,0,0,0,0,0,0,0,0,0,0,0,0,0,0,0,0,0,0,0,0,0,0,0,0,0,0,0,0,0,0,0,0,0,0,0,0,0,0,0,0,0,0,0,0,0,0,0,0,0,0,0,0,0,0,0,0,0,0,0,0,0,0,0,0,0,0,0,0,0,0,0,0,0,0,0,0,0,0,0,0,0,0,0,0,0,0,0,0,0,0,0,0,0,0,0,0,0,0,0,0,0,0,0,0,0,0,0,0,0,0,0,0,0,0,0,0,0,0,0,0,0,0,0,0,0,0,0,0,0,0,0,0,0,0,0,0,0,0,0,0,0,0,0,0,0,0,0,0,0,0,0,0,0,0,0,0,0,0,0,0,0,0,0,0,0,0,0,0,0,0,0,0,0,0,0,0,0,0,0,0,0,0,0,0,0,0,0,0,0,0,0,0,0,0,0,0,0,0,0,0,0,0,0,0,0,0,0,0,0,0,0,0,0,0,0,0,0,0,0,0,0,0,0,0,0,0,0,0,0,0,0,0,0,0,0,0,0,0,0,0,0,0,0,0,0,0,0,0,0,0,0,0,0,0,0,0,0,0,0,0,0,0,0,0,0,0,0,0,0,0,0,0,0,0,0,0,0,0,0,0,0,0,0,0,0,0,0,0,0,0,0,0,0,0,0,0,0,0,0,0,0,0,0,0,0,0,0,0,0,0,0,0,0,0,0,0,0,0,0,0,0,0,0,0,0,0,0,0,0,0,0,0,0,0,0,0,0,0,0,0,0,0,0,0,0,0,0,0,0,0,0,0,0,0,0,0,0,0,0,0,0,0,0,0,0,0,0,0,0,0,0,0,0,0,0,0,0,0,0,0,0,0,0,0,0,0,0,0,0,0,0,0,0,0,0,0,0,0,0,0,0,0,0,0,0,0,0,0,0,0,0,0,0,0,0,0,0,0,0,0,0,0,0,0,0,0,0,0,0,0,0,0,0,0,0,0,0,0,0,0,0,0,0,0,0,0,0,0,0,0,0,0,0,0,0,0,0,0,0,0,0,0,0,0,0,0,0,0,0,0,0,0,0,0,0,0,0,0,0,0,0,0,0,0,0,0,0,0,0,0,0,0,0,0,0,0,0,0,0,0,0,0,0,0,0,0,0,0,0,0,0,0,0,0,0,0,0,0,0,0,0,0,0,0,0,0,0,0,0,0,0,0,0,0,0,0,0,0,0,0,0,0,0,0,0,0,0,0,0,0,0,0,0,0,0,0,0,0,0,0,0,0,0,0,0,0,0,0,0,0,0,0,0,0,0,0,0,0,0,0,0,0,0,0,0,0,0,0,0,0,0,0,0,0,0,0,0,0,0,0,0,0,0,0,0,0,0,0,0,0,0,0,0,0,0,0,0,0,0,0,0,0,0,0,0,0,0,0,0,0,0,0,0,0,0,0,0,0,0,0,0,0,0,0,0,0,0,0,0,0,0,0,0,0,0,0,0,0,0,0,0,0,0,0,0,0,0,0,0,0,0,0,0,0,0,0,0,0,0,0,0,0,0,0,0,0,0,0,0,0,0,0,0,0,0,0,0,0,0,0,0,0,0,0,0,0,0,0,0,0,0,0,0,0,0,0,0,0,0,0,0,0,0,0,0,0,0,0,0,0,0,0,0,0,0,0,0,0,0,0,0,0,0,0,0,0,0,0,0,0,0,0,0,0,0,0,0,0,0,0,0,0,0,0,0,0,0,0,0,0,0,0,0,0,0,0,0,0,0,0,0,0,0,0,0,0,0,0,0,0,0,0,0,0,0,0,0,0,0,0,0,0,0,0,0,0,0,0,0,0,0,0,0,0,0,0,0,0,0,0,0,0,0,0,0,0,0,0,0,0,0,0,0,0,0,0,0,0,0,0,0,0,0,0,0,0,0,0,0,0,0,0,0,0,0,0,0,0,0,0,0,0,0,0,0,0,0,0,0,0,0,0,0,0,0,0,0,0,0,0,0,0,0,0,0,0,0,0,0,0,0,0,0,0,0,0,0,0,0,0,0,0,0,0,0,0,0,0,0,0,0,0,0,0,0,0,0,0,0,0,0,0,0,0,0,0,0,0,0,0,0,0,0,0,0,0,0,0,0,0,0,0,0,0,0,0,0,0,0,0,0,0,0,0,0,0,0,0,0,0,0,0,0,0,0,0,0,0,0,0,0,0,0,0,0,0,0,0,0,0,0,0,0,0,0,0,0,0,0,0,0,0,0,0,0,0,0,0,0,0,0,0,0,0,0,0,0,0,0,0,0,0,0,0,0,0,0,0,0,0,0,0,0,0,0,0,0,0,0,0,0,0,0,0,0,0,0,0,0,0,0,0,0,0,0,0,0,0,0,0,0,0,0,0,0,0,0,0,0,0,0,0,0,0,0,0,0,0,0,0,0,0,0,0,0,0,0,0,0,0,0,0,0,0,0,0,0,0,0,0,0,0,0,0,0,0,0,0,0,0,0,0,0,0,0,0,0,0,0,0,0,0,0,0,0,0,0,0,0,0,0,0,0,0,0,0,0,0,0,0,0,0,0,0,0,0,0,0,0,0,0,0,0,0,0,0,0,0,0,0,0,0,0,0,0,0,0,0,0,0,0,0,0,0,0,0,0,0,0,0,0,0,0,0,0,0,0,0,0,0,0,0,0,0,0,0,0,0,0,0,0,0,0,0,0,0,0,0,0,0,0,0,0,0,0,0,0,0,0,0,0,0,0,0,0,0,0,0,0,0,0,0,0,0,0,0,0,0,0,0,0,0,0,0,0,0,0,0,0,0,0,0,0,0,0,0,0,0,0,0,0,0,0,0,0,0,0,0,0,0,0,0,0,0,0,0,0,0,0,0,0,0,0,0,0,0,0,0,0,0,0]},{"id":3,"name":"walls","type":"tilelayer","width":66,"height":46,"x":0,"y":0,"opacity":1,"visible":true,"data":[827,827,827,827,827,827,827,827,827,827,827,827,827,827,827,827,827,827,827,827,827,827,827,827,827,827,827,827,827,827,827,827,827,827,827,827,827,827,827,827,827,827,827,827,827,827,827,827,827,827,827,827,827,827,827,827,827,827,827,827,827,827,827,827,827,827,827,827,827,827,827,827,827,827,827,827,827,827,827,827,827,827,827,827,827,827,827,827,827,827,827,827,827,825,819,819,819,819,819,819,819,819,819,819,822,827,827,827,827,827,827,827,827,827,827,827,827,827,827,827,827,827,827,827,827,827,827,827,827,827,827,827,827,827,825,819,819,819,819,819,819,819,819,819,819,819,819,819,819,819,819,819,822,827,827,827,827,827,827,823,0,0,0,0,0,0,0,0,0,0,805,827,827,827,827,825,819,819,819,819,819,819,819,819,819,819,820,819,819,819,819,819,819,819,819,822,827,827,827,827,823,0,0,0,0,0,0,0,0,0,0,0,0,0,0,0,0,0,805,827,827,827,827,827,827,823,0,0,0,0,0,0,0,0,0,0,805,827,827,827,827,823,0,0,0,0,0,0,0,0,0,0,786,0,0,0,0,0,0,0,0,805,827,827,827,827,823,0,0,0,0,0,0,0,0,0,0,0,0,0,0,0,0,0,805,827,827,827,827,827,827,823,0,0,0,0,0,0,0,0,0,0,805,827,827,827,827,823,0,0,0,0,0,0,0,0,0,0,786,0,0,0,0,0,0,0,0,805,827,827,827,827,823,0,0,0,0,0,0,0,0,0,0,0,0,0,0,0,0,0,805,827,827,827,827,827,827,823,0,0,0,0,0,0,0,0,0,0,805,827,827,827,827,823,0,0,0,0,0,0,0,0,0,0,786,0,0,0,0,0,0,0,0,805,827,827,827,827,823,0,0,0,0,0,0,0,0,0,0,0,0,0,0,0,0,0,805,827,827,827,827,827,827,823,0,0,0,0,0,0,0,0,0,0,805,827,827,827,827,823,0,0,0,0,0,0,0,0,0,0,786,0,0,0,0,0,0,0,0,805,827,827,827,827,823,0,0,0,0,0,0,0,0,0,0,0,0,0,0,0,0,0,805,827,827,827,827,827,827,823,0,0,0,0,0,0,0,0,0,0,805,827,827,827,827,823,0,0,0,0,0,0,0,0,0,0,782,0,0,0,0,0,0,0,0,805,827,827,827,827,823,0,0,0,0,0,0,0,0,0,0,0,0,0,0,0,0,0,805,827,827,827,827,827,827,823,0,0,0,0,0,0,0,0,0,0,805,827,827,827,827,823,0,0,0,0,0,0,0,0,0,0,0,0,0,0,0,0,0,0,0,805,827,827,827,827,823,0,0,0,0,0,0,0,0,0,0,0,0,0,0,0,0,0,805,827,827,827,825,819,819,816,791,791,789,0,0,0,0,783,791,791,799,819,819,822,827,823,0,0,0,0,0,0,0,0,0,0,0,0,0,0,0,0,0,0,0,805,827,827,827,827,823,0,0,0,0,0,0,0,0,0,0,0,0,0,0,0,0,0,805,827,827,827,823,0,0,0,0,0,0,0,0,0,0,0,0,0,0,0,0,805,827,823,0,0,0,0,0,0,0,0,0,0,785,0,0,0,0,0,0,0,0,805,827,827,827,827,823,0,0,0,0,0,0,0,0,0,0,0,0,0,0,0,0,0,805,827,827,827,823,0,0,0,0,0,0,0,0,0,0,0,0,0,0,0,0,805,827,823,0,0,0,0,0,0,0,0,0,0,786,0,0,0,0,0,0,0,0,805,827,827,827,827,823,0,0,0,0,0,0,0,0,0,0,0,0,0,0,0,0,0,805,827,827,827,823,0,0,0,0,0,0,0,0,0,0,0,0,0,0,0,0,805,827,823,0,0,0,0,0,0,0,0,0,0,782,0,0,0,0,0,0,0,0,805,827,827,827,827,823,0,0,0,0,0,0,0,0,0,0,0,0,0,0,0,0,0,805,827,827,827,823,0,0,0,0,0,0,0,0,0,0,0,0,0,0,0,0,805,827,823,0,0,0,0,0,0,0,0,0,0,0,0,0,0,0,0,0,0,0,805,827,827,827,827,823,0,0,0,0,0,0,0,0,0,0,0,0,0,0,0,0,0,805,827,827,827,823,0,0,0,0,0,0,0,0,0,0,0,0,0,0,0,0,805,827,823,0,0,0,0,0,0,0,0,0,0,0,0,0,0,0,0,0,0,0,805,827,827,827,827,823,0,0,0,0,0,0,0,0,0,0,0,0,0,0,0,0,0,805,827,827,827,823,0,0,0,0,0,0,0,0,0,0,0,0,0,0,0,0,805,827,823,0,0,0,0,0,0,0,0,0,0,0,0,0,0,0,0,0,0,0,805,827,827,827,827,823,0,0,0,0,0,0,0,0,0,0,0,0,0,0,0,0,0,805,827,827,827,823,0,0,0,0,0,0,0,0,0,0,0,0,0,0,0,0,805,827,823,0,0,0,0,0,0,0,0,0,0,0,0,0,0,0,0,0,0,0,805,827,827,827,827,823,0,0,0,0,0,0,0,0,0,0,0,0,0,0,0,0,0,805,827,827,827,823,0,0,0,0,0,0,0,0,0,0,0,0,0,0,0,0,805,827,823,0,0,0,0,0,0,0,0,0,0,0,0,0,0,0,0,0,0,0,805,827,827,827,827,826,812,812,812,812,812,812,807,0,0,801,812,812,812,812,812,812,812,814,827,827,827,823,0,0,0,0,0,0,0,0,0,0,0,0,0,0,0,0,805,827,826,812,812,812,812,812,812,812,807,0,0,801,812,812,812,812,812,812,812,812,814,827,827,827,827,825,819,819,819,819,819,819,815,0,0,797,819,819,819,819,819,819,819,819,819,819,819,816,791,791,791,791,791,789,0,0,0,0,783,791,791,791,791,791,799,819,819,819,819,819,819,819,819,819,815,0,0,797,819,819,819,819,819,819,819,819,822,827,827,827,827,823,0,0,0,0,0,0,0,0,0,0,0,0,0,0,0,0,0,0,0,0,0,0,0,0,0,0,0,0,0,0,0,0,0,0,0,0,0,0,0,0,0,0,0,0,0,0,0,0,0,0,0,0,0,0,0,0,0,0,0,0,805,827,827,827,827,823,0,0,0,0,0,0,0,0,0,0,0,0,0,0,0,0,0,0,0,0,0,0,0,0,0,0,0,0,0,0,0,0,0,0,0,0,0,0,0,0,0,0,0,0,0,0,0,0,0,0,0,0,0,0,0,0,0,0,0,0,805,827,827,827,827,823,0,0,0,0,0,0,0,0,0,0,0,0,0,0,0,0,0,0,0,0,0,0,0,0,0,0,0,0,0,0,0,0,0,0,0,0,0,0,0,0,0,0,0,0,0,0,0,0,0,0,0,0,0,0,0,0,0,0,0,0,805,827,827,827,827,824,791,791,791,791,791,791,789,0,0,783,791,791,791,791,791,791,791,791,803,812,812,812,812,812,812,812,812,807,0,0,0,0,801,812,812,812,812,812,812,812,812,812,812,812,812,812,812,812,812,812,812,812,812,812,812,812,812,812,812,812,814,827,827,827,827,823,0,0,0,0,0,0,0,0,0,0,0,0,0,0,0,0,0,0,805,827,827,827,827,827,827,827,827,823,0,0,0,0,805,827,827,827,827,827,827,827,827,827,827,827,827,827,827,827,827,827,827,827,827,827,827,827,827,827,827,827,827,827,827,827,827,823,0,0,0,0,0,0,0,0,0,0,0,0,0,0,0,0,0,0,805,827,825,819,819,819,819,819,819,815,0,0,0,0,797,819,819,819,819,819,819,822,825,819,819,819,819,819,819,819,819,819,819,819,819,819,819,819,819,819,819,819,822,827,827,827,827,823,0,0,0,0,0,0,0,0,0,0,0,0,0,0,0,0,0,0,805,827,823,0,0,0,0,0,0,0,0,0,0,0,0,0,0,0,0,0,0,805,823,0,0,0,0,0,0,0,0,0,0,0,0,0,0,0,0,0,0,0,805,827,827,827,827,823,0,0,0,0,0,0,0,0,0,0,0,0,0,0,0,0,0,0,805,827,823,0,0,0,0,0,0,0,0,0,0,0,0,0,0,0,0,0,0,805,823,0,0,0,0,0,0,0,0,0,0,0,0,0,0,0,0,0,0,0,805,827,827,827,827,823,0,783,791,791,791,791,789,0,0,0,783,791,791,791,791,791,789,0,805,827,823,0,0,0,0,0,0,0,0,0,0,0,0,0,0,0,0,0,0,805,823,0,0,0,0,0,0,0,0,0,0,0,0,0,0,0,0,0,0,0,805,827,827,827,827,823,0,0,0,0,0,0,0,0,0,0,0,0,0,0,0,0,0,0,805,827,823,0,0,0,0,0,0,0,0,0,0,0,0,0,0,0,0,0,0,805,823,0,0,0,0,0,0,0,0,0,0,0,0,0,0,0,0,0,0,0,805,827,827,827,827,823,0,0,0,0,0,0,0,0,0,0,0,0,0,0,0,0,0,0,805,827,823,0,0,0,0,0,0,0,0,0,0,0,0,0,0,0,0,0,0,805,823,0,0,0,0,0,0,0,0,0,0,0,0,0,0,0,0,0,0,0,805,827,827,827,827,823,0,0,0,0,0,0,0,0,0,0,0,0,0,0,0,0,0,0,805,827,823,0,0,0,0,0,0,0,0,0,0,0,0,0,0,0,0,0,0,805,823,0,0,0,0,0,0,0,0,0,0,0,0,0,0,0,0,0,0,0,805,827,827,827,827,823,0,783,791,791,791,791,789,0,0,0,783,791,791,791,791,791,789,0,805,827,823,0,0,0,0,0,0,0,0,0,0,0,0,0,0,0,0,0,0,797,815,0,0,0,0,0,0,0,0,0,0,0,0,0,0,0,0,0,0,0,805,827,827,827,827,823,0,0,0,0,0,0,0,0,0,0,0,0,0,0,0,0,0,0,805,827,823,0,0,0,0,0,0,0,0,0,0,0,0,0,0,0,0,0,0,0,0,0,0,0,0,0,0,0,0,0,0,0,0,0,0,0,0,0,0,0,805,827,827,827,827,823,0,0,0,0,0,0,0,0,0,0,0,0,0,0,0,0,0,0,805,827,823,0,0,0,0,0,0,0,0,0,0,0,0,0,0,0,0,0,0,0,0,0,0,0,0,0,0,0,0,0,0,0,0,0,0,0,0,0,0,0,805,827,827,827,827,823,0,0,0,0,0,0,0,0,0,0,0,0,0,0,0,0,0,0,805,827,823,0,0,0,0,0,0,0,0,0,0,0,0,0,0,0,0,0,0,801,807,0,0,0,0,0,0,0,0,0,0,0,0,0,0,0,0,0,0,0,805,827,827,827,827,823,0,783,791,791,791,791,789,0,0,0,783,791,791,791,791,791,789,0,805,827,823,0,0,0,0,0,0,0,0,0,0,0,0,0,0,0,0,0,0,805,823,0,0,0,0,0,0,0,0,0,0,0,0,0,0,0,0,0,0,0,805,827,827,827,827,823,0,0,0,0,0,0,0,0,0,0,0,0,0,0,0,0,0,0,805,827,823,0,0,0,0,0,0,0,0,0,0,0,0,0,0,0,0,0,0,805,823,0,0,0,0,0,0,0,0,0,0,0,0,0,0,0,0,0,0,0,805,827,827,827,827,823,0,0,0,0,0,0,0,0,0,0,0,0,0,0,0,0,0,0,805,827,823,0,0,0,0,0,0,0,0,0,0,0,0,0,0,0,0,0,0,805,823,0,0,0,0,0,0,0,0,0,0,0,0,0,0,0,0,0,0,0,805,827,827,827,827,823,0,0,0,0,0,0,0,0,0,0,0,0,0,0,0,0,0,0,805,827,823,0,0,0,0,0,0,0,0,0,0,0,0,0,0,0,0,0,0,805,823,0,0,0,0,0,0,0,0,0,0,0,0,0,0,0,0,0,0,0,805,827,827,827,827,823,0,0,0,0,0,0,0,0,0,0,0,0,0,0,0,0,0,0,805,827,823,0,0,0,0,0,0,0,0,0,0,0,0,0,0,0,0,0,0,805,823,0,0,0,0,0,0,0,0,0,0,0,0,0,0,0,0,0,0,0,805,827,827,827,827,823,0,0,0,0,0,0,0,0,0,0,0,0,0,0,0,0,0,0,805,827,823,0,0,0,0,0,0,0,0,0,0,0,0,0,0,0,0,0,0,805,823,0,0,0,0,0,0,0,0,0,0,0,0,0,0,0,0,0,0,0,805,827,827,827,827,823,0,0,0,0,0,0,0,0,0,0,0,0,0,0,0,0,0,0,805,827,823,0,0,0,0,0,0,0,0,0,0,0,0,0,0,0,0,0,0,805,823,0,0,0,0,0,0,0,0,0,0,0,0,0,0,0,0,0,0,0,805,827,827,827,827,826,812,812,812,812,812,812,812,812,812,812,812,812,812,812,812,812,812,812,814,827,826,812,812,812,812,812,812,812,812,812,812,812,812,812,812,812,812,812,812,814,826,812,812,812,812,812,812,812,812,812,812,812,812,812,812,812,812,812,812,812,814,827,827,827,827,827,827,827,827,827,827,827,827,827,827,827,827,827,827,827,827,827,827,827,827,827,827,827,827,827,827,827,827,827,827,827,827,827,827,827,827,827,827,827,827,827,827,827,827,827,827,827,827,827,827,827,827,827,827,827,827,827,827,827,827,827,827,827,827,827,827,827,827,827,827,827,827,827,827,827,827,827,827,827,827,827,827,827,827,827,827,827,827,827,827,827,827,827,827,827,827,827,827,827,827,827,827,827,827,827,827,827,827,827,827,827,827,827,827,827,827,827,827,827,827,827,827,827,827,827,827,827,827,827,827]},{"id":4,"name":"objects","type":"objectgroup","draworder":"topdown","opacity":1,"visible":true,"x":0,"y":0,"objects":[{"id":1,"name":"fin_door","type":"door","rotation":0,"visible":true,"x":640,"y":1176,"width":128,"height":16,"properties":[{"name":"theme","type":"string","value":"exec"},{"name":"dir","type":"string","value":"h"}]},{"id":2,"name":"hr_door","type":"door","rotation":0,"visible":true,"x":3328,"y":1176,"width":128,"height":16,"properties":[{"name":"theme","type":"string","value":"exec"},{"name":"dir","type":"string","value":"h"}]},{"id":3,"name":"law_door","type":"door","rotation":0,"visible":true,"x":640,"y":1496,"width":128,"height":16,"properties":[{"name":"theme","type":"string","value":"exec"},{"name":"dir","type":"string","value":"h"}]},{"id":4,"name":"board_door","type":"door","rotation":0,"visible":true,"x":1984,"y":1624,"width":256,"height":16,"properties":[{"name":"theme","type":"string","value":"exec"},{"name":"locked","type":"string","value":"script"},{"name":"dir","type":"string","value":"h"}]},{"id":5,"name":"director_door","type":"door","rotation":0,"visible":true,"x":2712,"y":2112,"width":16,"height":128,"properties":[{"name":"theme","type":"string","value":"exec"},{"name":"locked","type":"string","value":"script"},{"name":"dir","type":"string","value":"v"}]},{"id":6,"name":"elevator","type":"prop","rotation":0,"visible":true,"x":1920,"y":134.4,"width":128,"height":128},{"id":7,"name":"elevator","type":"prop","rotation":0,"visible":true,"x":2144,"y":134.4,"width":128,"height":128},{"id":8,"name":"player","type":"spawn","rotation":0,"visible":true,"x":2016,"y":371.2,"width":0,"height":0,"point":true},{"id":9,"name":"player","type":"spawn","rotation":0,"visible":true,"x":2144,"y":371.2,"width":0,"height":0,"point":true},{"id":10,"name":"player","type":"spawn","rotation":0,"visible":true,"x":2016,"y":448,"width":0,"height":0,"point":true},{"id":11,"name":"player","type":"spawn","rotation":0,"visible":true,"x":2144,"y":448,"width":0,"height":0,"point":true},{"id":12,"name":"plant","type":"prop","rotation":0,"visible":true,"x":1807.9,"y":191.7,"width":45,"height":39},{"id":13,"name":"plant","type":"prop","rotation":0,"visible":true,"x":2371.1,"y":191.7,"width":45,"height":39},{"id":14,"name":"painting_wide","type":"prop","rotation":0,"visible":true,"x":2015,"y":142.4,"width":162,"height":48},{"id":15,"name":"","type":"label","rotation":0,"visible":true,"x":2096,"y":486.4,"width":0,"height":0,"point":true,"properties":[{"name":"text","type":"string","value":"ЭТАЖ 11 · РУКОВОДСТВО"},{"name":"size","type":"int","value":22},{"name":"color","type":"string","value":"#6b5440"}]},{"id":16,"name":"","type":"note","rotation":0,"visible":true,"x":2336,"y":384,"width":0,"height":0,"point":true,"properties":[{"name":"text","type":"string","value":"Табличка: «Посторонним и пернатым — только по записи»"}]},{"id":17,"name":"reception","type":"prop","rotation":0,"visible":true,"x":1990,"y":771.4,"width":180,"height":70},{"id":18,"name":"zhanna","type":"npc","rotation":0,"visible":true,"x":2080,"y":742.4,"width":0,"height":0,"point":true,"properties":[{"name":"reach","type":"int","value":150},{"name":"title","type":"string","value":"Жанна Аркадьевна · приёмная"},{"name":"mode","type":"string","value":"idle"},{"name":"hp","type":"int","value":200},{"name":"story","type":"bool","value":true},{"name":"essential","type":"bool","value":true},{"name":"untargetable","type":"bool","value":true},{"name":"angle","type":"int","value":90}]},{"id":19,"name":"sofa_dark","type":"prop","rotation":0,"visible":true,"x":1670,"y":1040.9,"width":180,"height":43},{"id":20,"name":"coffee_table","type":"prop","rotation":0,"visible":true,"x":1735,"y":963.2,"width":50,"height":32},{"id":21,"name":"sofa_dark","type":"prop","rotation":0,"visible":true,"x":2310,"y":1040.9,"width":180,"height":43},{"id":22,"name":"plant","type":"prop","rotation":0,"visible":true,"x":2499.1,"y":658.9,"width":45,"height":39},{"id":23,"name":"plant","type":"prop","rotation":0,"visible":true,"x":1615.9,"y":658.9,"width":45,"height":39},{"id":24,"name":"portrait_ceo","type":"prop","rotation":0,"visible":true,"x":2051,"y":622.4,"width":58,"height":48},{"id":25,"name":"vending","type":"prop","rotation":0,"visible":true,"x":2476.8,"y":874,"width":64,"height":44,"properties":[{"name":"incident","type":"string","value":"coffee"},{"name":"incidentId","type":"string","value":"incident_coffee11"}]},{"id":26,"name":"incident_coffee11","type":"use","rotation":0,"visible":true,"x":2508.8,"y":947.2,"width":0,"height":0,"point":true,"properties":[{"name":"incident","type":"string","value":"coffee"},{"name":"hint","type":"string","value":"кофе: +15 HP и бег на 10 сек"}]},{"id":27,"name":"","type":"label","rotation":0,"visible":true,"x":2080,"y":1126.4,"width":0,"height":0,"point":true,"properties":[{"name":"text","type":"string","value":"ПРИЁМНАЯ"},{"name":"size","type":"int","value":20},{"name":"color","type":"string","value":"#6b5440"}]},{"id":28,"name":"reception","type":"trigger","rotation":0,"visible":true,"x":1600,"y":640,"width":1024,"height":576,"properties":[{"name":"npc","type":"string","value":"punktovich"},{"name":"once","type":"bool","value":false}]},{"id":29,"name":"ammo","type":"pickup","rotation":0,"visible":true,"x":1664,"y":768,"width":0,"height":0,"point":true},{"id":30,"name":"health","type":"pickup","rotation":0,"visible":true,"x":2496,"y":1088,"width":0,"height":0,"point":true},{"id":31,"name":"plant","type":"prop","rotation":0,"visible":true,"x":425.5,"y":1420.5,"width":45,"height":39},{"id":32,"name":"plant","type":"prop","rotation":0,"visible":true,"x":3689.5,"y":1420.5,"width":45,"height":39},{"id":33,"name":"intern11","type":"npc","rotation":0,"visible":true,"x":2944,"y":1344,"width":0,"height":0,"point":true,"properties":[{"name":"title","type":"string","value":"Стажёр Гоша · 40 слайдов"},{"name":"kind","type":"string","value":"manBrown"},{"name":"mode","type":"string","value":"idle"},{"name":"hp","type":"int","value":80},{"name":"turn","type":"string","value":"fast"},{"name":"lines","type":"string","value":"Я сорок слайдов готовил! Где совещание?"}]},{"id":34,"name":"corridor","type":"spawner","rotation":0,"visible":true,"x":256,"y":1344,"width":0,"height":0,"point":true,"properties":[{"name":"how","type":"string","value":"rise"},{"name":"corridorOnly","type":"bool","value":true}]},{"id":35,"name":"corridor","type":"spawner","rotation":0,"visible":true,"x":3904,"y":1344,"width":0,"height":0,"point":true,"properties":[{"name":"how","type":"string","value":"rise"},{"name":"corridorOnly","type":"bool","value":true}]},{"id":36,"name":"corridor","type":"spawner","rotation":0,"visible":true,"x":1536,"y":1376,"width":0,"height":0,"point":true,"properties":[{"name":"how","type":"string","value":"rise"},{"name":"corridorOnly","type":"bool","value":true}]},{"id":37,"name":"corridor","type":"spawner","rotation":0,"visible":true,"x":2624,"y":1376,"width":0,"height":0,"point":true,"properties":[{"name":"how","type":"string","value":"rise"},{"name":"corridorOnly","type":"bool","value":true}]},{"id":38,"name":"desk_b","type":"prop","rotation":0,"visible":true,"x":260,"y":418,"width":120,"height":60},{"id":39,"name":"office_chair","type":"prop","rotation":0,"visible":true,"x":302,"y":503.6,"width":36,"height":36},{"id":40,"name":"desk_b","type":"prop","rotation":0,"visible":true,"x":260,"y":738,"width":120,"height":60},{"id":41,"name":"office_chair","type":"prop","rotation":0,"visible":true,"x":302,"y":823.6,"width":36,"height":36},{"id":42,"name":"desk_b","type":"prop","rotation":0,"visible":true,"x":516,"y":418,"width":120,"height":60},{"id":43,"name":"office_chair","type":"prop","rotation":0,"visible":true,"x":558,"y":503.6,"width":36,"height":36},{"id":44,"name":"desk_b","type":"prop","rotation":0,"visible":true,"x":516,"y":738,"width":120,"height":60},{"id":45,"name":"office_chair","type":"prop","rotation":0,"visible":true,"x":558,"y":823.6,"width":36,"height":36},{"id":46,"name":"desk_b","type":"prop","rotation":0,"visible":true,"x":772,"y":418,"width":120,"height":60},{"id":47,"name":"office_chair","type":"prop","rotation":0,"visible":true,"x":814,"y":503.6,"width":36,"height":36},{"id":48,"name":"desk_b","type":"prop","rotation":0,"visible":true,"x":772,"y":738,"width":120,"height":60},{"id":49,"name":"office_chair","type":"prop","rotation":0,"visible":true,"x":814,"y":823.6,"width":36,"height":36},{"id":50,"name":"cabinet","type":"prop","rotation":0,"visible":true,"x":1094,"y":210.4,"width":52,"height":40},{"id":51,"name":"cabinet","type":"prop","rotation":0,"visible":true,"x":1164.4,"y":210.4,"width":52,"height":40},{"id":52,"name":"table_big","type":"prop","rotation":0,"visible":true,"x":962,"y":770,"width":188,"height":188},{"id":53,"name":"boris","type":"npc","rotation":0,"visible":true,"x":1088,"y":384,"width":0,"height":0,"point":true,"properties":[{"name":"title","type":"string","value":"Борис Сальдович · финдиректор"},{"name":"mode","type":"string","value":"cower"},{"name":"hp","type":"int","value":200},{"name":"story","type":"bool","value":true},{"name":"essential","type":"bool","value":true},{"name":"untargetable","type":"bool","value":true},{"name":"angle","type":"int","value":180},{"name":"lines","type":"string","value":"Сократите их! Сократите их всех!"}]},{"id":54,"name":"normal","type":"enemy","rotation":0,"visible":true,"x":384,"y":608,"width":0,"height":0,"point":true,"properties":[{"name":"tag","type":"string","value":"fin"}]},{"id":55,"name":"fast","type":"enemy","rotation":0,"visible":true,"x":704,"y":608,"width":0,"height":0,"point":true,"properties":[{"name":"tag","type":"string","value":"fin"}]},{"id":56,"name":"normal","type":"enemy","rotation":0,"visible":true,"x":896,"y":320,"width":0,"height":0,"point":true,"properties":[{"name":"tag","type":"string","value":"fin"}]},{"id":57,"name":"spitter","type":"enemy","rotation":0,"visible":true,"x":448,"y":960,"width":0,"height":0,"point":true,"properties":[{"name":"tag","type":"string","value":"fin"}]},{"id":58,"name":"normal","type":"enemy","rotation":0,"visible":true,"x":768,"y":960,"width":0,"height":0,"point":true,"properties":[{"name":"tag","type":"string","value":"fin"}]},{"id":59,"name":"fat","type":"enemy","rotation":0,"visible":true,"x":1024,"y":640,"width":0,"height":0,"point":true,"properties":[{"name":"tag","type":"string","value":"fin"}]},{"id":60,"name":"fast","type":"enemy","rotation":0,"visible":true,"x":256,"y":832,"width":0,"height":0,"point":true,"properties":[{"name":"tag","type":"string","value":"fin"}]},{"id":61,"name":"normal","type":"enemy","rotation":0,"visible":true,"x":576,"y":288,"width":0,"height":0,"point":true,"properties":[{"name":"tag","type":"string","value":"fin"}]},{"id":62,"name":"armored","type":"enemy","rotation":0,"visible":true,"x":1120,"y":960,"width":0,"height":0,"point":true,"properties":[{"name":"tag","type":"string","value":"fin"}]},{"id":63,"name":"finance","type":"trigger","rotation":0,"visible":true,"x":192,"y":192,"width":1088,"height":960},{"id":64,"name":"fin","type":"spawner","rotation":0,"visible":true,"x":256,"y":256,"width":0,"height":0,"point":true,"properties":[{"name":"how","type":"string","value":"vent"}]},{"id":65,"name":"fin","type":"spawner","rotation":0,"visible":true,"x":256,"y":1024,"width":0,"height":0,"point":true,"properties":[{"name":"how","type":"string","value":"vent"}]},{"id":66,"name":"","type":"label","rotation":0,"visible":true,"x":704,"y":1062.4,"width":0,"height":0,"point":true,"properties":[{"name":"text","type":"string","value":"ФИНАНСОВЫЙ ДЕПАРТАМЕНТ"},{"name":"size","type":"int","value":20},{"name":"color","type":"string","value":"#6b5440"}]},{"id":67,"name":"","type":"note","rotation":0,"visible":true,"x":576,"y":499.2,"width":0,"height":0,"point":true,"properties":[{"name":"text","type":"string","value":"Бюджет на 2025: «Курица — 0. Петух — 0. Антидот — не предусмотрен»"}]},{"id":68,"name":"ammo","type":"pickup","rotation":0,"visible":true,"x":256,"y":640,"width":0,"height":0,"point":true},{"id":69,"name":"desk_b","type":"prop","rotation":0,"visible":true,"x":2884,"y":354,"width":120,"height":60},{"id":70,"name":"office_chair","type":"prop","rotation":0,"visible":true,"x":2926,"y":439.6,"width":36,"height":36},{"id":71,"name":"desk_b","type":"prop","rotation":0,"visible":true,"x":2884,"y":674,"width":120,"height":60},{"id":72,"name":"office_chair","type":"prop","rotation":0,"visible":true,"x":2926,"y":759.6,"width":36,"height":36},{"id":73,"name":"desk_b","type":"prop","rotation":0,"visible":true,"x":2884,"y":930,"width":120,"height":60},{"id":74,"name":"office_chair","type":"prop","rotation":0,"visible":true,"x":2926,"y":1015.5999999999999,"width":36,"height":36},{"id":75,"name":"desk_b","type":"prop","rotation":0,"visible":true,"x":3140,"y":354,"width":120,"height":60},{"id":76,"name":"office_chair","type":"prop","rotation":0,"visible":true,"x":3182,"y":439.6,"width":36,"height":36},{"id":77,"name":"desk_b","type":"prop","rotation":0,"visible":true,"x":3140,"y":674,"width":120,"height":60},{"id":78,"name":"office_chair","type":"prop","rotation":0,"visible":true,"x":3182,"y":759.6,"width":36,"height":36},{"id":79,"name":"desk_b","type":"prop","rotation":0,"visible":true,"x":3140,"y":930,"width":120,"height":60},{"id":80,"name":"office_chair","type":"prop","rotation":0,"visible":true,"x":3182,"y":1015.5999999999999,"width":36,"height":36},{"id":81,"name":"sofa_orange","type":"prop","rotation":0,"visible":true,"x":3682,"y":968.4,"width":188,"height":60},{"id":82,"name":"table_round","type":"prop","rotation":0,"visible":true,"x":3746,"y":802,"width":60,"height":60},{"id":83,"name":"plant","type":"prop","rotation":0,"visible":true,"x":3913.5,"y":198.1,"width":45,"height":39},{"id":84,"name":"whiteboard","type":"prop","rotation":0,"visible":true,"x":3076,"y":190.4,"width":120,"height":16},{"id":85,"name":"irina","type":"npc","rotation":0,"visible":true,"x":3776,"y":416,"width":0,"height":0,"point":true,"properties":[{"name":"title","type":"string","value":"Ирина Тимбилдинговна · HR"},{"name":"mode","type":"string","value":"idle"},{"name":"hp","type":"int","value":200},{"name":"story","type":"bool","value":true},{"name":"essential","type":"bool","value":true},{"name":"untargetable","type":"bool","value":true},{"name":"angle","type":"int","value":180}]},{"id":86,"name":"doc","type":"pickup","rotation":0,"visible":true,"x":3046.4,"y":908.8,"width":0,"height":0,"point":true,"properties":[{"name":"key","type":"string","value":"form1"}]},{"id":87,"name":"doc","type":"pickup","rotation":0,"visible":true,"x":384,"y":1369.6,"width":0,"height":0,"point":true,"properties":[{"name":"key","type":"string","value":"form2"}]},{"id":88,"name":"doc","type":"pickup","rotation":0,"visible":true,"x":1120,"y":2585.6,"width":0,"height":0,"point":true,"properties":[{"name":"key","type":"string","value":"form3"}]},{"id":89,"name":"fat","type":"enemy","rotation":0,"visible":true,"x":3046.4,"y":844.8,"width":0,"height":0,"point":true,"properties":[{"name":"tag","type":"string","value":"scene1"},{"name":"dormant","type":"bool","value":true}]},{"id":90,"name":"normal","type":"enemy","rotation":0,"visible":true,"x":2912,"y":832,"width":0,"height":0,"point":true,"properties":[{"name":"tag","type":"string","value":"scene1"},{"name":"dormant","type":"bool","value":true}]},{"id":91,"name":"normal","type":"enemy","rotation":0,"visible":true,"x":3168,"y":864,"width":0,"height":0,"point":true,"properties":[{"name":"tag","type":"string","value":"scene1"},{"name":"dormant","type":"bool","value":true}]},{"id":92,"name":"normal","type":"enemy","rotation":0,"visible":true,"x":2976,"y":576,"width":0,"height":0,"point":true,"properties":[{"name":"tag","type":"string","value":"scene1"},{"name":"dormant","type":"bool","value":true}]},{"id":93,"name":"scene1","type":"trigger","rotation":0,"visible":true,"x":2816,"y":512,"width":640,"height":576},{"id":94,"name":"spitter","type":"enemy","rotation":0,"visible":true,"x":512,"y":1344,"width":0,"height":0,"point":true,"properties":[{"name":"tag","type":"string","value":"scene2"},{"name":"dormant","type":"bool","value":true}]},{"id":95,"name":"normal","type":"enemy","rotation":0,"visible":true,"x":608,"y":1318.4,"width":0,"height":0,"point":true,"properties":[{"name":"tag","type":"string","value":"scene2"},{"name":"dormant","type":"bool","value":true}]},{"id":96,"name":"normal","type":"enemy","rotation":0,"visible":true,"x":672,"y":1382.4,"width":0,"height":0,"point":true,"properties":[{"name":"tag","type":"string","value":"scene2"},{"name":"dormant","type":"bool","value":true}]},{"id":97,"name":"normal","type":"enemy","rotation":0,"visible":true,"x":448,"y":1408,"width":0,"height":0,"point":true,"properties":[{"name":"tag","type":"string","value":"scene2"},{"name":"dormant","type":"bool","value":true}]},{"id":98,"name":"disco_lamp","type":"prop","rotation":0,"visible":true,"x":258.8,"y":1298.6,"width":20,"height":14},{"id":99,"name":"","type":"light","rotation":0,"visible":true,"x":268.8,"y":1292.8,"width":0,"height":0,"point":true,"properties":[{"name":"kind","type":"string","value":"lamp"},{"name":"color","type":"string","value":"ff4fa8"},{"name":"radius","type":"int","value":140},{"name":"flicker","type":"float","value":0.25}]},{"id":100,"name":"scene2","type":"trigger","rotation":0,"visible":true,"x":192,"y":1280,"width":768,"height":192},{"id":101,"name":"armored","type":"enemy","rotation":0,"visible":true,"x":992,"y":2528,"width":0,"height":0,"point":true,"properties":[{"name":"tag","type":"string","value":"scene3"},{"name":"dormant","type":"bool","value":true}]},{"id":102,"name":"normal","type":"enemy","rotation":0,"visible":true,"x":832,"y":2624,"width":0,"height":0,"point":true,"properties":[{"name":"tag","type":"string","value":"scene3"},{"name":"dormant","type":"bool","value":true}]},{"id":103,"name":"normal","type":"enemy","rotation":0,"visible":true,"x":928,"y":2662.4,"width":0,"height":0,"point":true,"properties":[{"name":"tag","type":"string","value":"scene3"},{"name":"dormant","type":"bool","value":true}]},{"id":104,"name":"normal","type":"enemy","rotation":0,"visible":true,"x":1056,"y":2662.4,"width":0,"height":0,"point":true,"properties":[{"name":"tag","type":"string","value":"scene3"},{"name":"dormant","type":"bool","value":true}]},{"id":105,"name":"normal","type":"enemy","rotation":0,"visible":true,"x":1184,"y":2624,"width":0,"height":0,"point":true,"properties":[{"name":"tag","type":"string","value":"scene3"},{"name":"dormant","type":"bool","value":true}]},{"id":106,"name":"scene3","type":"trigger","rotation":0,"visible":true,"x":704,"y":2368,"width":576,"height":384},{"id":107,"name":"normal","type":"enemy","rotation":0,"visible":true,"x":3584,"y":384,"width":0,"height":0,"point":true,"properties":[{"name":"tag","type":"string","value":"hr0"}]},{"id":108,"name":"fast","type":"enemy","rotation":0,"visible":true,"x":3648,"y":640,"width":0,"height":0,"point":true,"properties":[{"name":"tag","type":"string","value":"hr0"}]},{"id":109,"name":"spitter","type":"enemy","rotation":0,"visible":true,"x":3328,"y":288,"width":0,"height":0,"point":true,"properties":[{"name":"tag","type":"string","value":"hr0"}]},{"id":110,"name":"normal","type":"enemy","rotation":0,"visible":true,"x":3840,"y":960,"width":0,"height":0,"point":true,"properties":[{"name":"tag","type":"string","value":"hr0"}]},{"id":111,"name":"hr","type":"spawner","rotation":0,"visible":true,"x":2848,"y":256,"width":0,"height":0,"point":true,"properties":[{"name":"how","type":"string","value":"vent"}]},{"id":112,"name":"hr","type":"spawner","rotation":0,"visible":true,"x":3968,"y":1056,"width":0,"height":0,"point":true,"properties":[{"name":"how","type":"string","value":"vent"}]},{"id":113,"name":"hr","type":"spawner","rotation":0,"visible":true,"x":224,"y":1344,"width":0,"height":0,"point":true,"properties":[{"name":"how","type":"string","value":"vent"}]},{"id":114,"name":"hr","type":"spawner","rotation":0,"visible":true,"x":1152,"y":2624,"width":0,"height":0,"point":true,"properties":[{"name":"how","type":"string","value":"vent"}]},{"id":115,"name":"","type":"label","rotation":0,"visible":true,"x":3392,"y":1062.4,"width":0,"height":0,"point":true,"properties":[{"name":"text","type":"string","value":"HR · ОТДЕЛ СЧАСТЬЯ"},{"name":"size","type":"int","value":20},{"name":"color","type":"string","value":"#6b5440"}]},{"id":116,"name":"","type":"note","rotation":0,"visible":true,"x":3136,"y":262.4,"width":0,"height":0,"point":true,"properties":[{"name":"text","type":"string","value":"Доска: «Ценности компании: 1. Лояльность 2. Перья 3. Синергия»"}]},{"id":117,"name":"health","type":"pickup","rotation":0,"visible":true,"x":3968,"y":640,"width":0,"height":0,"point":true},{"id":118,"name":"shelf","type":"prop","rotation":0,"visible":true,"x":258,"y":1654.8,"width":124,"height":44},{"id":119,"name":"shelf","type":"prop","rotation":0,"visible":true,"x":258,"y":1910.8,"width":124,"height":44},{"id":120,"name":"shelf","type":"prop","rotation":0,"visible":true,"x":258,"y":2166.8,"width":124,"height":44},{"id":121,"name":"shelf","type":"prop","rotation":0,"visible":true,"x":450,"y":1654.8,"width":124,"height":44},{"id":122,"name":"shelf","type":"prop","rotation":0,"visible":true,"x":450,"y":1910.8,"width":124,"height":44},{"id":123,"name":"shelf","type":"prop","rotation":0,"visible":true,"x":450,"y":2166.8,"width":124,"height":44},{"id":124,"name":"shelf","type":"prop","rotation":0,"visible":true,"x":898,"y":1654.8,"width":124,"height":44},{"id":125,"name":"shelf","type":"prop","rotation":0,"visible":true,"x":898,"y":1910.8,"width":124,"height":44},{"id":126,"name":"shelf","type":"prop","rotation":0,"visible":true,"x":898,"y":2166.8,"width":124,"height":44},{"id":127,"name":"shelf","type":"prop","rotation":0,"visible":true,"x":1090,"y":1654.8,"width":124,"height":44},{"id":128,"name":"shelf","type":"prop","rotation":0,"visible":true,"x":1090,"y":1910.8,"width":124,"height":44},{"id":129,"name":"shelf","type":"prop","rotation":0,"visible":true,"x":1090,"y":2166.8,"width":124,"height":44},{"id":130,"name":"punktovich","type":"npc","rotation":0,"visible":true,"x":320,"y":2592,"width":0,"height":0,"point":true,"properties":[{"name":"title","type":"string","value":"Аркадий Пунктович · юрист"},{"name":"mode","type":"string","value":"cower"},{"name":"hp","type":"int","value":200},{"name":"story","type":"bool","value":true},{"name":"essential","type":"bool","value":true},{"name":"untargetable","type":"bool","value":true},{"name":"angle","type":"int","value":0},{"name":"lines","type":"string","value":"Согласно пункту 4.2, я боюсь!"}]},{"id":131,"name":"normal","type":"enemy","rotation":0,"visible":true,"x":448,"y":1632,"width":0,"height":0,"point":true,"properties":[{"name":"tag","type":"string","value":"law"}]},{"id":132,"name":"normal","type":"enemy","rotation":0,"visible":true,"x":1024,"y":1632,"width":0,"height":0,"point":true,"properties":[{"name":"tag","type":"string","value":"law"}]},{"id":133,"name":"fast","type":"enemy","rotation":0,"visible":true,"x":768,"y":1920,"width":0,"height":0,"point":true,"properties":[{"name":"tag","type":"string","value":"law"}]},{"id":134,"name":"spitter","type":"enemy","rotation":0,"visible":true,"x":384,"y":2176,"width":0,"height":0,"point":true,"properties":[{"name":"tag","type":"string","value":"law"}]},{"id":135,"name":"normal","type":"enemy","rotation":0,"visible":true,"x":1088,"y":2176,"width":0,"height":0,"point":true,"properties":[{"name":"tag","type":"string","value":"law"}]},{"id":136,"name":"armored","type":"enemy","rotation":0,"visible":true,"x":768,"y":2432,"width":0,"height":0,"point":true,"properties":[{"name":"tag","type":"string","value":"law"}]},{"id":137,"name":"fast","type":"enemy","rotation":0,"visible":true,"x":576,"y":2624,"width":0,"height":0,"point":true,"properties":[{"name":"tag","type":"string","value":"law"}]},{"id":138,"name":"normal","type":"enemy","rotation":0,"visible":true,"x":256,"y":1920,"width":0,"height":0,"point":true,"properties":[{"name":"tag","type":"string","value":"law"}]},{"id":139,"name":"fast","type":"enemy","rotation":0,"visible":true,"x":1216,"y":1920,"width":0,"height":0,"point":true,"properties":[{"name":"tag","type":"string","value":"law"}]},{"id":140,"name":"spitter","type":"enemy","rotation":0,"visible":true,"x":640,"y":1664,"width":0,"height":0,"point":true,"properties":[{"name":"tag","type":"string","value":"law"}]},{"id":141,"name":"archive","type":"trigger","rotation":0,"visible":true,"x":192,"y":1536,"width":1152,"height":1216},{"id":142,"name":"","type":"label","rotation":0,"visible":true,"x":736,"y":2764.8,"width":0,"height":0,"point":true,"properties":[{"name":"text","type":"string","value":"ЮРИДИЧЕСКИЙ ОТДЕЛ · АРХИВ"},{"name":"size","type":"int","value":20},{"name":"color","type":"string","value":"#6b5440"}]},{"id":143,"name":"","type":"note","rotation":0,"visible":true,"x":1024,"y":2656,"width":0,"height":0,"point":true,"properties":[{"name":"text","type":"string","value":"Договор с поставщиком КУКАРЕКСА. Мелкий шрифт: «Возможны побочные эффекты: перья, гребень, кудахтанье»"}]},{"id":144,"name":"ammo","type":"pickup","rotation":0,"visible":true,"x":1216,"y":1600,"width":0,"height":0,"point":true},{"id":145,"name":"armor","type":"pickup","rotation":0,"visible":true,"x":230.4,"y":1920,"width":0,"height":0,"point":true},{"id":146,"name":"table_big","type":"prop","rotation":0,"visible":true,"x":1986,"y":2114,"width":188,"height":188},{"id":147,"name":"table_big","type":"prop","rotation":0,"visible":true,"x":1986,"y":1826,"width":188,"height":188},{"id":148,"name":"office_chair","type":"prop","rotation":0,"visible":true,"x":1902,"y":1838,"width":36,"height":36},{"id":149,"name":"office_chair","type":"prop","rotation":0,"visible":true,"x":2222,"y":1838,"width":36,"height":36},{"id":150,"name":"office_chair","type":"prop","rotation":0,"visible":true,"x":1902,"y":1966,"width":36,"height":36},{"id":151,"name":"office_chair","type":"prop","rotation":0,"visible":true,"x":2222,"y":1966,"width":36,"height":36},{"id":152,"name":"office_chair","type":"prop","rotation":0,"visible":true,"x":1902,"y":2158,"width":36,"height":36},{"id":153,"name":"office_chair","type":"prop","rotation":0,"visible":true,"x":2222,"y":2158,"width":36,"height":36},{"id":154,"name":"office_chair","type":"prop","rotation":0,"visible":true,"x":1902,"y":2286,"width":36,"height":36},{"id":155,"name":"office_chair","type":"prop","rotation":0,"visible":true,"x":2222,"y":2286,"width":36,"height":36},{"id":156,"name":"tv","type":"prop","rotation":0,"visible":true,"x":2030,"y":1689.4,"width":100,"height":26},{"id":157,"name":"whiteboard","type":"prop","rotation":0,"visible":true,"x":1668,"y":1662.4,"width":120,"height":16},{"id":158,"name":"plant","type":"prop","rotation":0,"visible":true,"x":1551.9,"y":2630.1,"width":45,"height":39},{"id":159,"name":"plant","type":"prop","rotation":0,"visible":true,"x":2563.1,"y":2630.1,"width":45,"height":39},{"id":160,"name":"","type":"label","rotation":0,"visible":true,"x":2080,"y":2611.2,"width":0,"height":0,"point":true,"properties":[{"name":"text","type":"string","value":"ПЕРЕГОВОРНАЯ СОВЕТА"},{"name":"size","type":"int","value":24},{"name":"color","type":"string","value":"#6b5440"}]},{"id":161,"name":"","type":"note","rotation":0,"visible":true,"x":1792,"y":1728,"width":0,"height":0,"point":true,"properties":[{"name":"text","type":"string","value":"Повестка: 1. KPI. 2. Ещё раз KPI. 3. Кукарекс-брейк. 4. Кто съел мой йогурт"}]},{"id":162,"name":"meeting","type":"spawner","rotation":0,"visible":true,"x":1600,"y":1728,"width":0,"height":0,"point":true,"properties":[{"name":"how","type":"string","value":"vent"}]},{"id":163,"name":"meeting","type":"spawner","rotation":0,"visible":true,"x":2560,"y":1728,"width":0,"height":0,"point":true,"properties":[{"name":"how","type":"string","value":"vent"}]},{"id":164,"name":"meeting","type":"spawner","rotation":0,"visible":true,"x":1600,"y":2656,"width":0,"height":0,"point":true,"properties":[{"name":"how","type":"string","value":"vent"}]},{"id":165,"name":"meeting","type":"spawner","rotation":0,"visible":true,"x":2560,"y":2656,"width":0,"height":0,"point":true,"properties":[{"name":"how","type":"string","value":"vent"}]},{"id":166,"name":"meeting","type":"spawner","rotation":0,"visible":true,"x":2112,"y":2656,"width":0,"height":0,"point":true,"properties":[{"name":"how","type":"string","value":"vent"}]},{"id":167,"name":"boardroom","type":"trigger","rotation":0,"visible":true,"x":1536,"y":1664,"width":1152,"height":1088,"properties":[{"name":"once","type":"bool","value":false}]},{"id":168,"name":"health","type":"pickup","rotation":0,"visible":true,"x":1600,"y":2176,"width":0,"height":0,"point":true},{"id":169,"name":"health","type":"pickup","rotation":0,"visible":true,"x":2592,"y":1920,"width":0,"height":0,"point":true},{"id":170,"name":"ammo","type":"pickup","rotation":0,"visible":true,"x":2592,"y":2176,"width":0,"height":0,"point":true},{"id":171,"name":"ammo","type":"pickup","rotation":0,"visible":true,"x":1600,"y":1856,"width":0,"height":0,"point":true},{"id":172,"name":"armor","type":"pickup","rotation":0,"visible":true,"x":2080,"y":1766.4,"width":0,"height":0,"point":true},{"id":173,"name":"weapon","type":"pickup","rotation":0,"visible":true,"x":2080,"y":2432,"width":0,"height":0,"point":true,"properties":[{"name":"weapon","type":"string","value":"rifle"}]},{"id":174,"name":"table_big","type":"prop","rotation":0,"visible":true,"x":3298,"y":2018,"width":188,"height":188},{"id":175,"name":"office_chair","type":"prop","rotation":0,"visible":true,"x":3374,"y":1966,"width":36,"height":36},{"id":176,"name":"portrait_ceo","type":"prop","rotation":0,"visible":true,"x":3363,"y":1646.4,"width":58,"height":48},{"id":177,"name":"aquarium","type":"prop","rotation":0,"visible":true,"x":3798,"y":2473,"width":84,"height":46},{"id":178,"name":"sofa_dark","type":"prop","rotation":0,"visible":true,"x":2918,"y":2576.9,"width":180,"height":43},{"id":179,"name":"elevator","type":"prop","rotation":0,"visible":true,"x":3744,"y":1670.4,"width":128,"height":128},{"id":180,"name":"director","type":"npc","rotation":0,"visible":true,"x":3392,"y":2022.4,"width":0,"height":0,"point":true,"properties":[{"name":"title","type":"string","value":"Исполнительный директор"},{"name":"mode","type":"string","value":"idle"},{"name":"hp","type":"int","value":300},{"name":"story","type":"bool","value":true},{"name":"essential","type":"bool","value":true},{"name":"untargetable","type":"bool","value":true},{"name":"angle","type":"int","value":90}]},{"id":181,"name":"lift11","type":"trigger","rotation":0,"visible":true,"x":3584,"y":1664,"width":448,"height":320,"properties":[{"name":"once","type":"bool","value":false},{"name":"all","type":"bool","value":true}]},{"id":182,"name":"board11","type":"spawner","rotation":0,"visible":true,"x":2880,"y":1728,"width":0,"height":0,"point":true,"properties":[{"name":"how","type":"string","value":"vent"}]},{"id":183,"name":"board11","type":"spawner","rotation":0,"visible":true,"x":3936,"y":2656,"width":0,"height":0,"point":true,"properties":[{"name":"how","type":"string","value":"vent"}]},{"id":184,"name":"","type":"label","rotation":0,"visible":true,"x":3808,"y":2009.6,"width":0,"height":0,"point":true,"properties":[{"name":"text","type":"string","value":"ЛИЧНЫЙ ЛИФТ · 12 ЭТАЖ"},{"name":"size","type":"int","value":14},{"name":"color","type":"string","value":"#6b5440"}]},{"id":185,"name":"","type":"label","rotation":0,"visible":true,"x":3392,"y":2662.4,"width":0,"height":0,"point":true,"properties":[{"name":"text","type":"string","value":"КАБИНЕТ ДИРЕКТОРА"},{"name":"size","type":"int","value":20},{"name":"color","type":"string","value":"#6b5440"}]}]}]}