{"type":"map","version":"1.10","tiledversion":"1.11.0","orientation":"orthogonal","renderorder":"right-down","width":60,"height":40,"tilewidth":64,"tileheight":64,"infinite":false,"nextlayerid":5,"nextobjectid":278,"properties":[{"name":"theme","type":"string","value":"office"},{"name":"ambient","type":"int","value":0}],"tilesets":[{"firstgid":1,"name":"kenney","image":"../gen/tiles.png","imagewidth":1728,"imageheight":1280,"tilewidth":64,"tileheight":64,"tilecount":540,"columns":27,"margin":0,"spacing":0},{"firstgid":541,"name":"walls","image":"../gen/walls.png","imagewidth":1024,"imageheight":1536,"tilewidth":64,"tileheight":64,"tilecount":384,"columns":16,"margin":0,"spacing":0}],"layers":[{"id":1,"name":"floor","type":"tilelayer","width":60,"height":40,"x":0,"y":0,"opacity":1,"visible":true,"data":[0,0,0,0,0,0,0,0,0,0,0,0,0,0,0,0,0,0,0,0,0,0,0,0,0,0,0,0,0,0,0,0,0,0,0,0,0,0,0,0,0,0,0,0,0,0,0,0,0,0,0,0,0,0,0,0,0,0,0,0,0,96,96,96,96,96,96,96,96,96,96,96,96,96,96,96,96,96,96,96,96,96,96,96,0,12,12,12,12,12,12,12,12,12,12,12,12,0,8,10,10,8,10,8,10,9,9,0,7,7,7,7,7,7,7,7,7,7,7,0,0,96,96,96,96,96,96,96,96,96,96,96,96,96,96,96,96,96,96,96,96,96,96,96,0,12,12,12,12,12,12,12,12,12,12,12,12,0,9,10,10,10,9,10,9,9,9,0,7,7,7,7,7,7,7,7,7,7,7,0,0,96,96,96,96,96,96,96,96,96,96,96,96,96,96,96,96,96,96,96,96,96,96,96,0,12,12,12,12,12,12,12,12,12,12,12,12,0,11,9,11,10,11,9,10,11,8,0,7,7,7,7,7,7,7,7,7,7,7,0,0,96,96,96,96,96,96,96,96,96,96,96,96,96,96,96,96,96,96,96,96,96,96,96,0,12,12,12,12,12,12,12,12,12,12,12,12,0,11,9,9,11,11,11,8,8,9,0,7,7,7,7,7,7,7,7,7,7,7,0,0,96,96,96,96,96,96,96,96,96,96,0,96,96,96,96,96,96,96,96,96,96,96,96,42,12,12,12,12,12,12,12,12,12,12,12,12,0,8,10,8,11,11,9,8,10,10,0,7,7,7,7,7,7,7,7,7,7,7,0,0,96,96,96,96,96,96,96,96,96,96,0,96,96,96,96,96,96,96,96,96,96,96,96,42,12,12,12,12,12,12,12,12,12,12,12,12,0,8,9,10,11,8,9,11,8,9,0,7,7,7,7,7,7,7,7,7,7,7,0,0,96,96,96,96,96,96,96,96,96,96,96,96,96,96,96,96,96,96,96,96,96,96,96,0,12,12,12,12,12,12,12,12,12,12,12,12,0,11,9,10,10,8,8,8,9,8,0,7,7,7,7,7,7,7,7,7,7,7,0,0,96,96,96,96,96,96,96,96,96,96,96,96,96,96,96,96,96,96,96,96,96,96,96,0,12,12,12,12,12,12,12,12,12,12,12,12,0,10,10,11,8,11,8,11,8,9,0,7,7,7,7,7,7,7,7,7,7,7,0,0,96,96,96,96,96,96,96,96,96,96,96,96,96,96,96,96,96,96,96,96,96,96,96,0,12,12,12,12,12,12,12,12,12,12,12,12,0,10,11,10,9,9,11,11,10,8,0,7,7,7,7,7,7,7,7,7,7,7,0,0,96,96,96,96,96,96,96,96,96,96,96,96,96,96,96,96,96,96,96,96,96,96,96,0,12,12,12,12,12,12,12,12,12,12,12,12,0,9,10,11,11,8,8,10,10,10,0,7,7,7,7,7,7,7,7,7,7,7,0,0,96,96,96,96,96,96,96,96,96,96,96,96,96,96,96,96,96,96,96,96,96,96,96,0,12,12,12,12,12,12,12,12,12,12,12,12,0,9,9,8,10,9,10,10,10,8,0,7,7,7,7,7,7,7,7,7,7,7,0,0,96,96,96,96,96,96,96,96,96,96,96,96,96,96,96,96,96,96,96,96,96,96,96,0,12,12,12,12,12,12,12,12,12,12,12,12,0,9,9,10,9,10,10,9,9,8,0,7,7,7,7,7,7,7,7,7,7,7,0,0,0,0,0,0,0,0,0,0,0,42,42,0,0,0,0,0,0,0,0,0,0,0,0,0,0,0,0,0,0,42,42,0,0,0,0,0,0,0,0,0,0,42,0,0,0,0,0,0,0,0,0,42,42,42,42,0,0,0,0,0,42,42,42,42,42,42,42,42,42,42,42,42,42,42,42,42,42,42,42,42,42,42,42,42,42,42,42,42,42,42,42,42,42,42,42,42,42,42,42,42,42,42,42,42,42,42,42,42,42,42,42,42,42,42,42,42,42,42,0,0,42,42,42,42,42,42,42,42,42,42,42,42,42,42,42,42,42,42,42,42,42,42,42,42,42,42,42,42,42,42,42,42,42,42,42,42,42,42,42,42,42,42,42,42,42,42,42,42,42,42,42,42,42,42,42,42,42,42,0,0,42,42,42,42,42,42,42,42,42,42,42,42,42,42,42,42,42,42,42,42,42,42,42,42,42,42,42,42,42,42,42,42,42,42,42,42,42,42,42,42,42,42,42,42,42,42,42,42,42,42,42,42,42,42,42,42,42,42,0,0,0,0,0,0,0,0,0,0,42,42,42,0,0,0,0,0,0,0,0,0,0,0,0,0,0,42,0,0,0,0,0,0,0,0,0,42,0,0,0,0,0,0,0,0,0,0,0,42,42,42,0,0,0,0,0,0,0,0,0,0,14,13,14,13,13,13,14,13,13,13,14,14,14,13,14,14,14,14,14,14,0,10,10,10,10,10,10,10,10,10,0,69,69,69,69,69,69,69,69,69,0,97,97,97,97,97,97,97,97,97,97,97,97,97,97,97,97,97,0,0,13,13,13,13,14,14,13,13,13,13,13,14,14,13,14,13,13,13,13,14,0,10,10,10,10,10,10,10,10,10,0,69,69,69,69,69,69,69,69,69,0,97,97,97,97,97,97,97,97,97,97,97,97,97,97,97,97,97,0,0,14,13,14,13,13,14,14,14,14,14,14,14,13,14,14,14,14,13,14,14,0,10,10,10,10,10,10,10,10,10,0,69,69,69,69,69,69,69,69,69,0,97,97,97,97,97,97,97,97,97,97,97,97,97,97,97,97,97,0,0,13,14,14,14,13,14,13,14,14,14,13,13,13,13,14,13,13,13,14,14,0,10,10,10,10,10,10,10,10,10,0,69,69,69,69,69,69,69,69,69,0,97,97,97,97,97,97,97,97,97,97,97,97,97,97,97,97,97,0,0,14,13,13,14,14,14,14,14,14,13,14,14,13,13,13,13,14,14,14,14,0,10,10,10,10,10,10,10,10,10,0,69,69,69,69,69,69,69,69,69,0,97,97,97,97,97,97,97,97,97,97,97,97,97,97,97,97,97,0,0,14,14,14,14,13,13,14,14,14,14,14,14,13,13,13,13,14,13,14,14,0,10,10,10,10,10,10,10,10,10,0,69,69,69,69,69,69,69,69,69,0,97,97,97,97,97,97,97,97,97,97,97,97,97,97,97,97,97,0,0,14,13,14,14,14,13,14,14,14,14,13,13,14,13,13,13,13,14,13,13,0,10,10,10,10,10,10,10,10,10,0,69,69,69,69,69,69,69,69,69,0,97,97,97,97,97,0,97,97,97,97,97,0,97,97,97,97,97,0,0,14,14,13,13,14,14,13,14,13,14,14,14,13,14,14,14,14,13,13,14,0,10,10,10,10,10,10,10,10,10,0,69,69,69,69,69,69,69,69,69,0,97,97,97,97,97,0,97,97,97,97,97,0,97,97,97,97,97,0,0,14,14,14,13,14,14,14,14,13,14,13,13,14,13,13,13,14,13,13,13,0,10,10,10,10,10,10,10,10,10,0,69,69,69,69,69,69,69,69,69,0,97,97,97,97,97,97,97,97,97,97,97,97,97,97,97,97,97,0,0,13,14,13,13,13,14,14,14,13,14,14,13,14,14,13,13,14,13,14,13,0,0,0,0,0,0,0,0,0,0,0,0,0,0,0,42,0,0,0,0,0,97,97,97,97,97,97,97,97,97,97,97,97,97,97,97,97,97,0,0,13,13,13,13,13,13,14,14,13,14,13,13,14,13,14,14,13,14,14,14,0,12,12,12,12,12,12,12,12,12,0,69,69,69,69,69,69,69,69,69,0,97,97,97,97,97,97,97,97,97,97,97,97,97,97,97,97,97,0,0,14,13,13,13,13,14,13,14,13,14,13,14,14,13,13,14,13,14,14,13,0,12,12,12,12,12,12,12,12,12,0,69,69,69,69,69,69,69,69,69,0,97,97,97,97,97,97,97,97,97,97,97,97,97,97,97,97,97,0,0,13,14,13,14,14,13,13,14,13,13,13,13,14,14,13,14,14,13,14,14,0,0,0,12,12,0,0,12,12,12,0,69,69,69,69,69,69,69,69,69,0,97,97,97,97,97,97,97,97,97,97,97,97,97,97,97,97,97,0,0,13,14,14,14,14,14,13,13,13,14,13,14,14,13,13,13,13,13,13,13,0,12,12,12,12,12,12,12,12,12,0,69,69,69,69,69,69,69,69,69,0,97,97,97,97,97,0,97,97,97,97,97,0,97,97,97,97,97,0,0,13,14,14,14,13,13,14,13,14,14,14,13,14,14,14,14,14,14,13,14,0,12,12,12,12,12,12,12,12,12,0,69,69,69,69,69,69,69,69,69,0,97,97,97,97,97,0,97,97,97,97,97,0,97,97,97,97,97,0,0,13,13,13,13,13,14,14,14,14,13,13,13,14,14,13,13,14,13,13,14,0,0,0,0,0,12,12,12,12,12,0,69,69,69,69,69,69,69,69,69,0,97,97,97,97,97,97,97,97,97,97,97,97,97,97,97,97,97,0,0,13,14,14,13,14,13,14,14,14,14,14,14,13,13,13,13,14,14,14,14,42,12,12,12,12,12,12,12,12,12,0,69,69,69,69,69,69,69,69,69,0,97,97,97,97,97,97,97,97,97,97,97,97,97,97,97,97,97,0,0,13,14,13,14,13,13,14,14,13,13,14,13,14,13,13,13,14,13,13,14,0,12,12,12,12,12,12,12,12,12,0,69,69,69,69,69,69,69,69,69,42,97,97,97,97,97,97,97,97,97,97,97,97,97,97,97,97,97,0,0,13,13,13,14,13,13,14,14,14,13,13,14,14,14,14,14,13,13,13,14,0,12,12,12,12,12,12,12,12,12,0,69,69,69,69,69,69,69,69,69,0,97,97,97,97,97,97,97,97,97,97,97,97,97,97,97,97,97,0,0,13,13,14,13,13,13,14,14,14,14,13,14,13,13,14,14,14,14,13,13,0,12,12,12,12,12,12,12,12,12,0,69,69,69,69,69,69,69,69,69,0,97,97,97,97,97,97,97,97,97,97,97,97,97,97,97,97,97,0,0,13,13,13,13,13,13,14,14,13,13,13,13,14,14,13,13,13,13,14,14,0,12,12,12,12,12,12,12,12,12,0,69,69,69,69,69,69,69,69,69,0,97,97,97,97,97,97,97,97,97,97,97,97,97,97,97,97,97,0,0,0,0,0,0,0,0,0,0,0,0,0,0,0,0,0,0,0,0,0,0,0,0,0,0,0,0,0,0,0,0,0,0,0,0,0,0,0,0,0,0,0,0,0,0,0,0,0,0,0,0,0,0,0,0,0,0,0,0,0]},{"id":2,"name":"decor","type":"tilelayer","width":60,"height":40,"x":0,"y":0,"opacity":1,"visible":true,"data":[0,0,0,0,0,0,0,0,0,0,0,0,0,0,0,0,0,0,0,0,0,0,0,0,0,0,0,0,0,0,0,0,0,0,0,0,0,0,0,0,0,0,0,0,0,0,0,0,0,0,0,0,0,0,0,0,0,0,0,0,0,0,0,0,0,0,0,0,0,0,0,0,0,0,0,0,0,0,0,0,0,0,0,0,0,0,0,0,0,0,0,0,0,0,0,0,0,0,0,0,0,0,0,0,0,0,0,0,0,0,0,0,0,0,0,0,0,0,0,0,0,0,0,0,0,0,0,0,0,0,0,0,0,0,0,0,0,0,0,0,0,0,0,0,0,0,0,0,0,0,0,0,0,0,0,0,0,0,0,0,0,0,0,0,0,0,0,0,0,0,0,0,0,0,0,0,0,0,0,0,0,0,0,0,0,0,0,0,0,0,0,0,0,0,0,0,0,0,0,0,0,0,0,0,0,0,0,0,0,0,0,0,0,0,0,0,0,0,0,0,0,0,0,0,0,0,0,0,0,0,0,0,0,0,0,0,0,0,0,0,0,0,0,0,0,0,0,0,0,0,0,0,0,0,0,0,0,0,0,0,0,0,0,0,0,0,0,0,0,0,0,0,0,0,0,0,0,0,0,0,0,0,0,0,0,0,0,0,0,0,0,0,0,0,0,0,0,0,0,0,0,0,0,0,0,0,0,0,0,0,0,0,0,0,0,0,0,0,0,0,0,0,0,0,0,0,0,0,0,0,0,0,0,0,0,0,0,0,0,0,0,0,0,0,0,0,0,0,0,0,0,0,0,0,0,0,0,0,0,0,0,0,0,0,0,0,0,0,0,0,0,0,0,0,0,0,0,0,0,0,0,0,0,0,0,0,0,0,0,0,0,0,0,0,0,0,0,0,0,0,0,0,0,0,0,0,0,0,0,0,0,0,0,0,0,0,0,0,0,0,0,0,0,0,0,0,0,0,0,0,0,0,0,0,0,0,0,0,0,0,0,0,0,0,0,0,0,0,0,0,0,0,0,0,0,0,0,0,0,0,0,0,0,0,0,0,0,0,0,0,0,0,0,0,0,0,0,0,0,0,0,0,0,0,0,0,0,0,0,0,0,0,0,0,0,0,0,0,0,0,0,0,0,0,0,0,0,0,0,0,0,0,0,0,0,0,0,0,0,0,0,0,0,0,0,0,0,0,0,0,0,0,0,0,0,0,0,0,0,0,0,0,0,0,0,0,0,0,0,0,0,0,0,0,0,0,0,0,0,0,0,0,0,0,0,0,0,0,0,0,0,0,0,0,0,0,0,0,0,0,0,0,0,0,0,0,0,0,0,0,0,0,0,0,0,0,0,0,0,0,0,0,0,0,0,0,0,0,0,0,0,0,0,0,0,0,0,0,0,0,0,0,0,0,0,0,0,0,0,0,0,0,0,0,0,0,0,0,0,0,0,0,0,0,0,0,0,0,0,0,0,0,0,0,0,0,0,0,0,0,0,0,0,0,0,0,0,0,0,0,0,0,0,0,0,0,0,0,0,0,0,0,0,0,0,0,0,0,0,0,0,0,0,0,0,0,0,0,0,0,0,0,0,0,0,0,0,0,0,0,0,0,0,0,0,0,0,0,0,0,0,0,0,0,0,0,0,0,0,0,0,0,0,0,0,0,0,0,0,0,0,0,0,0,0,0,0,0,0,0,0,0,0,0,0,0,0,0,0,0,0,0,0,0,0,0,0,0,0,0,0,0,0,0,0,0,0,0,0,0,0,0,0,0,0,0,0,0,0,0,0,0,0,0,0,0,0,0,0,0,0,0,0,0,0,0,0,0,0,0,0,0,0,0,0,0,0,0,0,0,0,0,0,0,0,0,0,0,0,0,0,0,0,0,0,0,0,0,0,0,0,0,0,0,0,0,0,0,0,0,0,0,0,0,0,0,0,0,0,0,0,0,0,0,0,0,0,0,0,0,0,0,0,0,0,0,0,0,0,0,0,0,0,0,0,0,0,0,0,0,0,0,0,0,0,0,0,0,0,0,0,0,0,0,0,0,0,0,0,0,0,0,0,0,0,0,0,0,0,0,0,0,0,0,0,0,0,0,0,0,0,0,0,0,0,0,0,0,0,0,0,0,0,0,0,0,0,0,0,0,0,0,0,0,0,0,0,0,0,0,0,0,0,0,0,0,0,0,0,0,0,0,0,0,0,0,0,0,0,0,0,0,0,0,0,0,0,0,0,0,0,0,0,0,0,0,0,0,0,0,0,0,0,0,0,0,0,0,0,0,0,0,0,0,0,0,0,0,0,0,0,0,0,0,0,0,0,0,0,0,0,0,0,0,0,0,0,0,0,0,0,0,0,0,0,0,0,0,0,0,0,0,0,0,0,0,0,0,0,0,0,0,0,0,0,0,0,0,0,0,0,0,0,0,0,0,0,0,0,0,0,0,0,0,0,0,0,0,0,0,0,0,0,0,0,0,0,0,0,0,0,0,0,0,0,0,0,0,0,0,0,0,0,0,0,0,0,0,0,0,0,0,0,0,0,0,0,0,0,0,0,0,0,0,0,0,0,0,0,0,0,0,0,0,0,0,0,0,0,0,0,0,0,0,0,0,0,0,0,0,0,0,0,0,0,0,0,0,0,0,0,0,0,373,374,374,374,374,374,375,0,0,0,0,0,0,0,0,0,0,0,0,0,0,0,0,0,0,0,0,0,0,0,0,0,0,0,0,0,0,0,0,0,0,0,0,0,0,0,0,0,0,0,0,0,0,0,0,0,0,0,0,0,400,401,401,401,401,401,402,0,0,0,0,0,0,0,0,0,0,0,0,0,0,0,0,0,0,0,0,0,0,0,0,0,0,0,0,0,0,0,0,0,0,0,0,0,0,0,0,0,0,0,0,0,0,0,0,0,0,0,0,0,400,401,401,401,401,401,402,0,0,0,0,0,0,0,0,0,0,0,0,0,0,0,0,0,0,0,0,0,0,0,0,0,0,0,0,0,0,0,0,0,0,0,0,0,0,0,0,0,0,0,0,0,0,0,0,0,0,0,0,0,400,401,401,401,401,401,402,0,0,0,0,0,0,0,0,0,0,0,0,0,0,0,0,0,0,0,0,0,0,0,0,0,0,0,0,0,0,0,0,0,0,0,0,0,0,0,0,0,0,0,0,0,0,0,0,0,0,0,0,0,400,401,401,401,401,401,402,0,0,0,0,0,0,0,0,0,0,0,0,0,0,0,0,0,0,0,0,0,0,0,0,0,0,0,0,0,0,0,0,0,0,0,0,0,0,0,0,0,0,0,0,0,0,0,0,0,0,0,0,0,400,401,401,401,401,401,402,0,0,0,0,0,0,0,0,0,0,0,0,0,0,0,0,0,0,0,0,0,0,0,0,0,0,0,0,0,0,0,0,0,0,0,0,0,0,0,0,0,0,0,0,0,0,0,0,0,0,0,0,0,427,428,428,428,428,428,429,0,0,0,0,0,0,0,0,0,0,0,0,0,0,0,0,0,0,0,0,0,0,0,0,0,0,0,0,0,0,0,0,0,0,0,0,0,0,0,0,0,0,0,0,0,0,0,0,0,0,0,0,0,0,0,0,0,0,0,0,0,0,0,0,0,0,0,0,0,0,0,0,0,0,0,0,0,0,0,0,0,0,0,0,0,0,0,0,0,0,0,0,0,0,0,0,0,0,0,0,0,0,0,0,0,0,0,0,0,0,0,0,0,0,0,0,0,0,0,0,0,0,0,0,0,0,0,0,0,0,0,0,0,0,0,0,0,0,0,0,0,0,0,0,0,0,0,0,0,0,0,0,0,0,0,0,0,0,0,0,0,0,0,0,0,0,0,0,0,0,0,0,0,0,0,0,0,0,0,0,0,0,0,0,0,0,0,0,0,0,0,0,0,0,0,0,0,0,0,0,0,0,0,0,0,0,0,0,0,0,0,0,0,0,0,0,0,0,0,0,0,0,0,0,0,0,0,0,0,0,0,0,0,0,0,0,0,0,0,0,0,0,0,0,0,0,0,0,0,0,0,0,0,0,0,0,0,0,0,0,0,0,373,374,374,374,375,0,0,0,0,0,0,0,370,371,371,371,372,0,0,0,0,0,0,0,0,0,0,0,0,0,0,0,0,0,0,0,0,0,0,0,0,0,0,0,0,0,0,0,0,0,0,0,0,0,0,0,0,0,0,0,400,401,401,401,402,0,0,0,0,0,0,0,397,398,398,398,399,0,0,0,0,0,0,0,0,0,0,0,0,0,0,0,0,0,0,0,0,0,0,0,0,0,0,0,0,0,0,0,0,0,0,0,0,0,0,0,0,0,0,0,400,401,401,401,402,0,0,0,0,0,0,0,397,398,398,398,399,0,0,0,0,0,0,0,0,0,0,0,0,0,0,0,0,0,0,0,0,0,0,0,0,0,0,0,0,0,0,0,0,0,0,0,0,0,0,0,0,0,0,0,427,428,428,428,429,0,0,0,0,0,0,0,424,425,425,425,426,0,0,0,0,0,0,0,0,0,0,0,0,0,0,0,0,0,0,0,0,0,0,0,0,0,0,0,0,0,0,0,0,0,0,0,0,0,0,0,0,0,0,0,0,0,0,0,0,0,0,0,0,0,0,0,0,0,0,0,0,0,0,0,0,0,0,0,0,0,0,0,0,0,0,0,0,0,0,0,0,0,0,0,0,0,0,0,0,0,0,0,0,0,0,0,0,0,0,0,0,0,0,0,0,0,0,0,0,0,0,0,0,0,0,0,0,0,0,0,0,0,0,0,0,0,0,0,0,0,0,0,0,0,0,0,0,0,0,0,0,0,0,0,0,0,0,0,0,0,0,0,0,0,0,0,0,0,0,0,0,0,0,0,0,0,0,0,0,0,0,0,0,0,0,0,0,0,0,0,0,0,0,0,0,0,0,0,0,0,0,0,0,0,0,0,0,0,0,0,0,0,0,0,0,0,0,0,0,0,0,0,0,0,0,0,0,0,0,0,0,0,0,0,0,0,0,0,0,0,0,0,0,0,0,0,0,0,0,0,0,0,0,0,0,0,0,0,0,0,0,0,0,0,0,0,0,0,0,0,0,0,0,0,0,0,0,0,0,0,0,0,0,0,0,0,0,0,0,0,0,0,0,0,0,0,0,0,0,0,0,0,0,0,0,0,0,0,0,0,0,0,0,0,0,0,0,0,0,0,0,0,0,0,0,0,0,0,0,0,0,0,0,0,0,0,0,0,0,0,0,0,0,0,0,0,0,0,0,0,0,0,0,0,0,0,0,0,0,0,0,0,0,0,0,0,0,0,0,0,0,0,0,0,0,0,0,0,0,0,0,0,0,0,0,0,0,0,0,0,0,0,0,0,0,0,0,0,0,0,0,0,0,0,0,0,0,0,0,0,0,0]},{"id":3,"name":"walls","type":"tilelayer","width":60,"height":40,"x":0,"y":0,"opacity":1,"visible":true,"data":[585,579,579,579,579,579,579,579,579,579,579,579,579,579,579,579,579,579,579,579,579,579,579,579,580,579,579,579,579,579,579,579,579,579,579,579,579,580,579,579,579,579,579,579,579,579,579,580,579,579,579,579,579,579,579,579,579,579,579,582,583,0,0,0,0,0,0,0,0,0,0,0,0,0,0,0,0,0,0,0,0,0,0,0,546,0,0,0,0,0,0,0,0,0,0,0,0,546,0,0,0,0,0,0,0,0,0,546,0,0,0,0,0,0,0,0,0,0,0,565,583,0,0,0,0,0,0,0,0,0,0,0,0,0,0,0,0,0,0,0,0,0,0,0,546,0,0,0,0,0,0,0,0,0,0,0,0,546,0,0,0,0,0,0,0,0,0,546,0,0,0,0,0,0,0,0,0,0,0,565,583,0,0,0,0,0,0,0,0,0,0,0,0,0,0,0,0,0,0,0,0,0,0,0,546,0,0,0,0,0,0,0,0,0,0,0,0,546,0,0,0,0,0,0,0,0,0,546,0,0,0,0,0,0,0,0,0,0,0,565,583,0,0,0,0,0,0,0,0,0,0,0,0,0,0,0,0,0,0,0,0,0,0,0,542,0,0,0,0,0,0,0,0,0,0,0,0,546,0,0,0,0,0,0,0,0,0,546,0,0,0,0,0,0,0,0,0,0,0,565,583,0,0,0,0,0,0,0,0,0,0,545,0,0,0,0,0,0,0,0,0,0,0,0,0,0,0,0,0,0,0,0,0,0,0,0,0,546,0,0,0,0,0,0,0,0,0,546,0,0,0,0,0,0,0,0,0,0,0,565,583,0,0,0,0,0,0,0,0,0,0,542,0,0,0,0,0,0,0,0,0,0,0,0,0,0,0,0,0,0,0,0,0,0,0,0,0,546,0,0,0,0,0,0,0,0,0,546,0,0,0,0,0,0,0,0,0,0,0,565,583,0,0,0,0,0,0,0,0,0,0,0,0,0,0,0,0,0,0,0,0,0,0,0,545,0,0,0,0,0,0,0,0,0,0,0,0,546,0,0,0,0,0,0,0,0,0,546,0,0,0,0,0,0,0,0,0,0,0,565,583,0,0,0,0,0,0,0,0,0,0,0,0,0,0,0,0,0,0,0,0,0,0,0,546,0,0,0,0,0,0,0,0,0,0,0,0,546,0,0,0,0,0,0,0,0,0,546,0,0,0,0,0,0,0,0,0,0,0,565,583,0,0,0,0,0,0,0,0,0,0,0,0,0,0,0,0,0,0,0,0,0,0,0,546,0,0,0,0,0,0,0,0,0,0,0,0,546,0,0,0,0,0,0,0,0,0,546,0,0,0,0,0,0,0,0,0,0,0,565,583,0,0,0,0,0,0,0,0,0,0,0,0,0,0,0,0,0,0,0,0,0,0,0,546,0,0,0,0,0,0,0,0,0,0,0,0,546,0,0,0,0,0,0,0,0,0,546,0,0,0,0,0,0,0,0,0,0,0,565,583,0,0,0,0,0,0,0,0,0,0,0,0,0,0,0,0,0,0,0,0,0,0,0,546,0,0,0,0,0,0,0,0,0,0,0,0,546,0,0,0,0,0,0,0,0,0,546,0,0,0,0,0,0,0,0,0,0,0,565,583,0,0,0,0,0,0,0,0,0,0,0,0,0,0,0,0,0,0,0,0,0,0,0,546,0,0,0,0,0,0,0,0,0,0,0,0,546,0,0,0,0,0,0,0,0,0,546,0,0,0,0,0,0,0,0,0,0,0,565,584,551,551,551,551,551,551,551,551,549,0,0,543,551,551,551,551,551,551,551,551,551,551,551,552,551,551,551,551,549,0,0,543,551,551,551,551,552,551,551,551,549,0,543,551,551,551,552,551,551,551,549,0,0,0,0,543,551,551,566,583,0,0,0,0,0,0,0,0,0,0,0,0,0,0,0,0,0,0,0,0,0,0,0,0,0,0,0,0,0,0,0,0,0,0,0,0,0,0,0,0,0,0,0,0,0,0,0,0,0,0,0,0,0,0,0,0,0,0,565,583,0,0,0,0,0,0,0,0,0,0,0,0,0,0,0,0,0,0,0,0,0,0,0,0,0,0,0,0,0,0,0,0,0,0,0,0,0,0,0,0,0,0,0,0,0,0,0,0,0,0,0,0,0,0,0,0,0,0,565,583,0,0,0,0,0,0,0,0,0,0,0,0,0,0,0,0,0,0,0,0,0,0,0,0,0,0,0,0,0,0,0,0,0,0,0,0,0,0,0,0,0,0,0,0,0,0,0,0,0,0,0,0,0,0,0,0,0,0,565,584,551,551,551,551,551,551,551,549,0,0,0,543,551,551,551,551,551,551,551,551,555,551,551,551,549,0,543,551,551,551,555,551,551,551,549,0,543,551,551,551,555,551,551,551,551,551,549,0,0,0,543,551,551,551,551,551,551,551,566,583,0,0,0,0,0,0,0,0,0,0,0,0,0,0,0,0,0,0,0,0,546,0,0,0,0,0,0,0,0,0,546,0,0,0,0,0,0,0,0,0,546,0,0,0,0,0,0,0,0,0,0,0,0,0,0,0,0,0,565,583,0,0,0,0,0,0,0,0,0,0,0,0,0,0,0,0,0,0,0,0,546,0,0,0,0,0,0,0,0,0,546,0,0,0,0,0,0,0,0,0,546,0,0,0,0,0,0,0,0,0,0,0,0,0,0,0,0,0,565,583,0,0,0,0,0,0,0,0,0,0,0,0,0,0,0,0,0,0,0,0,546,0,0,0,0,0,0,0,0,0,546,0,0,0,0,0,0,0,0,0,546,0,0,0,0,0,0,0,0,0,0,0,0,0,0,0,0,0,565,583,0,0,0,0,0,0,0,0,0,0,0,0,0,0,0,0,0,0,0,0,546,0,0,0,0,0,0,0,0,0,546,0,0,0,0,0,0,0,0,0,546,0,0,0,0,0,0,0,0,0,0,0,0,0,0,0,0,0,565,583,0,0,0,0,0,0,0,0,0,0,0,0,0,0,0,0,0,0,0,0,546,0,0,0,0,0,0,0,0,0,546,0,0,0,0,0,0,0,0,0,546,0,0,0,0,0,0,0,0,0,0,0,0,0,0,0,0,0,565,583,0,0,0,0,0,0,0,0,0,0,0,0,0,0,0,0,0,0,0,0,546,0,0,0,0,0,0,0,0,0,546,0,0,0,0,0,0,0,0,0,546,0,0,0,0,0,0,0,0,0,0,0,0,0,0,0,0,0,565,583,0,0,0,0,0,0,0,0,0,0,0,0,0,0,0,0,0,0,0,0,546,0,0,0,0,0,0,0,0,0,546,0,0,0,0,0,0,0,0,0,546,0,0,0,0,0,545,0,0,0,0,0,545,0,0,0,0,0,565,583,0,0,0,0,0,0,0,0,0,0,0,0,0,0,0,0,0,0,0,0,546,0,0,0,0,0,0,0,0,0,546,0,0,0,0,0,0,0,0,0,546,0,0,0,0,0,542,0,0,0,0,0,542,0,0,0,0,0,565,583,0,0,0,0,0,0,0,0,0,0,0,0,0,0,0,0,0,0,0,0,546,0,0,0,0,0,0,0,0,0,546,0,0,0,0,0,0,0,0,0,546,0,0,0,0,0,0,0,0,0,0,0,0,0,0,0,0,0,565,583,0,0,0,0,0,0,0,0,0,0,0,0,0,0,0,0,0,0,0,0,548,551,551,551,551,551,551,551,551,551,556,551,551,551,549,0,543,551,551,551,554,0,0,0,0,0,0,0,0,0,0,0,0,0,0,0,0,0,565,583,0,0,0,0,0,0,0,0,0,0,0,0,0,0,0,0,0,0,0,0,546,0,0,0,0,0,0,0,0,0,546,0,0,0,0,0,0,0,0,0,546,0,0,0,0,0,0,0,0,0,0,0,0,0,0,0,0,0,565,583,0,0,0,0,0,0,0,0,0,0,0,0,0,0,0,0,0,0,0,0,546,0,0,0,0,0,0,0,0,0,546,0,0,0,0,0,0,0,0,0,546,0,0,0,0,0,0,0,0,0,0,0,0,0,0,0,0,0,565,583,0,0,0,0,0,0,0,0,0,0,0,0,0,0,0,0,0,0,0,0,548,551,549,0,0,543,549,0,0,0,546,0,0,0,0,0,0,0,0,0,546,0,0,0,0,0,0,0,0,0,0,0,0,0,0,0,0,0,565,583,0,0,0,0,0,0,0,0,0,0,0,0,0,0,0,0,0,0,0,0,546,0,0,0,0,0,0,0,0,0,546,0,0,0,0,0,0,0,0,0,546,0,0,0,0,0,545,0,0,0,0,0,545,0,0,0,0,0,565,583,0,0,0,0,0,0,0,0,0,0,0,0,0,0,0,0,0,0,0,0,546,0,0,0,0,0,0,0,0,0,546,0,0,0,0,0,0,0,0,0,546,0,0,0,0,0,542,0,0,0,0,0,542,0,0,0,0,0,565,583,0,0,0,0,0,0,0,0,0,0,0,0,0,0,0,0,0,0,0,0,544,551,551,551,549,0,0,0,0,0,546,0,0,0,0,0,0,0,0,0,546,0,0,0,0,0,0,0,0,0,0,0,0,0,0,0,0,0,565,583,0,0,0,0,0,0,0,0,0,0,0,0,0,0,0,0,0,0,0,0,0,0,0,0,0,0,0,0,0,0,546,0,0,0,0,0,0,0,0,0,542,0,0,0,0,0,0,0,0,0,0,0,0,0,0,0,0,0,565,583,0,0,0,0,0,0,0,0,0,0,0,0,0,0,0,0,0,0,0,0,545,0,0,0,0,0,0,0,0,0,546,0,0,0,0,0,0,0,0,0,0,0,0,0,0,0,0,0,0,0,0,0,0,0,0,0,0,0,565,583,0,0,0,0,0,0,0,0,0,0,0,0,0,0,0,0,0,0,0,0,546,0,0,0,0,0,0,0,0,0,546,0,0,0,0,0,0,0,0,0,545,0,0,0,0,0,0,0,0,0,0,0,0,0,0,0,0,0,565,583,0,0,0,0,0,0,0,0,0,0,0,0,0,0,0,0,0,0,0,0,546,0,0,0,0,0,0,0,0,0,546,0,0,0,0,0,0,0,0,0,546,0,0,0,0,0,0,0,0,0,0,0,0,0,0,0,0,0,565,583,0,0,0,0,0,0,0,0,0,0,0,0,0,0,0,0,0,0,0,0,546,0,0,0,0,0,0,0,0,0,546,0,0,0,0,0,0,0,0,0,546,0,0,0,0,0,0,0,0,0,0,0,0,0,0,0,0,0,565,586,572,572,572,572,572,572,572,572,572,572,572,572,572,572,572,572,572,572,572,572,573,572,572,572,572,572,572,572,572,572,573,572,572,572,572,572,572,572,572,572,573,572,572,572,572,572,572,572,572,572,572,572,572,572,572,572,572,572,574]},{"id":4,"name":"objects","type":"objectgroup","draworder":"topdown","opacity":1,"visible":true,"x":0,"y":0,"objects":[{"id":1,"name":"kitchen_os","type":"door","rotation":0,"visible":true,"x":1560,"y":320,"width":16,"height":128,"properties":[{"name":"theme","type":"string","value":"office"},{"name":"dir","type":"string","value":"v"}]},{"id":2,"name":"os","type":"door","rotation":0,"visible":true,"x":640,"y":856,"width":128,"height":16,"properties":[{"name":"theme","type":"string","value":"office"},{"name":"dir","type":"string","value":"h"}]},{"id":3,"name":"kitchen","type":"door","rotation":0,"visible":true,"x":1920,"y":856,"width":128,"height":16,"properties":[{"name":"theme","type":"string","value":"office"},{"name":"dir","type":"string","value":"h"}]},{"id":4,"name":"server","type":"door","rotation":0,"visible":true,"x":2688,"y":856,"width":64,"height":16,"properties":[{"name":"theme","type":"string","value":"office"},{"name":"locked","type":"string","value":"server"},{"name":"dir","type":"string","value":"h"}]},{"id":5,"name":"elevator","type":"door","rotation":0,"visible":true,"x":3328,"y":856,"width":256,"height":16,"properties":[{"name":"theme","type":"string","value":"office"},{"name":"locked","type":"string","value":"script"},{"name":"dir","type":"string","value":"h"}]},{"id":6,"name":"lobby","type":"door","rotation":0,"visible":true,"x":576,"y":1112,"width":192,"height":16,"properties":[{"name":"theme","type":"string","value":"office"},{"name":"dir","type":"string","value":"h"}]},{"id":7,"name":"security","type":"door","rotation":0,"visible":true,"x":1664,"y":1112,"width":64,"height":16,"properties":[{"name":"theme","type":"string","value":"office"},{"name":"locked","type":"string","value":"blue"},{"name":"dir","type":"string","value":"h"}]},{"id":8,"name":"proryv","type":"door","rotation":0,"visible":true,"x":2304,"y":1112,"width":64,"height":16,"properties":[{"name":"theme","type":"string","value":"office"},{"name":"dir","type":"string","value":"h"}]},{"id":9,"name":"cafeteria","type":"door","rotation":0,"visible":true,"x":3072,"y":1112,"width":192,"height":16,"properties":[{"name":"theme","type":"string","value":"office"},{"name":"dir","type":"string","value":"h"}]},{"id":10,"name":"synergy","type":"door","rotation":0,"visible":true,"x":2304,"y":1752,"width":64,"height":16,"properties":[{"name":"theme","type":"string","value":"office"},{"name":"dir","type":"string","value":"h"}]},{"id":11,"name":"toilet","type":"door","rotation":0,"visible":true,"x":1368,"y":2176,"width":16,"height":64,"properties":[{"name":"theme","type":"string","value":"office"},{"name":"dir","type":"string","value":"v"}]},{"id":12,"name":"syn_caf","type":"door","rotation":0,"visible":true,"x":2648,"y":2240,"width":16,"height":64,"properties":[{"name":"theme","type":"string","value":"office"},{"name":"dir","type":"string","value":"v"}]},{"id":13,"name":"desk_b","type":"prop","rotation":0,"visible":true,"x":144.8,"y":136.4,"width":120,"height":60},{"id":14,"name":"office_chair","type":"prop","rotation":0,"visible":true,"x":177.20000000000002,"y":202.8,"width":36,"height":36},{"id":15,"name":"desk","type":"prop","rotation":0,"visible":true,"x":144.8,"y":366.8,"width":120,"height":60},{"id":16,"name":"office_chair","type":"prop","rotation":0,"visible":true,"x":186.8,"y":433.2,"width":36,"height":36,"properties":[{"name":"rot","type":"int","value":70}]},{"id":17,"name":"desk_b","type":"prop","rotation":0,"visible":true,"x":144.8,"y":597.2,"width":120,"height":60},{"id":18,"name":"office_chair","type":"prop","rotation":0,"visible":true,"x":196.4,"y":663.6,"width":36,"height":36,"properties":[{"name":"rot","type":"int","value":140}]},{"id":19,"name":"desk","type":"prop","rotation":0,"visible":true,"x":413.6,"y":136.4,"width":120,"height":60},{"id":20,"name":"office_chair","type":"prop","rotation":0,"visible":true,"x":455.6,"y":202.8,"width":36,"height":36,"properties":[{"name":"rot","type":"int","value":40}]},{"id":21,"name":"desk_b","type":"prop","rotation":0,"visible":true,"x":413.6,"y":366.8,"width":120,"height":60},{"id":22,"name":"office_chair","type":"prop","rotation":0,"visible":true,"x":465.20000000000005,"y":433.2,"width":36,"height":36,"properties":[{"name":"rot","type":"int","value":110}]},{"id":23,"name":"desk","type":"prop","rotation":0,"visible":true,"x":413.6,"y":597.2,"width":120,"height":60},{"id":24,"name":"office_chair","type":"prop","rotation":0,"visible":true,"x":446,"y":663.6,"width":36,"height":36,"properties":[{"name":"rot","type":"int","value":180}]},{"id":25,"name":"desk_b","type":"prop","rotation":0,"visible":true,"x":925.6,"y":136.4,"width":120,"height":60},{"id":26,"name":"office_chair","type":"prop","rotation":0,"visible":true,"x":977.2,"y":202.8,"width":36,"height":36,"properties":[{"name":"rot","type":"int","value":80}]},{"id":27,"name":"desk","type":"prop","rotation":0,"visible":true,"x":925.6,"y":366.8,"width":120,"height":60},{"id":28,"name":"office_chair","type":"prop","rotation":0,"visible":true,"x":958,"y":433.2,"width":36,"height":36,"properties":[{"name":"rot","type":"int","value":150}]},{"id":29,"name":"desk_b","type":"prop","rotation":0,"visible":true,"x":925.6,"y":597.2,"width":120,"height":60},{"id":30,"name":"office_chair","type":"prop","rotation":0,"visible":true,"x":967.6,"y":663.6,"width":36,"height":36,"properties":[{"name":"rot","type":"int","value":220}]},{"id":31,"name":"desk","type":"prop","rotation":0,"visible":true,"x":1194.4,"y":136.4,"width":120,"height":60},{"id":32,"name":"office_chair","type":"prop","rotation":0,"visible":true,"x":1226.8000000000002,"y":202.8,"width":36,"height":36,"properties":[{"name":"rot","type":"int","value":120}]},{"id":33,"name":"desk_b","type":"prop","rotation":0,"visible":true,"x":1194.4,"y":366.8,"width":120,"height":60},{"id":34,"name":"office_chair","type":"prop","rotation":0,"visible":true,"x":1236.4,"y":433.2,"width":36,"height":36,"properties":[{"name":"rot","type":"int","value":190}]},{"id":35,"name":"desk","type":"prop","rotation":0,"visible":true,"x":1194.4,"y":597.2,"width":120,"height":60},{"id":36,"name":"office_chair","type":"prop","rotation":0,"visible":true,"x":1246,"y":663.6,"width":36,"height":36,"properties":[{"name":"rot","type":"int","value":260}]},{"id":37,"name":"plant","type":"prop","rotation":0,"visible":true,"x":79.9,"y":76.5,"width":45,"height":39},{"id":38,"name":"plant","type":"prop","rotation":0,"visible":true,"x":1411.1,"y":710.1,"width":45,"height":39},{"id":39,"name":"plant","type":"prop","rotation":0,"visible":true,"x":783.9,"y":716.5,"width":45,"height":39},{"id":40,"name":"printer","type":"prop","rotation":0,"visible":true,"x":1392.8,"y":80.4,"width":56,"height":44},{"id":41,"name":"water_cooler","type":"prop","rotation":0,"visible":true,"x":1416.6,"y":379.8,"width":34,"height":34},{"id":42,"name":"cabinet","type":"prop","rotation":0,"visible":true,"x":767.6,"y":76,"width":52,"height":40},{"id":43,"name":"whiteboard","type":"prop","rotation":0,"visible":true,"x":413.6,"y":65.6,"width":120,"height":16},{"id":44,"name":"","type":"note","rotation":0,"visible":true,"x":473.6,"y":102.4,"width":0,"height":0,"point":true,"properties":[{"name":"text","type":"string","value":"Доска: «Цель квартала — +300% яйценоскости. Кто не несётся — тот не с нами»"}]},{"id":45,"name":"","type":"note","rotation":0,"visible":true,"x":1420.8,"y":140.8,"width":0,"height":0,"point":true,"properties":[{"name":"text","type":"string","value":"Принтер: «Замятие бумаги. И перьев»"}]},{"id":46,"name":"","type":"note","rotation":0,"visible":true,"x":793.6,"y":128,"width":0,"height":0,"point":true,"properties":[{"name":"text","type":"string","value":"Плакат: «Улыбайтесь! Ваш KPI видит вас»"}]},{"id":47,"name":"","type":"label","rotation":0,"visible":true,"x":755.2,"y":505.6,"width":0,"height":0,"point":true,"properties":[{"name":"text","type":"string","value":"ОПЕНСПЕЙС «ИНКУБАТОР»"},{"name":"size","type":"int","value":26}]},{"id":48,"name":"player","type":"spawn","rotation":0,"visible":true,"x":192,"y":742.4,"width":0,"height":0,"point":true},{"id":49,"name":"player","type":"spawn","rotation":0,"visible":true,"x":281.6,"y":742.4,"width":0,"height":0,"point":true},{"id":50,"name":"player","type":"spawn","rotation":0,"visible":true,"x":371.2,"y":742.4,"width":0,"height":0,"point":true},{"id":51,"name":"player","type":"spawn","rotation":0,"visible":true,"x":460.8,"y":742.4,"width":0,"height":0,"point":true},{"id":52,"name":"oleg","type":"npc","rotation":0,"visible":true,"x":614.4,"y":697.6,"width":0,"height":0,"point":true,"properties":[{"name":"kind","type":"string","value":"manBrown"},{"name":"title","type":"string","value":"Олег из бухгалтерии"},{"name":"angle","type":"int","value":-90},{"name":"mode","type":"string","value":"idle"},{"name":"lines","type":"string","value":"Что-то мне нехорошо…|Этот КУКАРЕКС какой-то странный…|Ко… кхм. Извини."}]},{"id":53,"name":"sveta","type":"npc","rotation":0,"visible":true,"x":985.6,"y":224,"width":0,"height":0,"point":true,"properties":[{"name":"kind","type":"string","value":"womanGreen"},{"name":"title","type":"string","value":"Света, маркетинг"},{"name":"angle","type":"int","value":-90},{"name":"mode","type":"string","value":"idle"},{"name":"tag","type":"string","value":"coworker"},{"name":"turn","type":"string","value":"normal"},{"name":"lines","type":"string","value":"Кто-нибудь пробовал КУКАРЕКС? Бодрит!|У меня чешется шея…"}]},{"id":54,"name":"dima","type":"npc","rotation":0,"visible":true,"x":1254.4,"y":454.4,"width":0,"height":0,"point":true,"properties":[{"name":"kind","type":"string","value":"manBlue"},{"name":"title","type":"string","value":"Дима, стажёр"},{"name":"angle","type":"int","value":-90},{"name":"mode","type":"string","value":"idle"},{"name":"tag","type":"string","value":"coworker"},{"name":"turn","type":"string","value":"fast"},{"name":"lines","type":"string","value":"Я выпил три банки! Я ВСЁ МОГУ!|Ко! Ко-ко! Ой."}]},{"id":55,"name":"arkady","type":"npc","rotation":0,"visible":true,"x":473.6,"y":224,"width":0,"height":0,"point":true,"properties":[{"name":"kind","type":"string","value":"hitman"},{"name":"title","type":"string","value":"Аркадий, менеджер"},{"name":"angle","type":"int","value":-90},{"name":"mode","type":"string","value":"idle"},{"name":"tag","type":"string","value":"coworker"},{"name":"turn","type":"string","value":"normal"},{"name":"lines","type":"string","value":"Где квартальный отчёт?!|Я не толстый, я — синергичный."}]},{"id":56,"name":"olga","type":"npc","rotation":0,"visible":true,"x":1216,"y":678.4,"width":0,"height":0,"point":true,"properties":[{"name":"kind","type":"string","value":"womanGreen"},{"name":"title","type":"string","value":"Ольга, HR"},{"name":"angle","type":"int","value":-90},{"name":"mode","type":"string","value":"idle"},{"name":"tag","type":"string","value":"coworker"},{"name":"turn","type":"string","value":"normal"},{"name":"lines","type":"string","value":"Тимбилдинг в субботу обязателен!|Почему у всех перья?"}]},{"id":57,"name":"kirill","type":"npc","rotation":0,"visible":true,"x":998.4,"y":678.4,"width":0,"height":0,"point":true,"properties":[{"name":"kind","type":"string","value":"manBrown"},{"name":"title","type":"string","value":"Кирилл, дизайнер"},{"name":"angle","type":"int","value":-90},{"name":"mode","type":"string","value":"idle"},{"name":"tag","type":"string","value":"coworker"},{"name":"turn","type":"string","value":"normal"},{"name":"lines","type":"string","value":"Сделайте логотип покрупнее… и покурнее.|Мне нужен пиксель-перфект клюв."}]},{"id":58,"name":"counter_a","type":"prop","rotation":0,"visible":true,"x":1600,"y":65,"width":64,"height":62},{"id":59,"name":"stove","type":"prop","rotation":0,"visible":true,"x":1664,"y":65,"width":64,"height":62},{"id":60,"name":"hob","type":"prop","rotation":0,"visible":true,"x":1728,"y":65,"width":64,"height":62},{"id":61,"name":"counter_b","type":"prop","rotation":0,"visible":true,"x":1792,"y":64,"width":64,"height":64},{"id":62,"name":"sink","type":"prop","rotation":0,"visible":true,"x":1856,"y":65,"width":64,"height":62},{"id":63,"name":"counter_a","type":"prop","rotation":0,"visible":true,"x":1920,"y":65,"width":64,"height":62},{"id":64,"name":"vending","type":"prop","rotation":0,"visible":true,"x":2182.4,"y":74,"width":64,"height":44},{"id":65,"name":"","type":"note","rotation":0,"visible":true,"x":2214.4,"y":140.8,"width":0,"height":0,"point":true,"properties":[{"name":"text","type":"string","value":"Автомат: «КУКАРЕКС — энергия, от которой хочется нестись!»"}]},{"id":66,"name":"table_long","type":"prop","rotation":0,"visible":true,"x":1864.4,"y":379.6,"width":188,"height":60},{"id":67,"name":"chair_1","type":"prop","rotation":0,"visible":true,"x":1845.8,"y":332,"width":46,"height":40,"properties":[{"name":"rot","type":"int","value":180}]},{"id":68,"name":"chair_2","type":"prop","rotation":0,"visible":true,"x":2018.6,"y":332,"width":46,"height":40,"properties":[{"name":"rot","type":"int","value":180}]},{"id":69,"name":"chair_0","type":"prop","rotation":0,"visible":true,"x":1842.8,"y":445.7,"width":52,"height":43},{"id":70,"name":"chair_3","type":"prop","rotation":0,"visible":true,"x":2018.6,"y":447.2,"width":46,"height":40},{"id":71,"name":"table_round","type":"prop","rotation":0,"visible":true,"x":1698,"y":635.6,"width":60,"height":60},{"id":72,"name":"chair_0","type":"prop","rotation":0,"visible":true,"x":1702,"y":708.1,"width":52,"height":43},{"id":73,"name":"chair_1","type":"prop","rotation":0,"visible":true,"x":1705,"y":581.6,"width":46,"height":40,"properties":[{"name":"rot","type":"int","value":180}]},{"id":74,"name":"table_round","type":"prop","rotation":0,"visible":true,"x":2158.8,"y":635.6,"width":60,"height":60},{"id":75,"name":"chair_2","type":"prop","rotation":0,"visible":true,"x":2165.8,"y":709.6,"width":46,"height":40},{"id":76,"name":"chair_3","type":"prop","rotation":0,"visible":true,"x":2165.8,"y":581.6,"width":46,"height":40,"properties":[{"name":"rot","type":"int","value":180}]},{"id":77,"name":"crate_small","type":"prop","rotation":0,"visible":true,"x":2299.3,"y":366,"width":35,"height":36},{"id":78,"name":"crate_small","type":"prop","rotation":0,"visible":true,"x":2299.3,"y":417.2,"width":35,"height":36},{"id":79,"name":"crate_small_rot","type":"prop","rotation":0,"visible":true,"x":2251.5,"y":389.1,"width":41,"height":41},{"id":80,"name":"","type":"note","rotation":0,"visible":true,"x":2291.2,"y":409.6,"width":0,"height":0,"point":true,"properties":[{"name":"text","type":"string","value":"Ящики «КУКАРЕКС». Наклейка: «Экспериментальная партия. Не для людей»"}]},{"id":81,"name":"","type":"note","rotation":0,"visible":true,"x":1824,"y":140.8,"width":0,"height":0,"point":true,"properties":[{"name":"text","type":"string","value":"Объявление: «Обед строго с 13:00 до 13:07»"}]},{"id":82,"name":"weapon","type":"pickup","rotation":0,"visible":true,"x":1958.4,"y":409.6,"width":0,"height":0,"point":true,"properties":[{"name":"weapon","type":"string","value":"smg"}]},{"id":83,"name":"health","type":"pickup","rotation":0,"visible":true,"x":1651.2,"y":729.6,"width":0,"height":0,"point":true},{"id":84,"name":"","type":"label","rotation":0,"visible":true,"x":1971.2,"y":256,"width":0,"height":0,"point":true,"properties":[{"name":"text","type":"string","value":"КУХНЯ «ЗЕРНО ИСТИНЫ»"},{"name":"size","type":"int","value":22}]},{"id":85,"name":"kitchen","type":"spawner","rotation":0,"visible":true,"x":2316.8,"y":224,"width":0,"height":0,"point":true,"properties":[{"name":"how","type":"string","value":"vent"}]},{"id":86,"name":"kitchen_enter","type":"trigger","rotation":0,"visible":true,"x":1600,"y":192,"width":128,"height":320},{"id":87,"name":"server_rack","type":"prop","rotation":0,"visible":true,"x":2498,"y":123.6,"width":60,"height":60},{"id":88,"name":"server_rack","type":"prop","rotation":0,"visible":true,"x":2562,"y":123.6,"width":60,"height":60},{"id":89,"name":"server_rack","type":"prop","rotation":0,"visible":true,"x":2626,"y":123.6,"width":60,"height":60},{"id":90,"name":"server_rack","type":"prop","rotation":0,"visible":true,"x":2754,"y":123.6,"width":60,"height":60},{"id":91,"name":"server_rack","type":"prop","rotation":0,"visible":true,"x":2818,"y":123.6,"width":60,"height":60},{"id":92,"name":"server_rack","type":"prop","rotation":0,"visible":true,"x":2882,"y":123.6,"width":60,"height":60},{"id":93,"name":"server_rack","type":"prop","rotation":0,"visible":true,"x":2498,"y":290,"width":60,"height":60},{"id":94,"name":"server_rack","type":"prop","rotation":0,"visible":true,"x":2562,"y":290,"width":60,"height":60},{"id":95,"name":"server_rack","type":"prop","rotation":0,"visible":true,"x":2626,"y":290,"width":60,"height":60},{"id":96,"name":"server_rack","type":"prop","rotation":0,"visible":true,"x":2754,"y":290,"width":60,"height":60},{"id":97,"name":"server_rack","type":"prop","rotation":0,"visible":true,"x":2818,"y":290,"width":60,"height":60},{"id":98,"name":"server_rack","type":"prop","rotation":0,"visible":true,"x":2882,"y":290,"width":60,"height":60},{"id":99,"name":"server_rack","type":"prop","rotation":0,"visible":true,"x":2498,"y":456.4,"width":60,"height":60},{"id":100,"name":"server_rack","type":"prop","rotation":0,"visible":true,"x":2562,"y":456.4,"width":60,"height":60},{"id":101,"name":"server_rack","type":"prop","rotation":0,"visible":true,"x":2626,"y":456.4,"width":60,"height":60},{"id":102,"name":"server_rack","type":"prop","rotation":0,"visible":true,"x":2754,"y":456.4,"width":60,"height":60},{"id":103,"name":"server_rack","type":"prop","rotation":0,"visible":true,"x":2818,"y":456.4,"width":60,"height":60},{"id":104,"name":"server_rack","type":"prop","rotation":0,"visible":true,"x":2882,"y":456.4,"width":60,"height":60},{"id":105,"name":"lab_console","type":"prop","rotation":0,"visible":true,"x":2688,"y":703.2,"width":64,"height":40},{"id":106,"name":"cabinet","type":"prop","rotation":0,"visible":true,"x":2482.8,"y":703.2,"width":52,"height":40},{"id":107,"name":"reboot","type":"use","rotation":0,"visible":true,"x":2720,"y":723.2,"width":0,"height":0,"point":true,"properties":[{"name":"hint","type":"string","value":"перезагрузить сервер"}]},{"id":108,"name":"","type":"note","rotation":0,"visible":true,"x":2918.4,"y":716.8,"width":0,"height":0,"point":true,"properties":[{"name":"text","type":"string","value":"Табличка: «Перезагрузка решает 90% проблем. Остальные 10% — тоже»"}]},{"id":109,"name":"","type":"label","rotation":0,"visible":true,"x":2720,"y":601.6,"width":0,"height":0,"point":true,"properties":[{"name":"text","type":"string","value":"СЕРВЕРНАЯ"},{"name":"size","type":"int","value":20}]},{"id":110,"name":"","type":"light","rotation":0,"visible":true,"x":2720,"y":416,"width":0,"height":0,"point":true,"properties":[{"name":"kind","type":"string","value":"lamp"},{"name":"color","type":"string","value":"5fb6ff"},{"name":"radius","type":"int","value":240}]},{"id":111,"name":"srv","type":"spawner","rotation":0,"visible":true,"x":2963.2,"y":729.6,"width":0,"height":0,"point":true,"properties":[{"name":"how","type":"string","value":"vent"}]},{"id":112,"name":"srv","type":"spawner","rotation":0,"visible":true,"x":2470.4,"y":89.6,"width":0,"height":0,"point":true,"properties":[{"name":"how","type":"string","value":"vent"}]},{"id":113,"name":"near","type":"spawner","rotation":0,"visible":true,"x":2336,"y":992,"width":0,"height":0,"point":true,"properties":[{"name":"how","type":"string","value":"vent"}]},{"id":114,"name":"near","type":"spawner","rotation":0,"visible":true,"x":3168,"y":992,"width":0,"height":0,"point":true,"properties":[{"name":"how","type":"string","value":"vent"}]},{"id":115,"name":"elevator","type":"prop","rotation":0,"visible":true,"x":3200,"y":70.4,"width":128,"height":128},{"id":116,"name":"elevator","type":"prop","rotation":0,"visible":true,"x":3494.4,"y":70.4,"width":128,"height":128},{"id":117,"name":"plant","type":"prop","rotation":0,"visible":true,"x":3087.9,"y":703.7,"width":45,"height":39},{"id":118,"name":"plant","type":"prop","rotation":0,"visible":true,"x":3708.7,"y":703.7,"width":45,"height":39},{"id":119,"name":"sofa_dark","type":"prop","rotation":0,"visible":true,"x":3321.2,"y":708.1,"width":180,"height":43},{"id":120,"name":"","type":"note","rotation":0,"visible":true,"x":3411.2,"y":243.2,"width":0,"height":0,"point":true,"properties":[{"name":"text","type":"string","value":"Табличка: «Максимальная нагрузка: 8 человек или 40 кур»"}]},{"id":121,"name":"","type":"label","rotation":0,"visible":true,"x":3411.2,"y":448,"width":0,"height":0,"point":true,"properties":[{"name":"text","type":"string","value":"ЛИФТЫ"},{"name":"size","type":"int","value":26}]},{"id":122,"name":"elevator","type":"trigger","rotation":0,"visible":true,"x":3072,"y":64,"width":704,"height":320,"properties":[{"name":"all","type":"bool","value":true}]},{"id":123,"name":"","type":"light","rotation":0,"visible":true,"x":320,"y":915.2,"width":0,"height":0,"point":true,"properties":[{"name":"kind","type":"string","value":"emergency"},{"name":"color","type":"string","value":"ff2a1a"},{"name":"radius","type":"int","value":230}]},{"id":124,"name":"","type":"light","rotation":0,"visible":true,"x":1088,"y":915.2,"width":0,"height":0,"point":true,"properties":[{"name":"kind","type":"string","value":"emergency"},{"name":"color","type":"string","value":"ff2a1a"},{"name":"radius","type":"int","value":230}]},{"id":125,"name":"","type":"light","rotation":0,"visible":true,"x":1856,"y":915.2,"width":0,"height":0,"point":true,"properties":[{"name":"kind","type":"string","value":"emergency"},{"name":"color","type":"string","value":"ff2a1a"},{"name":"radius","type":"int","value":230}]},{"id":126,"name":"","type":"light","rotation":0,"visible":true,"x":2624,"y":915.2,"width":0,"height":0,"point":true,"properties":[{"name":"kind","type":"string","value":"emergency"},{"name":"color","type":"string","value":"ff2a1a"},{"name":"radius","type":"int","value":230}]},{"id":127,"name":"","type":"light","rotation":0,"visible":true,"x":3392,"y":915.2,"width":0,"height":0,"point":true,"properties":[{"name":"kind","type":"string","value":"emergency"},{"name":"color","type":"string","value":"ff2a1a"},{"name":"radius","type":"int","value":230}]},{"id":128,"name":"poster","type":"prop","rotation":0,"visible":true,"x":360,"y":898.6,"width":48,"height":14},{"id":129,"name":"","type":"note","rotation":0,"visible":true,"x":384,"y":928,"width":0,"height":0,"point":true,"properties":[{"name":"text","type":"string","value":"Плакат: «Корпоративная ценность №1: Мы — одна семья. Семья кур»"}]},{"id":130,"name":"poster_b","type":"prop","rotation":0,"visible":true,"x":1256,"y":898.6,"width":48,"height":14},{"id":131,"name":"","type":"note","rotation":0,"visible":true,"x":1280,"y":928,"width":0,"height":0,"point":true,"properties":[{"name":"text","type":"string","value":"Плакат: «Пятничный дресс-код: перья приветствуются»"}]},{"id":132,"name":"poster","type":"prop","rotation":0,"visible":true,"x":2792,"y":898.6,"width":48,"height":14},{"id":133,"name":"","type":"note","rotation":0,"visible":true,"x":2816,"y":928,"width":0,"height":0,"point":true,"properties":[{"name":"text","type":"string","value":"Плакат: «Курникс Групп — несём будущее!»"}]},{"id":134,"name":"plant","type":"prop","rotation":0,"visible":true,"x":73.5,"y":1030.1,"width":45,"height":39},{"id":135,"name":"plant","type":"prop","rotation":0,"visible":true,"x":3721.5,"y":1030.1,"width":45,"height":39},{"id":136,"name":"water_cooler","type":"prop","rotation":0,"visible":true,"x":2127,"y":1032.6,"width":34,"height":34},{"id":137,"name":"corridor","type":"trigger","rotation":0,"visible":true,"x":64,"y":896,"width":3712,"height":192},{"id":138,"name":"server_door","type":"trigger","rotation":0,"visible":true,"x":2624,"y":896,"width":192,"height":192,"properties":[{"name":"once","type":"bool","value":false}]},{"id":139,"name":"security_door","type":"trigger","rotation":0,"visible":true,"x":1600,"y":896,"width":192,"height":192,"properties":[{"name":"once","type":"bool","value":false}]},{"id":140,"name":"corridor","type":"spawner","rotation":0,"visible":true,"x":102.4,"y":960,"width":0,"height":0,"point":true,"properties":[{"name":"how","type":"string","value":"vent"}]},{"id":141,"name":"corridor","type":"spawner","rotation":0,"visible":true,"x":3731.2,"y":960,"width":0,"height":0,"point":true,"properties":[{"name":"how","type":"string","value":"vent"}]},{"id":142,"name":"reception","type":"prop","rotation":0,"visible":true,"x":582,"y":1449.8,"width":180,"height":70},{"id":143,"name":"","type":"note","rotation":0,"visible":true,"x":672,"y":1427.2,"width":0,"height":0,"point":true,"properties":[{"name":"text","type":"string","value":"Табличка: «Опоздание = минус яйцо из премии»"}]},{"id":144,"name":"sofa_green","type":"prop","rotation":0,"visible":true,"x":168,"y":2120.9,"width":176,"height":59},{"id":145,"name":"coffee_table","type":"prop","rotation":0,"visible":true,"x":231,"y":2044.8000000000002,"width":50,"height":32},{"id":146,"name":"sofa_orange","type":"prop","rotation":0,"visible":true,"x":981.2,"y":2120.4,"width":188,"height":60},{"id":147,"name":"coffee_table","type":"prop","rotation":0,"visible":true,"x":1050.2,"y":2044.8000000000002,"width":50,"height":32},{"id":148,"name":"plant","type":"prop","rotation":0,"visible":true,"x":79.9,"y":1170.9,"width":45,"height":39},{"id":149,"name":"plant","type":"prop","rotation":0,"visible":true,"x":1219.1,"y":1170.9,"width":45,"height":39},{"id":150,"name":"plant","type":"prop","rotation":0,"visible":true,"x":79.9,"y":2431.7,"width":45,"height":39},{"id":151,"name":"plant","type":"prop","rotation":0,"visible":true,"x":1219.1,"y":2431.7,"width":45,"height":39},{"id":152,"name":"aquarium","type":"prop","rotation":0,"visible":true,"x":630,"y":1865,"width":84,"height":46},{"id":153,"name":"","type":"label","rotation":0,"visible":true,"x":672,"y":1702.4,"width":0,"height":0,"point":true,"properties":[{"name":"text","type":"string","value":"РЕСЕПШН"},{"name":"size","type":"int","value":28}]},{"id":154,"name":"galina","type":"npc","rotation":0,"visible":true,"x":672,"y":1401.6,"width":0,"height":0,"point":true,"properties":[{"name":"kind","type":"string","value":"womanGreen"},{"name":"title","type":"string","value":"Галина, ресепшн"},{"name":"mode","type":"string","value":"cower"},{"name":"angle","type":"int","value":90},{"name":"lines","type":"string","value":"Вы записаны?|Только не бегите, у меня каблуки!"}]},{"id":155,"name":"entrance","type":"spawner","rotation":0,"visible":true,"x":416,"y":2406.4,"width":0,"height":0,"point":true,"properties":[{"name":"how","type":"string","value":"vent"}]},{"id":156,"name":"entrance","type":"spawner","rotation":0,"visible":true,"x":672,"y":2406.4,"width":0,"height":0,"point":true,"properties":[{"name":"how","type":"string","value":"vent"}]},{"id":157,"name":"entrance","type":"spawner","rotation":0,"visible":true,"x":928,"y":2406.4,"width":0,"height":0,"point":true,"properties":[{"name":"how","type":"string","value":"vent"}]},{"id":158,"name":"lobby","type":"trigger","rotation":0,"visible":true,"x":64,"y":1152,"width":1280,"height":1344},{"id":159,"name":"lab_console","type":"prop","rotation":0,"visible":true,"x":1536,"y":1170.4,"width":64,"height":40},{"id":160,"name":"lab_console","type":"prop","rotation":0,"visible":true,"x":1734.4,"y":1170.4,"width":64,"height":40},{"id":161,"name":"cabinet","type":"prop","rotation":0,"visible":true,"x":1874.4,"y":1382,"width":40,"height":52,"properties":[{"name":"rot","type":"int","value":90}]},{"id":162,"name":"chair_blue","type":"prop","rotation":0,"visible":true,"x":1640,"y":1258.5,"width":48,"height":43},{"id":163,"name":"","type":"note","rotation":0,"visible":true,"x":1664,"y":1248,"width":0,"height":0,"point":true,"properties":[{"name":"text","type":"string","value":"Мониторы видеонаблюдения: везде курицы. На всех камерах. Даже в лифте."}]},{"id":164,"name":"petrovich","type":"npc","rotation":0,"visible":true,"x":1664,"y":1433.6,"width":0,"height":0,"point":true,"properties":[{"name":"kind","type":"string","value":"soldier"},{"name":"title","type":"string","value":"Петрович, охрана"},{"name":"mode","type":"string","value":"guard"},{"name":"weapon","type":"string","value":"shotgun"},{"name":"hp","type":"int","value":160},{"name":"angle","type":"int","value":-90},{"name":"lines","type":"string","value":"Сорок лет охраняю этот курятник. Не думал, что в прямом смысле.|Пропуск! А, ладно."}]},{"id":165,"name":"weapon","type":"pickup","rotation":0,"visible":true,"x":1497.6,"y":1638.4,"width":0,"height":0,"point":true,"properties":[{"name":"weapon","type":"string","value":"shotgun"}]},{"id":166,"name":"armor","type":"pickup","rotation":0,"visible":true,"x":1888,"y":1638.4,"width":0,"height":0,"point":true},{"id":167,"name":"ammo","type":"pickup","rotation":0,"visible":true,"x":1696,"y":1638.4,"width":0,"height":0,"point":true},{"id":168,"name":"","type":"label","rotation":0,"visible":true,"x":1664,"y":1536,"width":0,"height":0,"point":true,"properties":[{"name":"text","type":"string","value":"ОХРАНА"},{"name":"size","type":"int","value":20}]},{"id":169,"name":"security_in","type":"trigger","rotation":0,"visible":true,"x":1408,"y":1152,"width":576,"height":576},{"id":170,"name":"sink","type":"prop","rotation":0,"visible":true,"x":1856,"y":1793,"width":64,"height":62},{"id":171,"name":"sink","type":"prop","rotation":0,"visible":true,"x":1792,"y":1793,"width":64,"height":62},{"id":172,"name":"bin","type":"prop","rotation":0,"visible":true,"x":1867.9,"y":1961,"width":53,"height":46},{"id":173,"name":"","type":"note","rotation":0,"visible":true,"x":1843.2,"y":1868.8,"width":0,"height":0,"point":true,"properties":[{"name":"text","type":"string","value":"Табличка: «Не бросайте перья в унитаз»"}]},{"id":174,"name":"semyon","type":"npc","rotation":0,"visible":true,"x":1536,"y":2336,"width":0,"height":0,"point":true,"properties":[{"name":"kind","type":"string","value":"manOld"},{"name":"title","type":"string","value":"Семён Аркадьевич"},{"name":"mode","type":"string","value":"idle"},{"name":"angle","type":"int","value":0},{"name":"lines","type":"string","value":"Я тут с обеда сижу. Что-то пропустил?|Молодой человек, у вас перо на плече.|В мои годы куры знали своё место — в бульоне."}]},{"id":175,"name":"health","type":"pickup","rotation":0,"visible":true,"x":1888,"y":2400,"width":0,"height":0,"point":true},{"id":176,"name":"health","type":"pickup","rotation":0,"visible":true,"x":1728,"y":2400,"width":0,"height":0,"point":true},{"id":177,"name":"","type":"label","rotation":0,"visible":true,"x":1760,"y":2259.2,"width":0,"height":0,"point":true,"properties":[{"name":"text","type":"string","value":"WC"},{"name":"size","type":"int","value":30}]},{"id":178,"name":"toilet","type":"trigger","rotation":0,"visible":true,"x":1408,"y":1792,"width":576,"height":704},{"id":179,"name":"table_big","type":"prop","rotation":0,"visible":true,"x":2210,"y":1339.6,"width":188,"height":188},{"id":180,"name":"chair_0","type":"prop","rotation":0,"visible":true,"x":2192.9,"y":1330.8,"width":43,"height":52,"properties":[{"name":"rot","type":"int","value":90}]},{"id":181,"name":"chair_2","type":"prop","rotation":0,"visible":true,"x":2194.4,"y":1487.4,"width":40,"height":46,"properties":[{"name":"rot","type":"int","value":90}]},{"id":182,"name":"chair_3","type":"prop","rotation":0,"visible":true,"x":2373.6,"y":1333.8,"width":40,"height":46,"properties":[{"name":"rot","type":"int","value":270}]},{"id":183,"name":"chair_1","type":"prop","rotation":0,"visible":true,"x":2373.6,"y":1487.4,"width":40,"height":46,"properties":[{"name":"rot","type":"int","value":270}]},{"id":184,"name":"chair_0","type":"prop","rotation":0,"visible":true,"x":2278,"y":1284.1,"width":52,"height":43,"properties":[{"name":"rot","type":"int","value":180}]},{"id":185,"name":"chair_1","type":"prop","rotation":0,"visible":true,"x":2281,"y":1548,"width":46,"height":40},{"id":186,"name":"whiteboard","type":"prop","rotation":0,"visible":true,"x":2244,"y":1153.6,"width":120,"height":16},{"id":187,"name":"","type":"note","rotation":0,"visible":true,"x":2304,"y":1190.4,"width":0,"height":0,"point":true,"properties":[{"name":"text","type":"string","value":"Доска: «Совещание \"Как повысить яйценоскость\" перенесено на понедельник»"}]},{"id":188,"name":"plant","type":"prop","rotation":0,"visible":true,"x":2057.5,"y":1164.5,"width":45,"height":39},{"id":189,"name":"plant","type":"prop","rotation":0,"visible":true,"x":2505.5,"y":1612.5,"width":45,"height":39},{"id":190,"name":"","type":"label","rotation":0,"visible":true,"x":2304,"y":1638.4,"width":0,"height":0,"point":true,"properties":[{"name":"text","type":"string","value":"ПЕРЕГОВОРНАЯ «ПРОРЫВ»"},{"name":"size","type":"int","value":16}]},{"id":191,"name":"proryv","type":"trigger","rotation":0,"visible":true,"x":2048,"y":1152,"width":576,"height":576},{"id":192,"name":"table_long","type":"prop","rotation":0,"visible":true,"x":2210,"y":2043.6,"width":188,"height":60},{"id":193,"name":"chair_0","type":"prop","rotation":0,"visible":true,"x":2188.4,"y":1988.1,"width":52,"height":43,"properties":[{"name":"rot","type":"int","value":180}]},{"id":194,"name":"chair_1","type":"prop","rotation":0,"visible":true,"x":2281,"y":1989.6,"width":46,"height":40,"properties":[{"name":"rot","type":"int","value":180}]},{"id":195,"name":"chair_2","type":"prop","rotation":0,"visible":true,"x":2370.6,"y":1989.6,"width":46,"height":40,"properties":[{"name":"rot","type":"int","value":180}]},{"id":196,"name":"chair_3","type":"prop","rotation":0,"visible":true,"x":2191.4,"y":2117.6,"width":46,"height":40},{"id":197,"name":"chair_0","type":"prop","rotation":0,"visible":true,"x":2278,"y":2116.1,"width":52,"height":43},{"id":198,"name":"chair_1","type":"prop","rotation":0,"visible":true,"x":2370.6,"y":2117.6,"width":46,"height":40},{"id":199,"name":"tv","type":"prop","rotation":0,"visible":true,"x":2426.8,"y":1798.2,"width":100,"height":26},{"id":200,"name":"","type":"note","rotation":0,"visible":true,"x":2476.8,"y":1849.6,"width":0,"height":0,"point":true,"properties":[{"name":"text","type":"string","value":"Экран: «Синергия — это когда 1 + 1 = курица»"}]},{"id":201,"name":"marat","type":"npc","rotation":0,"visible":true,"x":2137.6,"y":2393.6,"width":0,"height":0,"point":true,"properties":[{"name":"kind","type":"string","value":"manBlue"},{"name":"title","type":"string","value":"Марат, айтишник"},{"name":"mode","type":"string","value":"cower"},{"name":"angle","type":"int","value":-45},{"name":"lines","type":"string","value":"Вы пробовали выключить и включить?|У меня есть пропуск охраны. Не спрашивай откуда."}]},{"id":202,"name":"normal","type":"enemy","rotation":0,"visible":true,"x":2240,"y":2304,"width":0,"height":0,"point":true,"properties":[{"name":"tag","type":"string","value":"syn"},{"name":"aggro","type":"bool","value":false}]},{"id":203,"name":"normal","type":"enemy","rotation":0,"visible":true,"x":2400,"y":2336,"width":0,"height":0,"point":true,"properties":[{"name":"tag","type":"string","value":"syn"},{"name":"aggro","type":"bool","value":false}]},{"id":204,"name":"fast","type":"enemy","rotation":0,"visible":true,"x":2176,"y":2227.2,"width":0,"height":0,"point":true,"properties":[{"name":"tag","type":"string","value":"syn"},{"name":"aggro","type":"bool","value":false}]},{"id":205,"name":"normal","type":"enemy","rotation":0,"visible":true,"x":2464,"y":1920,"width":0,"height":0,"point":true,"properties":[{"name":"tag","type":"string","value":"syn"},{"name":"aggro","type":"bool","value":false}]},{"id":206,"name":"","type":"label","rotation":0,"visible":true,"x":2304,"y":1907.2,"width":0,"height":0,"point":true,"properties":[{"name":"text","type":"string","value":"ПЕРЕГОВОРНАЯ «СИНЕРГИЯ»"},{"name":"size","type":"int","value":16}]},{"id":207,"name":"table_round","type":"prop","rotation":0,"visible":true,"x":2818,"y":1314,"width":60,"height":60},{"id":208,"name":"chair_0","type":"prop","rotation":0,"visible":true,"x":2768.9,"y":1318,"width":43,"height":52,"properties":[{"name":"rot","type":"int","value":90}]},{"id":209,"name":"chair_1","type":"prop","rotation":0,"visible":true,"x":2885.6,"y":1321,"width":40,"height":46,"properties":[{"name":"rot","type":"int","value":270}]},{"id":210,"name":"chair_2","type":"prop","rotation":0,"visible":true,"x":2825,"y":1266.4,"width":46,"height":40,"properties":[{"name":"rot","type":"int","value":180}]},{"id":211,"name":"chair_3","type":"prop","rotation":0,"visible":true,"x":2825,"y":1381.6,"width":46,"height":40},{"id":212,"name":"table_round","type":"prop","rotation":0,"visible":true,"x":2818,"y":1774.8,"width":60,"height":60},{"id":213,"name":"chair_0","type":"prop","rotation":0,"visible":true,"x":2768.9,"y":1778.8,"width":43,"height":52,"properties":[{"name":"rot","type":"int","value":90}]},{"id":214,"name":"chair_1","type":"prop","rotation":0,"visible":true,"x":2885.6,"y":1781.8,"width":40,"height":46,"properties":[{"name":"rot","type":"int","value":270}]},{"id":215,"name":"chair_2","type":"prop","rotation":0,"visible":true,"x":2825,"y":1727.2,"width":46,"height":40,"properties":[{"name":"rot","type":"int","value":180}]},{"id":216,"name":"chair_3","type":"prop","rotation":0,"visible":true,"x":2825,"y":1842.3999999999999,"width":46,"height":40},{"id":217,"name":"table_round","type":"prop","rotation":0,"visible":true,"x":2818,"y":2235.6,"width":60,"height":60},{"id":218,"name":"chair_0","type":"prop","rotation":0,"visible":true,"x":2768.9,"y":2239.6,"width":43,"height":52,"properties":[{"name":"rot","type":"int","value":90}]},{"id":219,"name":"chair_1","type":"prop","rotation":0,"visible":true,"x":2885.6,"y":2242.6,"width":40,"height":46,"properties":[{"name":"rot","type":"int","value":270}]},{"id":220,"name":"chair_2","type":"prop","rotation":0,"visible":true,"x":2825,"y":2188,"width":46,"height":40,"properties":[{"name":"rot","type":"int","value":180}]},{"id":221,"name":"chair_3","type":"prop","rotation":0,"visible":true,"x":2825,"y":2303.2,"width":46,"height":40},{"id":222,"name":"table_round","type":"prop","rotation":0,"visible":true,"x":3170,"y":1314,"width":60,"height":60},{"id":223,"name":"chair_0","type":"prop","rotation":0,"visible":true,"x":3120.9,"y":1318,"width":43,"height":52,"properties":[{"name":"rot","type":"int","value":90}]},{"id":224,"name":"chair_1","type":"prop","rotation":0,"visible":true,"x":3237.6,"y":1321,"width":40,"height":46,"properties":[{"name":"rot","type":"int","value":270}]},{"id":225,"name":"chair_2","type":"prop","rotation":0,"visible":true,"x":3177,"y":1266.4,"width":46,"height":40,"properties":[{"name":"rot","type":"int","value":180}]},{"id":226,"name":"chair_3","type":"prop","rotation":0,"visible":true,"x":3177,"y":1381.6,"width":46,"height":40},{"id":227,"name":"table_round","type":"prop","rotation":0,"visible":true,"x":3170,"y":1774.8,"width":60,"height":60},{"id":228,"name":"chair_0","type":"prop","rotation":0,"visible":true,"x":3120.9,"y":1778.8,"width":43,"height":52,"properties":[{"name":"rot","type":"int","value":90}]},{"id":229,"name":"chair_1","type":"prop","rotation":0,"visible":true,"x":3237.6,"y":1781.8,"width":40,"height":46,"properties":[{"name":"rot","type":"int","value":270}]},{"id":230,"name":"chair_2","type":"prop","rotation":0,"visible":true,"x":3177,"y":1727.2,"width":46,"height":40,"properties":[{"name":"rot","type":"int","value":180}]},{"id":231,"name":"chair_3","type":"prop","rotation":0,"visible":true,"x":3177,"y":1842.3999999999999,"width":46,"height":40},{"id":232,"name":"table_round","type":"prop","rotation":0,"visible":true,"x":3170,"y":2235.6,"width":60,"height":60},{"id":233,"name":"chair_0","type":"prop","rotation":0,"visible":true,"x":3120.9,"y":2239.6,"width":43,"height":52,"properties":[{"name":"rot","type":"int","value":90}]},{"id":234,"name":"chair_1","type":"prop","rotation":0,"visible":true,"x":3237.6,"y":2242.6,"width":40,"height":46,"properties":[{"name":"rot","type":"int","value":270}]},{"id":235,"name":"chair_2","type":"prop","rotation":0,"visible":true,"x":3177,"y":2188,"width":46,"height":40,"properties":[{"name":"rot","type":"int","value":180}]},{"id":236,"name":"chair_3","type":"prop","rotation":0,"visible":true,"x":3177,"y":2303.2,"width":46,"height":40},{"id":237,"name":"table_round","type":"prop","rotation":0,"visible":true,"x":3554,"y":1314,"width":60,"height":60},{"id":238,"name":"chair_0","type":"prop","rotation":0,"visible":true,"x":3504.9,"y":1318,"width":43,"height":52,"properties":[{"name":"rot","type":"int","value":90}]},{"id":239,"name":"chair_1","type":"prop","rotation":0,"visible":true,"x":3621.6,"y":1321,"width":40,"height":46,"properties":[{"name":"rot","type":"int","value":270}]},{"id":240,"name":"chair_2","type":"prop","rotation":0,"visible":true,"x":3561,"y":1266.4,"width":46,"height":40,"properties":[{"name":"rot","type":"int","value":180}]},{"id":241,"name":"chair_3","type":"prop","rotation":0,"visible":true,"x":3561,"y":1381.6,"width":46,"height":40},{"id":242,"name":"table_round","type":"prop","rotation":0,"visible":true,"x":3554,"y":1774.8,"width":60,"height":60},{"id":243,"name":"chair_0","type":"prop","rotation":0,"visible":true,"x":3504.9,"y":1778.8,"width":43,"height":52,"properties":[{"name":"rot","type":"int","value":90}]},{"id":244,"name":"chair_1","type":"prop","rotation":0,"visible":true,"x":3621.6,"y":1781.8,"width":40,"height":46,"properties":[{"name":"rot","type":"int","value":270}]},{"id":245,"name":"chair_2","type":"prop","rotation":0,"visible":true,"x":3561,"y":1727.2,"width":46,"height":40,"properties":[{"name":"rot","type":"int","value":180}]},{"id":246,"name":"chair_3","type":"prop","rotation":0,"visible":true,"x":3561,"y":1842.3999999999999,"width":46,"height":40},{"id":247,"name":"table_round","type":"prop","rotation":0,"visible":true,"x":3554,"y":2235.6,"width":60,"height":60},{"id":248,"name":"chair_0","type":"prop","rotation":0,"visible":true,"x":3504.9,"y":2239.6,"width":43,"height":52,"properties":[{"name":"rot","type":"int","value":90}]},{"id":249,"name":"chair_1","type":"prop","rotation":0,"visible":true,"x":3621.6,"y":2242.6,"width":40,"height":46,"properties":[{"name":"rot","type":"int","value":270}]},{"id":250,"name":"chair_2","type":"prop","rotation":0,"visible":true,"x":3561,"y":2188,"width":46,"height":40,"properties":[{"name":"rot","type":"int","value":180}]},{"id":251,"name":"chair_3","type":"prop","rotation":0,"visible":true,"x":3561,"y":2303.2,"width":46,"height":40},{"id":252,"name":"vending","type":"prop","rotation":0,"visible":true,"x":2758.4,"y":1162,"width":64,"height":44},{"id":253,"name":"vending","type":"prop","rotation":0,"visible":true,"x":2873.6,"y":1162,"width":64,"height":44},{"id":254,"name":"counter_c","type":"prop","rotation":0,"visible":true,"x":3648,"y":1441,"width":64,"height":62},{"id":255,"name":"counter_d","type":"prop","rotation":0,"visible":true,"x":3648,"y":1504,"width":64,"height":64},{"id":256,"name":"counter_c","type":"prop","rotation":0,"visible":true,"x":3648,"y":1569,"width":64,"height":62},{"id":257,"name":"","type":"note","rotation":0,"visible":true,"x":2848,"y":1228.8,"width":0,"height":0,"point":true,"properties":[{"name":"text","type":"string","value":"Автомат: «КУКАРЕКС ZERO — 0% сахара, 100% перьев»"}]},{"id":258,"name":"weapon","type":"pickup","rotation":0,"visible":true,"x":3200,"y":1600,"width":0,"height":0,"point":true,"properties":[{"name":"weapon","type":"string","value":"rifle"}]},{"id":259,"name":"ammo","type":"pickup","rotation":0,"visible":true,"x":2816,"y":2400,"width":0,"height":0,"point":true},{"id":260,"name":"ammo","type":"pickup","rotation":0,"visible":true,"x":3648,"y":2400,"width":0,"height":0,"point":true},{"id":261,"name":"health","type":"pickup","rotation":0,"visible":true,"x":3212.8,"y":2022.4,"width":0,"height":0,"point":true},{"id":262,"name":"","type":"label","rotation":0,"visible":true,"x":3212.8,"y":2060.8,"width":0,"height":0,"point":true,"properties":[{"name":"text","type":"string","value":"СТОЛОВАЯ «НАСЕСТ»"},{"name":"size","type":"int","value":24}]},{"id":263,"name":"caf","type":"spawner","rotation":0,"visible":true,"x":3686.4,"y":2406.4,"width":0,"height":0,"point":true,"properties":[{"name":"how","type":"string","value":"vent"}]},{"id":264,"name":"caf","type":"spawner","rotation":0,"visible":true,"x":2726.4,"y":2406.4,"width":0,"height":0,"point":true,"properties":[{"name":"how","type":"string","value":"vent"}]},{"id":265,"name":"caf","type":"spawner","rotation":0,"visible":true,"x":3686.4,"y":1190.4,"width":0,"height":0,"point":true,"properties":[{"name":"how","type":"string","value":"vent"}]},{"id":266,"name":"cafeteria","type":"trigger","rotation":0,"visible":true,"x":2688,"y":1152,"width":1088,"height":1344},{"id":267,"name":"","type":"light","rotation":0,"visible":true,"x":3200,"y":1408,"width":0,"height":0,"point":true,"properties":[{"name":"kind","type":"string","value":"emergency"},{"name":"color","type":"string","value":"ff2a1a"},{"name":"radius","type":"int","value":260}]},{"id":268,"name":"","type":"light","rotation":0,"visible":true,"x":3200,"y":2176,"width":0,"height":0,"point":true,"properties":[{"name":"kind","type":"string","value":"emergency"},{"name":"color","type":"string","value":"ff2a1a"},{"name":"radius","type":"int","value":260}]},{"id":269,"name":"","type":"light","rotation":0,"visible":true,"x":2816,"y":1856,"width":0,"height":0,"point":true,"properties":[{"name":"kind","type":"string","value":"emergency"},{"name":"color","type":"string","value":"ff2a1a"},{"name":"radius","type":"int","value":260}]},{"id":270,"name":"","type":"light","rotation":0,"visible":true,"x":3648,"y":1856,"width":0,"height":0,"point":true,"properties":[{"name":"kind","type":"string","value":"emergency"},{"name":"color","type":"string","value":"ff2a1a"},{"name":"radius","type":"int","value":260}]},{"id":271,"name":"","type":"light","rotation":0,"visible":true,"x":768,"y":416,"width":0,"height":0,"point":true,"properties":[{"name":"kind","type":"string","value":"emergency"},{"name":"color","type":"string","value":"ff2a1a"},{"name":"radius","type":"int","value":240}]},{"id":272,"name":"","type":"light","rotation":0,"visible":true,"x":1952,"y":384,"width":0,"height":0,"point":true,"properties":[{"name":"kind","type":"string","value":"emergency"},{"name":"color","type":"string","value":"ff2a1a"},{"name":"radius","type":"int","value":240}]},{"id":273,"name":"","type":"light","rotation":0,"visible":true,"x":3392,"y":384,"width":0,"height":0,"point":true,"properties":[{"name":"kind","type":"string","value":"emergency"},{"name":"color","type":"string","value":"ff2a1a"},{"name":"radius","type":"int","value":240}]},{"id":274,"name":"","type":"light","rotation":0,"visible":true,"x":672,"y":1920,"width":0,"height":0,"point":true,"properties":[{"name":"kind","type":"string","value":"emergency"},{"name":"color","type":"string","value":"ff2a1a"},{"name":"radius","type":"int","value":240}]},{"id":275,"name":"","type":"light","rotation":0,"visible":true,"x":2304,"y":1408,"width":0,"height":0,"point":true,"properties":[{"name":"kind","type":"string","value":"emergency"},{"name":"color","type":"string","value":"ff2a1a"},{"name":"radius","type":"int","value":240}]},{"id":276,"name":"","type":"light","rotation":0,"visible":true,"x":2304,"y":2112,"width":0,"height":0,"point":true,"properties":[{"name":"kind","type":"string","value":"emergency"},{"name":"color","type":"string","value":"ff2a1a"},{"name":"radius","type":"int","value":240}]},{"id":277,"name":"","type":"light","rotation":0,"visible":true,"x":1664,"y":1984,"width":0,"height":0,"point":true,"properties":[{"name":"kind","type":"string","value":"emergency"},{"name":"color","type":"string","value":"ff2a1a"},{"name":"radius","type":"int","value":240}]}]}]}