{"type":"map","version":"1.10","tiledversion":"1.11.0","orientation":"orthogonal","renderorder":"right-down","width":72,"height":44,"tilewidth":64,"tileheight":64,"infinite":false,"nextlayerid":5,"nextobjectid":168,"properties":[{"name":"theme","type":"string","value":"office7"},{"name":"ambient","type":"int","value":0},{"name":"wallFace","type":"string","value":"office7"}],"tilesets":[{"firstgid":1,"name":"kenney","image":"../gen/tiles.png","imagewidth":1728,"imageheight":1280,"tilewidth":64,"tileheight":64,"tilecount":540,"columns":27,"margin":0,"spacing":0},{"firstgid":541,"name":"walls","image":"../gen/walls.png","imagewidth":1024,"imageheight":768,"tilewidth":64,"tileheight":64,"tilecount":192,"columns":16,"margin":0,"spacing":0}],"layers":[{"id":1,"name":"floor","type":"tilelayer","width":72,"height":44,"x":0,"y":0,"opacity":1,"visible":true,"data":[0,0,0,0,0,0,0,0,0,0,0,0,0,0,0,0,0,0,0,0,0,0,0,0,0,0,0,0,0,0,0,0,0,0,0,0,0,0,0,0,0,0,0,0,0,0,0,0,0,0,0,0,0,0,0,0,0,0,0,0,0,0,0,0,0,0,0,0,0,0,0,0,0,0,0,0,0,0,0,0,0,0,0,0,0,0,0,0,0,0,0,0,0,0,0,0,0,0,0,0,0,0,0,0,0,0,0,0,0,0,0,0,0,0,0,0,0,0,0,0,0,0,0,0,0,0,0,0,0,0,0,0,0,0,0,0,0,0,0,0,0,0,0,0,0,0,501,501,501,501,501,501,501,501,501,501,501,501,501,0,501,501,501,501,501,501,501,501,501,501,501,501,501,501,501,501,501,501,501,501,501,501,501,501,0,12,12,12,12,12,12,12,12,0,501,501,501,501,501,501,501,501,501,501,501,501,501,501,501,501,501,501,501,0,0,0,0,0,501,501,501,501,501,501,501,501,501,501,501,501,501,0,501,501,501,501,501,501,501,501,501,501,501,501,501,501,501,501,501,501,501,501,501,501,501,501,0,502,502,502,12,12,12,12,12,0,501,501,501,501,501,501,501,501,501,501,501,501,501,501,501,501,501,501,501,0,0,0,0,0,501,501,501,501,501,501,501,501,501,501,501,501,501,0,501,501,501,501,501,501,501,501,501,501,501,501,501,501,501,501,501,501,501,501,501,501,501,501,0,502,502,502,12,12,12,12,12,0,501,501,501,501,501,501,501,501,501,501,501,501,501,501,501,501,501,501,501,0,0,0,0,0,501,501,501,501,501,501,501,501,501,501,501,501,501,0,501,501,501,501,501,501,501,501,501,501,501,501,501,501,501,501,501,501,501,501,501,501,501,501,0,502,502,502,12,12,12,12,12,0,501,501,501,501,501,501,501,501,501,501,501,501,501,501,501,501,501,501,501,0,0,0,0,0,501,501,501,501,501,501,501,501,501,501,501,501,501,0,501,501,501,501,501,501,501,501,501,501,501,501,501,501,501,501,501,501,501,501,501,501,501,501,0,502,502,502,12,12,12,12,12,0,501,501,501,501,501,501,501,501,501,501,501,501,501,501,501,501,501,501,501,0,0,0,0,0,501,501,501,501,501,501,501,501,501,501,501,501,501,0,501,501,501,501,501,501,501,501,501,501,501,501,501,501,501,501,501,501,501,501,501,501,501,501,0,502,502,502,12,12,12,12,12,0,501,501,501,501,501,501,501,501,501,501,501,501,501,501,501,501,501,501,501,0,0,0,0,0,501,501,501,501,501,501,501,501,501,501,501,501,501,0,501,501,501,501,501,501,501,501,501,501,501,501,501,501,501,501,501,501,501,501,501,501,501,501,0,502,502,502,12,12,12,12,12,502,501,501,501,501,501,501,501,501,501,501,501,501,501,501,501,501,501,501,501,0,0,0,0,0,501,501,501,501,501,501,501,501,501,501,501,501,501,0,501,501,501,501,501,501,501,501,501,501,501,501,501,501,501,501,501,501,501,501,501,501,501,501,0,502,502,502,12,12,12,12,12,502,501,501,501,501,501,501,501,501,501,501,501,501,501,501,501,501,501,501,501,0,0,0,0,0,501,501,501,501,501,501,501,501,501,501,501,501,501,0,501,501,501,501,501,501,501,501,501,501,501,501,501,501,501,501,501,501,501,501,501,501,501,501,0,502,502,502,12,12,12,12,12,502,501,501,501,501,501,501,501,501,501,501,501,501,501,501,501,501,501,501,501,0,0,0,0,0,501,501,501,501,501,501,501,501,501,501,501,501,501,0,501,501,501,501,501,501,501,501,501,501,501,501,501,501,501,501,501,501,501,501,501,501,501,501,0,502,502,502,12,12,12,12,12,0,501,501,501,501,501,501,501,501,501,501,501,501,501,501,501,501,501,501,501,0,0,0,0,0,501,501,501,501,501,501,501,501,501,501,501,501,501,0,501,501,501,501,501,501,501,501,501,501,501,501,501,501,501,501,501,501,501,501,501,501,501,501,0,502,502,502,12,12,12,12,12,0,501,501,501,501,501,501,501,501,501,501,501,501,501,501,501,501,501,501,501,0,0,0,0,0,501,501,501,501,501,501,501,501,501,501,501,501,501,0,501,501,501,501,501,501,501,501,501,501,501,501,501,501,501,501,501,501,501,501,501,501,501,501,0,502,502,502,0,0,0,0,0,0,501,501,501,501,501,501,501,501,501,501,501,501,501,501,501,501,501,501,501,0,0,0,0,0,501,501,501,501,501,501,501,501,501,501,501,501,501,0,501,501,501,501,501,501,501,501,501,501,501,501,501,501,501,501,501,501,501,501,501,501,501,501,0,502,502,502,501,501,501,501,501,0,501,501,501,501,501,501,501,501,501,501,501,501,501,501,501,501,501,501,501,0,0,0,0,0,501,501,501,501,501,501,501,501,501,501,501,501,501,0,501,501,501,501,501,501,501,501,501,501,501,501,501,501,501,501,501,501,501,501,501,501,501,501,0,502,502,502,501,501,501,501,501,0,501,501,501,501,501,501,501,501,501,501,501,501,501,501,501,501,501,501,501,0,0,0,0,0,501,501,501,501,501,501,501,501,501,501,501,501,501,0,501,501,501,501,501,501,501,501,501,501,501,501,501,501,501,501,501,501,501,501,501,501,501,501,0,502,502,502,501,501,501,501,501,0,501,501,501,501,501,501,501,501,501,501,501,501,501,501,501,501,501,501,501,0,0,0,0,0,501,501,501,501,501,501,501,501,501,501,501,501,501,0,501,501,501,501,501,501,501,501,501,501,501,501,501,501,501,501,501,501,501,501,501,501,501,501,0,502,502,502,501,501,501,501,501,0,501,501,501,501,501,501,501,501,501,501,501,501,501,501,501,501,501,501,501,0,0,0,0,0,0,0,0,0,0,0,502,502,502,0,0,0,0,0,501,501,501,501,501,501,501,501,501,501,501,501,501,501,501,501,501,501,501,501,501,501,501,501,0,502,502,502,501,501,501,501,501,0,501,501,501,501,501,501,501,501,501,501,501,501,501,501,501,501,501,501,0,0,0,0,0,0,0,0,0,0,0,0,502,502,502,0,0,0,0,0,501,501,501,501,501,501,501,501,501,501,501,501,501,501,501,501,501,501,501,501,501,501,501,501,0,502,502,502,501,501,501,501,501,502,501,501,501,501,501,501,501,501,501,501,501,501,501,501,501,501,501,501,0,0,0,0,0,0,0,0,0,0,0,0,502,502,502,0,0,0,0,0,501,501,501,501,501,501,501,501,501,501,501,501,501,501,501,501,501,501,501,501,501,501,501,501,0,502,502,502,501,501,501,501,501,502,501,501,501,501,501,501,501,501,501,501,501,501,501,501,501,501,501,0,0,0,0,0,0,0,0,0,0,0,0,0,502,502,502,0,0,0,0,0,501,501,501,501,501,501,501,501,501,501,501,501,501,501,501,501,501,501,501,501,501,501,501,501,0,502,502,502,501,501,501,501,501,502,501,501,501,501,501,501,501,501,501,501,501,501,501,501,501,501,501,0,0,0,0,0,0,0,0,0,0,0,0,0,502,502,502,0,0,0,0,0,0,0,0,0,0,0,0,0,0,0,0,502,502,502,0,0,0,0,0,0,0,0,0,0,0,502,502,502,0,0,0,0,0,502,0,0,0,0,0,0,0,0,0,0,0,0,0,0,0,0,0,0,0,0,0,0,0,0,502,502,502,502,502,502,502,502,502,502,502,502,502,502,502,502,502,502,502,502,502,502,502,502,502,502,502,502,502,502,502,502,502,502,502,502,502,502,502,502,502,502,502,502,502,502,502,502,502,502,502,502,502,502,502,502,502,502,501,501,501,501,501,501,0,0,0,0,0,0,0,0,502,502,502,502,502,502,502,502,502,502,502,502,502,502,502,502,502,502,502,502,502,502,502,502,502,502,502,502,502,502,502,502,502,502,502,502,502,502,502,502,502,502,502,502,502,502,502,502,502,502,502,502,502,502,502,502,502,502,502,502,501,501,501,0,0,0,0,0,0,0,0,0,502,502,502,502,502,502,502,502,502,502,502,502,502,502,502,502,502,502,502,502,502,502,502,502,502,502,502,502,502,502,502,502,502,502,502,502,502,502,502,502,502,502,502,502,502,502,502,502,502,502,502,502,502,502,502,502,502,502,502,502,501,501,501,0,0,0,0,0,0,0,0,0,502,502,502,502,502,502,502,502,502,502,502,502,502,502,502,502,502,502,502,502,502,502,502,502,502,502,502,502,502,502,502,502,502,502,502,502,502,502,502,502,502,502,502,502,502,502,502,502,502,502,502,502,502,502,502,502,502,502,502,502,501,501,0,0,0,0,0,0,0,0,0,0,0,0,0,0,0,0,502,502,502,0,0,0,0,0,0,0,0,502,502,0,0,0,0,0,0,502,502,502,0,0,0,0,0,0,0,0,0,0,0,0,0,0,502,502,502,0,0,0,0,0,0,0,502,502,502,0,0,0,501,501,501,501,0,0,0,0,0,0,0,0,0,0,501,501,501,501,501,501,501,501,501,501,501,501,501,0,502,502,502,502,502,502,502,502,0,501,501,501,501,501,501,501,501,501,501,501,501,501,501,501,0,502,502,502,502,502,502,502,502,502,0,501,501,501,501,501,501,501,501,0,501,501,501,0,0,0,0,0,0,0,0,0,0,0,501,501,501,501,501,501,501,501,501,501,501,501,501,0,502,502,502,502,502,502,502,502,0,501,501,501,501,501,501,501,501,501,501,501,501,501,501,501,0,502,502,502,502,502,502,502,502,502,0,501,501,501,501,501,501,501,501,0,501,501,501,0,0,0,0,0,0,0,0,0,0,0,501,501,501,501,501,501,501,501,501,501,501,501,501,0,502,502,502,502,502,502,502,502,0,501,501,501,501,501,501,501,501,501,501,501,501,501,501,501,0,502,502,502,502,502,502,502,502,502,0,501,501,501,501,501,501,501,501,0,501,501,0,0,0,0,0,0,0,0,0,0,0,0,501,501,501,501,501,501,501,501,501,501,501,501,501,0,502,502,502,502,502,502,502,502,0,501,501,501,501,501,501,501,501,501,501,501,501,501,501,501,0,502,502,502,502,502,502,502,502,502,0,501,501,501,501,501,501,501,501,0,501,501,0,0,0,0,0,0,0,0,0,0,0,0,501,501,501,501,501,501,501,501,501,501,501,501,501,0,502,502,502,502,502,502,502,502,0,501,501,501,501,501,501,501,501,501,501,501,501,501,501,501,0,502,502,502,502,502,502,502,502,502,0,501,501,501,501,501,501,501,501,0,0,0,0,0,0,0,0,0,0,0,0,0,0,0,501,501,501,501,501,501,501,501,501,501,501,501,501,0,502,502,502,502,502,502,502,502,0,501,501,501,501,501,501,501,501,501,501,501,501,501,501,501,0,502,502,502,502,502,502,502,502,502,0,501,501,501,501,501,501,501,501,0,0,0,0,0,0,0,0,0,0,0,0,0,0,0,501,501,501,501,501,501,501,501,501,501,501,501,501,0,502,502,502,502,502,502,502,502,0,501,501,501,501,501,501,501,501,501,501,501,501,501,501,501,0,502,502,502,502,502,502,502,502,502,0,501,501,501,501,501,501,501,501,0,0,0,0,0,0,0,0,0,0,0,0,0,0,0,501,501,501,501,501,501,501,501,501,501,501,501,501,0,502,502,502,502,502,502,502,502,0,501,501,501,501,501,501,501,501,501,501,501,501,501,501,501,0,502,502,502,502,502,502,502,502,502,0,501,501,501,501,501,501,501,501,0,0,0,0,0,0,0,0,0,0,0,0,0,0,0,501,501,501,501,501,501,501,501,501,501,501,501,501,0,502,502,502,502,502,502,502,502,0,501,501,501,501,501,501,501,501,501,501,501,501,501,501,501,0,502,502,502,502,502,502,502,502,502,0,501,501,501,501,501,501,501,501,0,0,0,0,0,0,0,0,0,0,0,0,0,0,0,501,501,501,501,501,501,501,501,501,501,501,501,501,0,502,502,502,502,502,502,502,502,0,501,501,501,501,501,501,501,501,501,501,501,501,501,501,501,0,502,502,502,502,502,502,502,502,502,0,501,501,501,501,501,501,501,501,0,0,0,0,0,0,0,0,0,0,0,0,0,0,0,501,501,501,501,501,501,501,501,501,501,501,501,501,0,502,502,502,502,502,502,502,502,0,501,501,501,501,501,501,501,501,501,501,501,501,501,501,501,0,502,502,502,502,502,502,502,502,502,0,501,501,501,501,501,501,501,0,0,0,0,0,0,0,0,0,0,0,0,0,0,0,0,501,501,501,501,501,501,501,501,501,501,501,501,501,0,502,502,502,502,502,502,502,502,0,501,501,501,501,501,501,501,501,501,501,501,501,501,501,501,0,502,502,502,502,502,502,502,502,502,0,501,501,501,501,501,501,501,0,0,0,0,0,0,0,0,0,0,0,0,0,0,0,0,501,501,501,501,501,501,501,501,501,501,501,501,501,0,502,502,502,502,502,502,502,502,0,501,501,501,501,501,501,501,501,501,501,501,501,501,501,501,0,502,502,502,502,502,502,502,502,502,0,0,0,0,0,0,0,0,0,0,0,0,0,0,0,0,0,0,0,0,0,0,0,0,0,0,0,0,0,0,0,0,0,0,0,0,0,0,0,0,0,0,0,0,0,0,0,501,501,501,501,501,501,501,501,501,501,501,501,501,501,501,0,0,0,0,0,0,0,0,0,0,0,0,0,0,0,0,0,0,0,0,0,0,0,0,0,0,0,0,0,0,0,0,0,0,0,0,0,0,0,0,0,0,0,0,0,0,0,0,0,0,0,0,0,0,0,0,0,0,0,0,0,0,0,0,0,0,0,0,0,0,0,0,0,0,0,0,0,0,0,0,0,0,0,0,0,0,0,0,0,0,0,0,0,0,0,0,0,0,0,0,0,0,0,0,0,0,0,0,0,0,0,0,0,0,0,0,0,0,0,0,0,0,0,0,0,0,0,0,0,0,0,0,0,0,0,0,0,0,0,0,0,0,0,0,0,0,0,0,0,0,0,0,0,0,0,0,0,0,0,0,0,0,0,0,0,0,0,0,0,0,0,0,0,0,0,0]},{"id":2,"name":"decor","type":"tilelayer","width":72,"height":44,"x":0,"y":0,"opacity":1,"visible":true,"data":[0,0,0,0,0,0,0,0,0,0,0,0,0,0,0,0,0,0,0,0,0,0,0,0,0,0,0,0,0,0,0,0,0,0,0,0,0,0,0,0,0,0,0,0,0,0,0,0,0,0,0,0,0,0,0,0,0,0,0,0,0,0,0,0,0,0,0,0,0,0,0,0,0,0,0,0,0,0,0,0,0,0,0,0,0,0,0,0,0,0,0,0,0,0,0,0,0,0,0,0,0,0,0,0,0,0,0,0,0,0,0,0,0,0,0,0,0,0,0,0,0,0,0,0,0,0,0,0,0,0,0,0,0,0,0,0,0,0,0,0,0,0,0,0,0,0,0,0,0,0,0,0,0,0,0,0,0,0,0,0,0,0,0,0,0,0,0,0,0,0,0,0,0,0,0,0,0,0,0,0,0,0,0,0,0,0,0,0,0,0,0,0,0,0,0,0,0,0,0,0,0,0,0,0,0,0,0,0,0,0,0,0,0,0,0,0,0,0,0,0,0,0,0,0,0,0,0,0,0,0,0,0,0,0,0,0,0,0,0,0,0,0,0,0,0,0,0,0,0,0,0,0,0,0,0,0,0,0,0,0,0,0,0,0,0,0,0,0,0,0,0,0,0,0,0,0,0,0,0,0,0,0,0,0,0,0,0,0,0,0,0,0,0,0,0,0,0,0,0,0,0,0,0,0,0,0,0,0,0,0,0,0,0,0,0,0,0,0,0,0,0,0,0,0,0,0,0,0,0,0,0,0,0,0,0,0,0,0,0,0,0,0,0,0,0,0,0,0,0,0,0,0,0,0,0,0,0,0,0,0,0,0,0,0,0,0,0,0,0,0,0,0,0,0,0,0,0,0,0,0,0,0,0,0,0,0,0,0,0,0,0,0,0,0,0,0,0,0,0,0,0,0,0,0,0,0,0,0,0,0,0,0,0,0,0,0,0,0,0,0,0,0,0,0,0,0,0,0,0,0,0,0,0,0,0,0,0,0,0,0,0,0,0,0,0,0,0,0,0,0,0,0,0,0,0,0,0,0,0,0,0,0,0,0,0,0,0,0,0,0,0,0,0,0,0,0,0,0,0,0,0,0,0,0,0,0,0,0,0,0,0,0,0,0,0,0,0,0,0,0,0,0,0,0,0,0,0,0,0,0,0,0,0,0,0,0,0,0,0,0,0,0,0,0,0,0,0,0,0,0,0,0,0,0,0,0,0,0,0,0,0,0,0,0,0,0,0,0,0,0,0,0,0,0,0,0,0,0,0,0,0,0,0,0,0,0,0,0,0,0,0,0,0,0,0,0,0,0,0,0,0,0,0,0,0,0,0,0,0,0,0,0,0,0,0,0,0,0,0,0,0,0,0,0,0,0,0,0,0,0,0,0,0,0,0,0,0,0,0,0,0,0,0,0,0,0,0,0,0,0,0,0,0,0,0,0,0,0,0,0,0,0,0,0,0,0,0,0,0,0,0,0,0,0,0,0,0,0,0,0,0,0,0,0,0,0,0,0,0,0,0,0,0,0,0,0,0,0,0,0,0,0,0,0,0,0,0,0,0,0,0,0,0,0,0,0,0,0,0,0,0,0,0,0,0,0,0,0,0,0,0,0,0,0,0,0,0,0,0,0,0,0,0,0,0,0,0,0,0,0,0,0,0,0,0,0,0,0,0,0,0,0,0,0,0,0,0,0,0,0,0,0,0,0,0,0,0,0,0,0,0,0,0,0,0,0,0,0,0,0,0,0,0,0,0,0,0,0,0,0,0,0,0,0,0,0,0,0,0,0,0,0,0,0,0,0,0,0,0,0,0,0,0,0,0,0,0,0,0,0,0,0,0,0,0,0,0,0,0,0,0,0,0,0,0,0,0,0,0,0,0,0,0,0,0,0,0,0,0,0,0,0,0,0,0,0,0,0,0,0,0,0,0,0,0,0,0,0,0,0,0,0,0,0,0,0,0,0,0,0,0,0,0,0,0,0,0,0,0,0,0,0,0,0,0,0,0,0,0,0,0,0,0,0,0,0,0,0,0,0,0,0,0,0,0,0,0,0,0,0,0,0,0,0,0,0,0,0,0,0,0,0,0,0,0,0,0,0,0,0,0,0,0,0,0,0,0,0,0,0,0,0,0,0,0,0,0,0,0,0,0,0,0,0,0,0,0,0,0,0,0,0,0,0,0,0,0,0,0,0,0,0,0,0,0,0,0,0,0,0,0,0,0,0,0,0,0,0,0,0,0,0,0,0,0,0,0,0,0,0,0,0,0,0,0,0,0,0,0,0,0,0,0,0,0,0,0,0,0,0,0,0,0,0,0,0,0,0,0,0,0,0,0,0,0,0,0,0,0,0,0,0,0,0,0,0,0,0,0,0,0,0,0,0,0,0,0,0,0,0,0,0,0,0,0,0,0,0,0,0,0,0,0,0,0,0,0,0,0,0,0,0,0,0,0,0,0,0,0,0,0,0,0,0,0,0,0,0,0,0,0,0,0,0,0,0,0,0,0,0,0,0,0,0,0,0,0,0,0,0,0,0,0,0,0,0,0,0,0,0,0,0,0,0,0,0,0,0,0,0,0,0,0,0,0,0,0,0,0,0,0,0,0,0,0,0,0,0,0,0,0,0,0,0,0,0,0,0,0,0,0,0,0,0,0,0,0,0,0,0,0,0,0,0,0,0,0,0,0,0,0,0,0,0,0,0,0,0,0,0,0,0,0,0,0,0,0,0,0,0,0,0,0,0,0,0,0,0,0,0,0,0,0,0,0,0,0,0,0,0,0,0,0,0,0,0,0,0,0,0,0,0,0,0,0,0,0,0,0,0,0,0,0,0,0,0,0,0,0,0,0,0,0,0,0,0,0,0,0,0,0,0,0,0,0,0,0,0,0,0,0,0,0,0,0,0,0,0,0,0,0,0,0,0,0,0,0,0,0,0,0,0,0,0,0,0,0,0,0,0,0,0,0,0,0,0,0,0,0,0,0,0,0,0,0,0,0,0,0,0,0,0,0,0,0,0,0,0,0,0,0,0,0,0,0,0,0,0,0,0,0,0,0,0,0,0,0,0,0,0,0,0,0,0,0,0,0,0,0,0,0,0,0,0,0,0,0,0,0,0,0,0,0,0,0,0,0,0,0,0,0,0,0,0,0,0,0,0,0,0,0,0,0,0,0,0,0,0,0,0,0,0,0,0,0,0,0,0,0,0,0,0,0,0,0,0,0,0,0,0,0,0,0,0,0,0,0,0,0,0,0,0,0,0,0,0,0,0,0,0,0,0,0,0,0,0,0,0,0,0,0,0,0,0,0,0,0,0,0,0,0,0,0,0,0,0,0,0,0,0,0,0,0,0,0,0,0,0,0,0,0,0,0,0,0,0,0,0,0,0,0,0,0,0,0,0,0,0,0,0,0,0,0,0,0,0,0,0,0,0,0,0,0,0,0,0,0,0,0,0,0,0,0,0,0,0,0,0,0,0,0,0,0,0,0,0,0,0,0,0,0,0,0,0,0,0,0,0,0,0,0,0,0,0,0,0,0,0,0,0,0,0,0,0,0,0,0,0,0,0,0,0,0,0,0,0,0,0,0,0,0,0,0,0,0,0,0,0,0,0,0,0,0,0,0,0,0,0,0,0,0,0,0,0,0,0,0,0,0,0,0,0,0,0,0,0,0,0,0,0,0,0,0,0,0,0,0,0,0,0,0,0,0,0,0,0,0,0,0,0,0,0,0,0,0,0,0,0,0,0,0,0,0,0,0,0,0,0,0,0,0,0,0,0,0,0,0,0,0,0,0,0,0,0,0,0,0,0,0,0,0,0,0,0,0,0,0,0,0,0,0,0,0,0,0,0,0,0,0,0,0,0,0,0,0,0,0,0,0,0,0,0,0,0,0,0,0,0,0,0,0,0,0,0,0,0,0,0,0,0,0,0,0,0,0,0,0,0,0,0,0,0,0,0,0,0,0,0,0,0,0,0,0,0,0,0,0,0,0,0,0,0,0,0,0,0,0,0,0,0,0,0,0,0,0,0,0,0,0,0,0,0,0,0,0,0,0,0,0,0,0,0,0,0,0,0,0,0,0,0,0,0,0,0,0,0,0,0,0,0,0,0,0,0,0,0,0,0,0,0,0,0,0,0,0,0,0,0,0,0,0,0,0,0,0,0,0,0,0,0,0,0,0,0,0,0,0,0,0,0,0,0,0,0,0,0,0,0,0,0,0,0,0,0,0,0,0,0,0,0,0,0,0,0,0,0,0,0,0,0,0,0,0,0,0,0,0,0,0,0,0,0,0,0,0,0,0,0,0,0,0,0,0,0,0,0,0,0,0,0,0,0,0,0,0,0,0,0,0,0,0,0,0,0,0,0,0,0,0,0,0,0,0,0,0,0,0,0,0,0,0,0,0,0,0,0,0,0,0,0,0,0,0,0,0,0,0,0,0,0,0,0,0,0,0,0,0,0,0,0,0,0,0,0,0,0,0,0,0,0,0,0,0,0,0,0,0,0,0,0,0,0,0,0,0,0,0,0,0,0,0,0,0,0,0,0,0,0,0,0,0,0,0,0,0,0,0,0,0,0,0,0,0,0,0,0,0,0,0,0,0,0,0,0,0,0,0,0,0,0,0,0,0,0,0,0,0,0,0,0,0,0,0,0,0,0,0,0,0,0,0,0,0,0,0,0,0,0,0,0,0,0,0,0,0,0,0,0,0,0,0,0,0,0,0,0,0,0,0,0,0,0,0,0,0,0,0,0,0,0,0,0,0,0,0,0,0,0,0,0,0,0,0,0,0,0,0,0,0,0,0,0,0,0,0,0,0,0,0,0,0,0,0,0,0,0,0,0,0,0,0,0,0,0,0,0,0,0,0,0,0,0,0,0,0,0,0,0,0,0,0,0,0,0,0,0,0,0,0,0,0,0,0,0,0,0,0,0,0,0,0,0,0,0,0,0,0,0,0,0,0,0,0,0,0,0,0,0,0,0,0,0,0,0,0,0,0,0,0,0,0,0,0,0,0,0,0,0,0,0,0,0,0,0,0,0,0,0,0,0,0,0,0,0,0,0,0,0,0,0,0,0,0,0,0,0,0,0,0,0,0,0,0,0,0,0,0,0,0,0,0,0,0,0,0,0,0,0,0,0,0,0,0,0,0,0,0,0,0,0,0,0,0,0,0,0,0,0,0,0,0,0,0,0,0,0,0,0,0,0,0,0,0,0,0,0,0,0,0,0,0,0,0,0,0,0,0,0,0,0,0,0,0,0,0,0,0,0,0,0,0,0,0,0,0,0,0,0,0,0,0,0,0,0,0,0,0,0,0,0,0,0,0,0,0,0,0,0,0,0,0,0,0,0,0,0,0,0,0,0,0,0,0,0,0,0,0,0,0,0,0,0,0,0,0,0,0,0,0,0,0,0,0,0,0,0,0,0,0,0,0,0,0,0,0,0,0,0,0,0,0,0,0,0,0,0,0,0,0,0,0,0,0,0,0,0,0,0,0,0,0,0,0,0,0,0,0,0,0,0,0,0,0,0,0,0,0,0,0,0,0,0,0,0,0,0,0,0,0,0,0,0,0,0,0,0,0,0,0,0,0,0,0,0,0,0,0,0,0,0,0,0,0,0,0,0,0,0,0,0,0,0,0,0,0,0,0,0,0,0,0,0,0,0,0,0,0,0,0,0,0,0,0,0,0,0,0,0,0,0,0,0,0,0,0,0,0,0,0,0,0,0,0,0,0,0,0,0,0,0,0,0,0,0,0,0,0,0,0,0,0,0,0,0,0,0,0,0,0,0,0,0,0,0,0,0,0,0,0,0,0,0,0,0,0,0,0,0,0,0,0,0,0,0,0,0,0,0,0,0,0,0,0,0,0,0,0,0,0,0,0,0,0,0,0,0,0,0,0,0,0,0,0,0,0,0,0,0,0,0,0,0,0,0,0,0,0,0,0,0,0,0,0,0,0,0,0,0,0,0,0,0,0,0,0,0,0,0,0,0,0,0,0,0,0,0,0,0,0,0,0,0,0,0,0,0,0,0,0,0,0,0,0,0,0,0,0,0,0,0,0,0,0,0,0,0,0,0,0,0,0,0,0,0,0,0,0,0,0,0,0,0,0,0,0,0,0,0,0,0,0,0,0,0,0,0,0,0,0,0,0,0,0,0,0,0,0,0,0,0,0,0,0,0,0,0,0,0,0,0,0,0,0,0,0,0,0,0,0,0,0,0,0,0,0,0,0,0,0,0,0,0,0,0,0,0,0,0,0,0,0,0,0,0,0,0,0,0,0,0,0,0,0,0,0,0,0,0,0,0,0,0,0,0,0,0,0,0,0,0,0,0,0,0,0,0,0,0,0,0,0,0,0,0,0,0,0,0,0,0,0,0,0,0,0,0,0,0,0,0,0,0,0,0,0,0,0,0,0,0,0,0,0,0,0,0,0,0,0,0,0,0,0,0,0,0,0,0,0,0,0,0,0,0,0,0,0,0,0,0,0,0,0,0,0,0,0,0,0,0,0,0,0,0,0,0,0,0,0,0,0,0,0,0,0,0,0,0,0,0,0,0,0,0,0,0,0,0,0,0,0,0,0,0,0,0,0,0,0,0,0,0,0,0,0,0,0,0,0,0,0,0,0,0,0,0,0,0,0,0,0,0,0,0,0,0,0,0,0,0,0,0,0,0,0,0,0,0,0,0,0,0,0,0,0,0,0,0,0,0,0,0,0,0,0,0,0,0,0,0,0,0,0,0,0,0,0,0,0,0,0,0,0,0,0,0,0,0,0,0,0,0,0,0,0,0,0,0,0,0,0,0,0,0,0,0,0,0,0,0,0,0,0,0,0,0,0,0,0,0,0,0,0,0,0,0,0,0,0,0,0,0,0,0,0,0,0,0,0,0,0,0,0,0,0,0,0,0,0,0,0,0,0,0,0,0,0,0,0,0,0,0,0,0,0,0,0,0,0,0,0,0,0,0,0,0,0,0,0,0,0,0,0,0,0,0,0,0,0,0,0,0,0,0,0,0,0,0,0,0,0,0,0,0,0,0,0,0,0,0,0,0,0,0,0,0,0,0,0,0,0,0,0,0,0,0,0,0,0,0,0,0,0,0,0,0,0,0,0,0,0,0,0,0,0,0,0,0]},{"id":3,"name":"walls","type":"tilelayer","width":72,"height":44,"x":0,"y":0,"opacity":1,"visible":true,"data":[731,731,731,731,731,731,731,731,731,731,731,731,731,731,731,731,731,731,731,731,731,731,731,731,731,731,731,731,731,731,731,731,731,731,731,731,731,731,731,731,731,731,731,731,731,731,731,731,731,731,731,731,731,731,731,731,731,731,731,731,731,731,731,731,731,731,731,731,731,731,731,731,731,729,723,723,723,723,723,723,723,723,723,723,723,723,723,724,723,723,723,723,723,723,723,723,723,723,723,723,723,723,723,723,723,723,723,723,723,723,723,723,724,723,723,723,723,723,723,723,723,724,723,723,723,723,723,723,723,723,723,723,723,723,723,723,723,723,723,723,723,726,731,731,731,727,0,0,0,0,0,0,0,0,0,0,0,0,0,690,0,0,0,0,0,0,0,0,0,0,0,0,0,0,0,0,0,0,0,0,0,0,0,0,690,0,0,0,0,0,0,0,0,690,0,0,0,0,0,0,0,0,0,0,0,0,0,0,0,0,0,0,0,709,731,731,731,727,0,0,0,0,0,0,0,0,0,0,0,0,0,690,0,0,0,0,0,0,0,0,0,0,0,0,0,0,0,0,0,0,0,0,0,0,0,0,690,0,0,0,0,0,0,0,0,690,0,0,0,0,0,0,0,0,0,0,0,0,0,0,0,0,0,0,0,709,731,731,731,727,0,0,0,0,0,0,0,0,0,0,0,0,0,690,0,0,0,0,0,0,0,0,0,0,0,0,0,0,0,0,0,0,0,0,0,0,0,0,690,0,0,0,0,0,0,0,0,690,0,0,0,0,0,0,0,0,0,0,0,0,0,0,0,0,0,0,0,709,731,731,731,727,0,0,0,0,0,0,0,0,0,0,0,0,0,690,0,0,0,0,0,0,0,0,0,0,0,0,0,0,0,0,0,0,0,0,0,0,0,0,690,0,0,0,0,0,0,0,0,690,0,0,0,0,0,0,0,0,0,0,0,0,0,0,0,0,0,0,0,709,731,731,731,727,0,0,0,0,0,0,0,0,0,0,0,0,0,690,0,0,0,0,0,0,0,0,0,0,0,0,0,0,0,0,0,0,0,0,0,0,0,0,690,0,0,0,0,0,0,0,0,690,0,0,0,0,0,0,0,0,0,0,0,0,0,0,0,0,0,0,0,709,731,731,731,727,0,0,0,0,0,0,0,0,0,0,0,0,0,690,0,0,0,0,0,0,0,0,0,0,0,0,0,0,0,0,0,0,0,0,0,0,0,0,690,0,0,0,0,0,0,0,0,686,0,0,0,0,0,0,0,0,0,0,0,0,0,0,0,0,0,0,0,709,731,731,731,727,0,0,0,0,0,0,0,0,0,0,0,0,0,690,0,0,0,0,0,0,0,0,0,0,0,0,0,0,0,0,0,0,0,0,0,0,0,0,690,0,0,0,0,0,0,0,0,0,0,0,0,0,0,0,0,0,0,0,0,0,0,0,0,0,0,0,0,709,731,731,731,727,0,0,0,0,0,0,0,0,0,0,0,0,0,690,0,0,0,0,0,0,0,0,0,0,0,0,0,0,0,0,0,0,0,0,0,0,0,0,690,0,0,0,0,0,0,0,0,0,0,0,0,0,0,0,0,0,0,0,0,0,0,0,0,0,0,0,0,709,731,731,731,727,0,0,0,0,0,0,0,0,0,0,0,0,0,690,0,0,0,0,0,0,0,0,0,0,0,0,0,0,0,0,0,0,0,0,0,0,0,0,690,0,0,0,0,0,0,0,0,0,0,0,0,0,0,0,0,0,0,0,0,0,0,0,0,0,0,0,0,709,731,731,731,727,0,0,0,0,0,0,0,0,0,0,0,0,0,690,0,0,0,0,0,0,0,0,0,0,0,0,0,0,0,0,0,0,0,0,0,0,0,0,690,0,0,0,0,0,0,0,0,689,0,0,0,0,0,0,0,0,0,0,0,0,0,0,0,0,0,0,0,709,731,731,731,727,0,0,0,0,0,0,0,0,0,0,0,0,0,690,0,0,0,0,0,0,0,0,0,0,0,0,0,0,0,0,0,0,0,0,0,0,0,0,690,0,0,0,0,0,0,0,0,690,0,0,0,0,0,0,0,0,0,0,0,0,0,0,0,0,0,0,0,709,731,731,731,727,0,0,0,0,0,0,0,0,0,0,0,0,0,690,0,0,0,0,0,0,0,0,0,0,0,0,0,0,0,0,0,0,0,0,0,0,0,0,690,0,0,0,687,695,695,695,695,698,0,0,0,0,0,0,0,0,0,0,0,0,0,0,0,0,0,0,0,709,731,731,731,727,0,0,0,0,0,0,0,0,0,0,0,0,0,690,0,0,0,0,0,0,0,0,0,0,0,0,0,0,0,0,0,0,0,0,0,0,0,0,690,0,0,0,0,0,0,0,0,690,0,0,0,0,0,0,0,0,0,0,0,0,0,0,0,0,0,0,0,709,731,731,731,727,0,0,0,0,0,0,0,0,0,0,0,0,0,690,0,0,0,0,0,0,0,0,0,0,0,0,0,0,0,0,0,0,0,0,0,0,0,0,690,0,0,0,0,0,0,0,0,690,0,0,0,0,0,0,0,0,0,0,0,0,0,0,0,0,0,0,0,709,731,731,731,727,0,0,0,0,0,0,0,0,0,0,0,0,0,690,0,0,0,0,0,0,0,0,0,0,0,0,0,0,0,0,0,0,0,0,0,0,0,0,690,0,0,0,0,0,0,0,0,690,0,0,0,0,0,0,0,0,0,0,0,0,0,0,0,0,0,0,0,709,731,731,731,727,0,0,0,0,0,0,0,0,0,0,0,0,0,690,0,0,0,0,0,0,0,0,0,0,0,0,0,0,0,0,0,0,0,0,0,0,0,0,690,0,0,0,0,0,0,0,0,690,0,0,0,0,0,0,0,0,0,0,0,0,0,0,0,0,0,0,0,709,731,731,731,730,716,716,716,716,716,711,0,0,0,705,716,716,716,712,0,0,0,0,0,0,0,0,0,0,0,0,0,0,0,0,0,0,0,0,0,0,0,0,690,0,0,0,0,0,0,0,0,686,0,0,0,0,0,0,0,0,0,0,0,0,0,0,0,0,0,0,705,718,731,731,731,731,731,731,731,731,731,727,0,0,0,709,731,731,731,727,0,0,0,0,0,0,0,0,0,0,0,0,0,0,0,0,0,0,0,0,0,0,0,0,690,0,0,0,0,0,0,0,0,0,0,0,0,0,0,0,0,0,0,0,0,0,0,0,0,0,0,0,709,731,731,731,731,731,731,731,731,731,731,727,0,0,0,709,731,731,731,727,0,0,0,0,0,0,0,0,0,0,0,0,0,0,0,0,0,0,0,0,0,0,0,0,690,0,0,0,0,0,0,0,0,0,0,0,0,0,0,0,0,0,0,0,0,0,0,0,0,0,0,705,718,731,731,731,731,731,731,731,731,731,731,727,0,0,0,709,731,731,731,727,0,0,0,0,0,0,0,0,0,0,0,0,0,0,0,0,0,0,0,0,0,0,0,0,690,0,0,0,0,0,0,0,0,0,0,0,0,0,0,0,0,0,0,0,0,0,0,0,0,0,0,709,731,731,731,731,731,729,723,723,723,723,723,719,0,0,0,701,723,723,723,720,695,695,695,695,695,695,695,695,695,695,693,0,0,0,687,695,695,695,695,695,695,695,695,695,694,0,0,0,687,695,695,695,693,0,687,695,695,695,695,695,695,695,695,695,695,695,695,695,695,695,707,718,731,731,731,731,731,727,0,0,0,0,0,0,0,0,0,0,0,0,0,0,0,0,0,0,0,0,0,0,0,0,0,0,0,0,0,0,0,0,0,0,0,0,0,0,0,0,0,0,0,0,0,0,0,0,0,0,0,0,0,0,0,0,0,0,0,0,0,0,0,0,709,731,731,731,731,731,731,727,0,0,0,0,0,0,0,0,0,0,0,0,0,0,0,0,0,0,0,0,0,0,0,0,0,0,0,0,0,0,0,0,0,0,0,0,0,0,0,0,0,0,0,0,0,0,0,0,0,0,0,0,0,0,0,0,0,0,0,0,0,0,0,705,718,731,731,731,731,731,731,727,0,0,0,0,0,0,0,0,0,0,0,0,0,0,0,0,0,0,0,0,0,0,0,0,0,0,0,0,0,0,0,0,0,0,0,0,0,0,0,0,0,0,0,0,0,0,0,0,0,0,0,0,0,0,0,0,0,0,0,0,0,0,0,709,731,731,731,731,731,731,731,727,0,0,0,0,0,0,0,0,0,0,0,0,0,0,0,0,0,0,0,0,0,0,0,0,0,0,0,0,0,0,0,0,0,0,0,0,0,0,0,0,0,0,0,0,0,0,0,0,0,0,0,0,0,0,0,0,0,0,0,0,0,0,705,718,731,731,731,731,731,731,731,728,695,695,695,695,695,693,0,0,0,687,695,695,695,699,695,695,693,0,0,687,695,695,699,695,693,0,0,0,687,695,695,695,695,695,695,695,695,695,699,695,695,693,0,0,0,687,695,695,699,695,695,693,0,0,0,687,695,697,0,0,0,0,709,731,731,731,731,731,731,731,731,727,0,0,0,0,0,0,0,0,0,0,0,0,0,690,0,0,0,0,0,0,0,0,690,0,0,0,0,0,0,0,0,0,0,0,0,0,0,0,690,0,0,0,0,0,0,0,0,0,690,0,0,0,0,0,0,0,0,690,0,0,0,705,718,731,731,731,731,731,731,731,731,727,0,0,0,0,0,0,0,0,0,0,0,0,0,690,0,0,0,0,0,0,0,0,690,0,0,0,0,0,0,0,0,0,0,0,0,0,0,0,690,0,0,0,0,0,0,0,0,0,690,0,0,0,0,0,0,0,0,690,0,0,0,709,731,731,731,731,731,731,731,731,731,727,0,0,0,0,0,0,0,0,0,0,0,0,0,690,0,0,0,0,0,0,0,0,690,0,0,0,0,0,0,0,0,0,0,0,0,0,0,0,690,0,0,0,0,0,0,0,0,0,690,0,0,0,0,0,0,0,0,690,0,0,705,718,731,731,731,731,731,731,731,731,731,727,0,0,0,0,0,0,0,0,0,0,0,0,0,690,0,0,0,0,0,0,0,0,690,0,0,0,0,0,0,0,0,0,0,0,0,0,0,0,690,0,0,0,0,0,0,0,0,0,690,0,0,0,0,0,0,0,0,690,0,0,709,731,731,731,731,731,731,731,731,731,731,727,0,0,0,0,0,0,0,0,0,0,0,0,0,690,0,0,0,0,0,0,0,0,690,0,0,0,0,0,0,0,0,0,0,0,0,0,0,0,690,0,0,0,0,0,0,0,0,0,690,0,0,0,0,0,0,0,0,706,716,716,718,731,731,731,731,731,731,731,731,731,731,727,0,0,0,0,0,0,0,0,0,0,0,0,0,690,0,0,0,0,0,0,0,0,690,0,0,0,0,0,0,0,0,0,0,0,0,0,0,0,690,0,0,0,0,0,0,0,0,0,690,0,0,0,0,0,0,0,0,709,731,731,731,731,731,731,731,731,731,731,731,731,731,727,0,0,0,0,0,0,0,0,0,0,0,0,0,690,0,0,0,0,0,0,0,0,690,0,0,0,0,0,0,0,0,0,0,0,0,0,0,0,690,0,0,0,0,0,0,0,0,0,690,0,0,0,0,0,0,0,0,709,731,731,731,731,731,731,731,731,731,731,731,731,731,727,0,0,0,0,0,0,0,0,0,0,0,0,0,690,0,0,0,0,0,0,0,0,690,0,0,0,0,0,0,0,0,0,0,0,0,0,0,0,690,0,0,0,0,0,0,0,0,0,690,0,0,0,0,0,0,0,0,709,731,731,731,731,731,731,731,731,731,731,731,731,731,727,0,0,0,0,0,0,0,0,0,0,0,0,0,690,0,0,0,0,0,0,0,0,690,0,0,0,0,0,0,0,0,0,0,0,0,0,0,0,690,0,0,0,0,0,0,0,0,0,690,0,0,0,0,0,0,0,0,709,731,731,731,731,731,731,731,731,731,731,731,731,731,727,0,0,0,0,0,0,0,0,0,0,0,0,0,690,0,0,0,0,0,0,0,0,690,0,0,0,0,0,0,0,0,0,0,0,0,0,0,0,690,0,0,0,0,0,0,0,0,0,690,0,0,0,0,0,0,0,0,709,731,731,731,731,731,731,731,731,731,731,731,731,731,727,0,0,0,0,0,0,0,0,0,0,0,0,0,690,0,0,0,0,0,0,0,0,690,0,0,0,0,0,0,0,0,0,0,0,0,0,0,0,690,0,0,0,0,0,0,0,0,0,690,0,0,0,0,0,0,0,705,718,731,731,731,731,731,731,731,731,731,731,731,731,731,727,0,0,0,0,0,0,0,0,0,0,0,0,0,690,0,0,0,0,0,0,0,0,690,0,0,0,0,0,0,0,0,0,0,0,0,0,0,0,690,0,0,0,0,0,0,0,0,0,690,0,0,0,0,0,0,0,709,731,731,731,731,731,731,731,731,731,731,731,731,731,731,727,0,0,0,0,0,0,0,0,0,0,0,0,0,690,0,0,0,0,0,0,0,0,690,0,0,0,0,0,0,0,0,0,0,0,0,0,0,0,690,0,0,0,0,0,0,0,0,0,706,716,716,716,716,716,716,716,718,731,731,731,731,731,731,731,731,731,731,731,731,731,731,730,716,716,716,716,716,716,716,716,716,716,716,716,716,717,716,716,716,716,716,716,716,716,712,0,0,0,0,0,0,0,0,0,0,0,0,0,0,0,706,716,716,716,716,716,716,716,716,716,718,731,731,731,731,731,731,731,731,731,731,731,731,731,731,731,731,731,731,731,731,731,731,731,731,731,731,731,731,731,731,731,731,731,731,731,731,731,731,731,731,731,731,731,731,731,730,716,716,716,716,716,716,716,716,716,716,716,716,716,716,716,718,731,731,731,731,731,731,731,731,731,731,731,731,731,731,731,731,731,731,731,731,731,731,731,731,731,731,731,731,731,731,731,731,731,731,731,731,731,731,731,731,731,731,731,731,731,731,731,731,731,731,731,731,731,731,731,731,731,731,731,731,731,731,731,731,731,731,731,731,731,731,731,731,731,731,731,731,731,731,731,731,731,731,731,731,731,731,731,731,731,731,731,731,731,731,731,731,731,731,731,731,731,731,731]},{"id":4,"name":"objects","type":"objectgroup","draworder":"topdown","opacity":1,"visible":true,"x":0,"y":0,"objects":[{"id":1,"name":"desk_light","type":"prop","rotation":0,"visible":true,"x":1152,"y":208,"width":128,"height":96},{"id":2,"name":"office_chair","type":"prop","rotation":0,"visible":true,"x":1198,"y":311.6,"width":36,"height":36},{"id":3,"name":"desk_light","type":"prop","rotation":0,"visible":true,"x":1152,"y":528,"width":128,"height":96},{"id":4,"name":"office_chair","type":"prop","rotation":0,"visible":true,"x":1198,"y":631.6,"width":36,"height":36},{"id":5,"name":"desk_light","type":"prop","rotation":0,"visible":true,"x":1152,"y":848,"width":128,"height":96},{"id":6,"name":"office_chair","type":"prop","rotation":0,"visible":true,"x":1198,"y":951.6,"width":36,"height":36},{"id":7,"name":"desk_light","type":"prop","rotation":0,"visible":true,"x":1152,"y":1168,"width":128,"height":96},{"id":8,"name":"office_chair","type":"prop","rotation":0,"visible":true,"x":1198,"y":1271.6,"width":36,"height":36},{"id":9,"name":"desk_light","type":"prop","rotation":0,"visible":true,"x":1472,"y":208,"width":128,"height":96},{"id":10,"name":"office_chair","type":"prop","rotation":0,"visible":true,"x":1518,"y":311.6,"width":36,"height":36},{"id":11,"name":"desk_light","type":"prop","rotation":0,"visible":true,"x":1472,"y":528,"width":128,"height":96},{"id":12,"name":"office_chair","type":"prop","rotation":0,"visible":true,"x":1518,"y":631.6,"width":36,"height":36},{"id":13,"name":"desk_light","type":"prop","rotation":0,"visible":true,"x":1472,"y":848,"width":128,"height":96},{"id":14,"name":"office_chair","type":"prop","rotation":0,"visible":true,"x":1518,"y":951.6,"width":36,"height":36},{"id":15,"name":"desk_light","type":"prop","rotation":0,"visible":true,"x":1472,"y":1168,"width":128,"height":96},{"id":16,"name":"office_chair","type":"prop","rotation":0,"visible":true,"x":1518,"y":1271.6,"width":36,"height":36},{"id":17,"name":"desk_light","type":"prop","rotation":0,"visible":true,"x":1792,"y":208,"width":128,"height":96},{"id":18,"name":"office_chair","type":"prop","rotation":0,"visible":true,"x":1838,"y":311.6,"width":36,"height":36},{"id":19,"name":"desk_light","type":"prop","rotation":0,"visible":true,"x":1792,"y":528,"width":128,"height":96},{"id":20,"name":"office_chair","type":"prop","rotation":0,"visible":true,"x":1838,"y":631.6,"width":36,"height":36},{"id":21,"name":"desk_light","type":"prop","rotation":0,"visible":true,"x":1792,"y":848,"width":128,"height":96},{"id":22,"name":"office_chair","type":"prop","rotation":0,"visible":true,"x":1838,"y":951.6,"width":36,"height":36},{"id":23,"name":"desk_light","type":"prop","rotation":0,"visible":true,"x":1792,"y":1168,"width":128,"height":96},{"id":24,"name":"office_chair","type":"prop","rotation":0,"visible":true,"x":1838,"y":1271.6,"width":36,"height":36},{"id":25,"name":"desk_light","type":"prop","rotation":0,"visible":true,"x":2112,"y":208,"width":128,"height":96},{"id":26,"name":"office_chair","type":"prop","rotation":0,"visible":true,"x":2158,"y":311.6,"width":36,"height":36},{"id":27,"name":"desk_light","type":"prop","rotation":0,"visible":true,"x":2112,"y":528,"width":128,"height":96},{"id":28,"name":"office_chair","type":"prop","rotation":0,"visible":true,"x":2158,"y":631.6,"width":36,"height":36},{"id":29,"name":"desk_light","type":"prop","rotation":0,"visible":true,"x":2112,"y":848,"width":128,"height":96},{"id":30,"name":"office_chair","type":"prop","rotation":0,"visible":true,"x":2158,"y":951.6,"width":36,"height":36},{"id":31,"name":"desk_light","type":"prop","rotation":0,"visible":true,"x":2112,"y":1168,"width":128,"height":96},{"id":32,"name":"office_chair","type":"prop","rotation":0,"visible":true,"x":2158,"y":1271.6,"width":36,"height":36},{"id":33,"name":"desk_light","type":"prop","rotation":0,"visible":true,"x":2304,"y":208,"width":128,"height":96},{"id":34,"name":"office_chair","type":"prop","rotation":0,"visible":true,"x":2350,"y":311.6,"width":36,"height":36},{"id":35,"name":"desk_light","type":"prop","rotation":0,"visible":true,"x":2304,"y":528,"width":128,"height":96},{"id":36,"name":"office_chair","type":"prop","rotation":0,"visible":true,"x":2350,"y":631.6,"width":36,"height":36},{"id":37,"name":"desk_light","type":"prop","rotation":0,"visible":true,"x":2304,"y":848,"width":128,"height":96},{"id":38,"name":"office_chair","type":"prop","rotation":0,"visible":true,"x":2350,"y":951.6,"width":36,"height":36},{"id":39,"name":"desk_light","type":"prop","rotation":0,"visible":true,"x":2304,"y":1168,"width":128,"height":96},{"id":40,"name":"office_chair","type":"prop","rotation":0,"visible":true,"x":2350,"y":1271.6,"width":36,"height":36},{"id":41,"name":"desk_light","type":"prop","rotation":0,"visible":true,"x":3328,"y":208,"width":128,"height":96},{"id":42,"name":"office_chair","type":"prop","rotation":0,"visible":true,"x":3374,"y":311.6,"width":36,"height":36},{"id":43,"name":"desk_light","type":"prop","rotation":0,"visible":true,"x":3328,"y":528,"width":128,"height":96},{"id":44,"name":"office_chair","type":"prop","rotation":0,"visible":true,"x":3374,"y":631.6,"width":36,"height":36},{"id":45,"name":"desk_light","type":"prop","rotation":0,"visible":true,"x":3328,"y":848,"width":128,"height":96},{"id":46,"name":"office_chair","type":"prop","rotation":0,"visible":true,"x":3374,"y":951.6,"width":36,"height":36},{"id":47,"name":"desk_light","type":"prop","rotation":0,"visible":true,"x":3328,"y":1168,"width":128,"height":96},{"id":48,"name":"office_chair","type":"prop","rotation":0,"visible":true,"x":3374,"y":1271.6,"width":36,"height":36},{"id":49,"name":"desk_light","type":"prop","rotation":0,"visible":true,"x":3648,"y":208,"width":128,"height":96},{"id":50,"name":"office_chair","type":"prop","rotation":0,"visible":true,"x":3694,"y":311.6,"width":36,"height":36},{"id":51,"name":"desk_light","type":"prop","rotation":0,"visible":true,"x":3648,"y":528,"width":128,"height":96},{"id":52,"name":"office_chair","type":"prop","rotation":0,"visible":true,"x":3694,"y":631.6,"width":36,"height":36},{"id":53,"name":"desk_light","type":"prop","rotation":0,"visible":true,"x":3648,"y":848,"width":128,"height":96},{"id":54,"name":"office_chair","type":"prop","rotation":0,"visible":true,"x":3694,"y":951.6,"width":36,"height":36},{"id":55,"name":"desk_light","type":"prop","rotation":0,"visible":true,"x":3648,"y":1168,"width":128,"height":96},{"id":56,"name":"office_chair","type":"prop","rotation":0,"visible":true,"x":3694,"y":1271.6,"width":36,"height":36},{"id":57,"name":"desk_light","type":"prop","rotation":0,"visible":true,"x":3968,"y":208,"width":128,"height":96},{"id":58,"name":"office_chair","type":"prop","rotation":0,"visible":true,"x":4014,"y":311.6,"width":36,"height":36},{"id":59,"name":"desk_light","type":"prop","rotation":0,"visible":true,"x":3968,"y":528,"width":128,"height":96},{"id":60,"name":"office_chair","type":"prop","rotation":0,"visible":true,"x":4014,"y":631.6,"width":36,"height":36},{"id":61,"name":"desk_light","type":"prop","rotation":0,"visible":true,"x":3968,"y":848,"width":128,"height":96},{"id":62,"name":"office_chair","type":"prop","rotation":0,"visible":true,"x":4014,"y":951.6,"width":36,"height":36},{"id":63,"name":"desk_light","type":"prop","rotation":0,"visible":true,"x":3968,"y":1168,"width":128,"height":96},{"id":64,"name":"office_chair","type":"prop","rotation":0,"visible":true,"x":4014,"y":1271.6,"width":36,"height":36},{"id":65,"name":"desk_light","type":"prop","rotation":0,"visible":true,"x":4160,"y":208,"width":128,"height":96},{"id":66,"name":"office_chair","type":"prop","rotation":0,"visible":true,"x":4206,"y":311.6,"width":36,"height":36},{"id":67,"name":"desk_light","type":"prop","rotation":0,"visible":true,"x":4160,"y":528,"width":128,"height":96},{"id":68,"name":"office_chair","type":"prop","rotation":0,"visible":true,"x":4206,"y":631.6,"width":36,"height":36},{"id":69,"name":"desk_light","type":"prop","rotation":0,"visible":true,"x":4160,"y":848,"width":128,"height":96},{"id":70,"name":"office_chair","type":"prop","rotation":0,"visible":true,"x":4206,"y":951.6,"width":36,"height":36},{"id":71,"name":"desk_light","type":"prop","rotation":0,"visible":true,"x":4160,"y":1168,"width":128,"height":96},{"id":72,"name":"office_chair","type":"prop","rotation":0,"visible":true,"x":4206,"y":1271.6,"width":36,"height":36},{"id":73,"name":"desk_light","type":"prop","rotation":0,"visible":true,"x":1728,"y":1872,"width":128,"height":96},{"id":74,"name":"office_chair","type":"prop","rotation":0,"visible":true,"x":1774,"y":1975.6,"width":36,"height":36},{"id":75,"name":"desk_light","type":"prop","rotation":0,"visible":true,"x":1728,"y":2192,"width":128,"height":96},{"id":76,"name":"office_chair","type":"prop","rotation":0,"visible":true,"x":1774,"y":2295.6,"width":36,"height":36},{"id":77,"name":"desk_light","type":"prop","rotation":0,"visible":true,"x":1728,"y":2448,"width":128,"height":96},{"id":78,"name":"office_chair","type":"prop","rotation":0,"visible":true,"x":1774,"y":2551.6,"width":36,"height":36},{"id":79,"name":"desk_light","type":"prop","rotation":0,"visible":true,"x":2048,"y":1872,"width":128,"height":96},{"id":80,"name":"office_chair","type":"prop","rotation":0,"visible":true,"x":2094,"y":1975.6,"width":36,"height":36},{"id":81,"name":"desk_light","type":"prop","rotation":0,"visible":true,"x":2048,"y":2192,"width":128,"height":96},{"id":82,"name":"office_chair","type":"prop","rotation":0,"visible":true,"x":2094,"y":2295.6,"width":36,"height":36},{"id":83,"name":"desk_light","type":"prop","rotation":0,"visible":true,"x":2048,"y":2448,"width":128,"height":96},{"id":84,"name":"office_chair","type":"prop","rotation":0,"visible":true,"x":2094,"y":2551.6,"width":36,"height":36},{"id":85,"name":"desk_light","type":"prop","rotation":0,"visible":true,"x":2304,"y":1872,"width":128,"height":96},{"id":86,"name":"office_chair","type":"prop","rotation":0,"visible":true,"x":2350,"y":1975.6,"width":36,"height":36},{"id":87,"name":"desk_light","type":"prop","rotation":0,"visible":true,"x":2304,"y":2192,"width":128,"height":96},{"id":88,"name":"office_chair","type":"prop","rotation":0,"visible":true,"x":2350,"y":2295.6,"width":36,"height":36},{"id":89,"name":"desk_light","type":"prop","rotation":0,"visible":true,"x":2304,"y":2448,"width":128,"height":96},{"id":90,"name":"office_chair","type":"prop","rotation":0,"visible":true,"x":2350,"y":2551.6,"width":36,"height":36},{"id":91,"name":"desk_light","type":"prop","rotation":0,"visible":true,"x":256,"y":1872,"width":128,"height":96},{"id":92,"name":"office_chair","type":"prop","rotation":0,"visible":true,"x":302,"y":1975.6,"width":36,"height":36},{"id":93,"name":"desk_light","type":"prop","rotation":0,"visible":true,"x":256,"y":2192,"width":128,"height":96},{"id":94,"name":"office_chair","type":"prop","rotation":0,"visible":true,"x":302,"y":2295.6,"width":36,"height":36},{"id":95,"name":"desk_light","type":"prop","rotation":0,"visible":true,"x":256,"y":2448,"width":128,"height":96},{"id":96,"name":"office_chair","type":"prop","rotation":0,"visible":true,"x":302,"y":2551.6,"width":36,"height":36},{"id":97,"name":"desk_light","type":"prop","rotation":0,"visible":true,"x":640,"y":1872,"width":128,"height":96},{"id":98,"name":"office_chair","type":"prop","rotation":0,"visible":true,"x":686,"y":1975.6,"width":36,"height":36},{"id":99,"name":"desk_light","type":"prop","rotation":0,"visible":true,"x":640,"y":2192,"width":128,"height":96},{"id":100,"name":"office_chair","type":"prop","rotation":0,"visible":true,"x":686,"y":2295.6,"width":36,"height":36},{"id":101,"name":"desk_light","type":"prop","rotation":0,"visible":true,"x":640,"y":2448,"width":128,"height":96},{"id":102,"name":"office_chair","type":"prop","rotation":0,"visible":true,"x":686,"y":2551.6,"width":36,"height":36},{"id":103,"name":"desk_light","type":"prop","rotation":0,"visible":true,"x":3904,"y":1872,"width":128,"height":96},{"id":104,"name":"office_chair","type":"prop","rotation":0,"visible":true,"x":3950,"y":1975.6,"width":36,"height":36},{"id":105,"name":"table_tennis","type":"prop","rotation":0,"visible":true,"x":432,"y":520,"width":160,"height":112},{"id":106,"name":"whiteboard","type":"prop","rotation":0,"visible":true,"x":452,"y":184,"width":120,"height":16},{"id":107,"name":"sofa_green","type":"prop","rotation":0,"visible":true,"x":168,"y":930.5,"width":176,"height":59},{"id":108,"name":"plant","type":"prop","rotation":0,"visible":true,"x":809.5,"y":172.5,"width":45,"height":39},{"id":109,"name":"","type":"label","rotation":0,"visible":true,"x":512,"y":1088,"width":0,"height":0,"point":true,"properties":[{"name":"text","type":"string","value":"PHOENIX · ПИНГ-ПОНГ"},{"name":"size","type":"int","value":22},{"name":"color","type":"string","value":"#5f6870"}]},{"id":110,"name":"","type":"label","rotation":0,"visible":true,"x":1728,"y":1344,"width":0,"height":0,"point":true,"properties":[{"name":"text","type":"string","value":"ОПЕНСПЕЙС · CAPELLA"},{"name":"size","type":"int","value":22},{"name":"color","type":"string","value":"#5f6870"}]},{"id":111,"name":"","type":"label","rotation":0,"visible":true,"x":3776,"y":1344,"width":0,"height":0,"point":true,"properties":[{"name":"text","type":"string","value":"CASTOR"},{"name":"size","type":"int","value":22},{"name":"color","type":"string","value":"#5f6870"}]},{"id":112,"name":"","type":"label","rotation":0,"visible":true,"x":512,"y":2560,"width":0,"height":0,"point":true,"properties":[{"name":"text","type":"string","value":"SIRIUS"},{"name":"size","type":"int","value":22},{"name":"color","type":"string","value":"#5f6870"}]},{"id":113,"name":"","type":"label","rotation":0,"visible":true,"x":3456,"y":2432,"width":0,"height":0,"point":true,"properties":[{"name":"text","type":"string","value":"ALTAIR"},{"name":"size","type":"int","value":22},{"name":"color","type":"string","value":"#5f6870"}]},{"id":114,"name":"","type":"label","rotation":0,"visible":true,"x":2880,"y":2368,"width":0,"height":0,"point":true,"properties":[{"name":"text","type":"string","value":"ЭТАЖ 7 · ЛИФТЫ"},{"name":"size","type":"int","value":22},{"name":"color","type":"string","value":"#5f6870"}]},{"id":115,"name":"counter_a","type":"prop","rotation":0,"visible":true,"x":2912,"y":161,"width":64,"height":62},{"id":116,"name":"sink","type":"prop","rotation":0,"visible":true,"x":2976,"y":161,"width":64,"height":62},{"id":117,"name":"vending","type":"prop","rotation":0,"visible":true,"x":2976,"y":682,"width":64,"height":44},{"id":118,"name":"table_round","type":"prop","rotation":0,"visible":true,"x":2914,"y":418,"width":60,"height":60},{"id":119,"name":"office_chair","type":"prop","rotation":0,"visible":true,"x":2862,"y":500.4,"width":36,"height":36},{"id":120,"name":"plant","type":"prop","rotation":0,"visible":true,"x":2793.5,"y":172.5,"width":45,"height":39},{"id":121,"name":"","type":"label","rotation":0,"visible":true,"x":2944,"y":640,"width":0,"height":0,"point":true,"properties":[{"name":"text","type":"string","value":"КУХНЯ"},{"name":"size","type":"int","value":22},{"name":"color","type":"string","value":"#5f6870"}]},{"id":122,"name":"cabinet","type":"prop","rotation":0,"visible":true,"x":2982,"y":940,"width":52,"height":40},{"id":123,"name":"printer","type":"prop","rotation":0,"visible":true,"x":2916,"y":1194,"width":56,"height":44},{"id":124,"name":"elevator","type":"prop","rotation":0,"visible":true,"x":2752,"y":2432,"width":128,"height":128},{"id":125,"name":"elevator","type":"prop","rotation":0,"visible":true,"x":2944,"y":2432,"width":128,"height":128},{"id":126,"name":"whiteboard","type":"prop","rotation":0,"visible":true,"x":2756,"y":1912,"width":120,"height":16},{"id":127,"name":"plant","type":"prop","rotation":0,"visible":true,"x":3049.5,"y":2220.5,"width":45,"height":39},{"id":128,"name":"player","type":"spawn","rotation":0,"visible":true,"x":2816,"y":2240,"width":0,"height":0,"point":true},{"id":129,"name":"player","type":"spawn","rotation":0,"visible":true,"x":2912,"y":2240,"width":0,"height":0,"point":true},{"id":130,"name":"player","type":"spawn","rotation":0,"visible":true,"x":2816,"y":2150.4,"width":0,"height":0,"point":true},{"id":131,"name":"player","type":"spawn","rotation":0,"visible":true,"x":2912,"y":2150.4,"width":0,"height":0,"point":true},{"id":132,"name":"andrey","type":"npc","rotation":0,"visible":true,"x":3936,"y":1728,"width":0,"height":0,"point":true,"properties":[{"name":"title","type":"string","value":"Андрей"},{"name":"mode","type":"string","value":"cower"},{"name":"hp","type":"int","value":200},{"name":"story","type":"bool","value":true},{"name":"essential","type":"bool","value":true},{"name":"weapon","type":"string","value":"smg"},{"name":"angle","type":"int","value":90},{"name":"lines","type":"string","value":"Мы тут!|Это всё корпоративный напиток!"}]},{"id":133,"name":"sergey","type":"npc","rotation":0,"visible":true,"x":4032,"y":1728,"width":0,"height":0,"point":true,"properties":[{"name":"title","type":"string","value":"Серёга"},{"name":"mode","type":"string","value":"cower"},{"name":"hp","type":"int","value":200},{"name":"story","type":"bool","value":true},{"name":"essential","type":"bool","value":true},{"name":"weapon","type":"string","value":""},{"name":"angle","type":"int","value":90},{"name":"lines","type":"string","value":"Мы тут!|Это всё корпоративный напиток!"}]},{"id":134,"name":"vlad","type":"npc","rotation":0,"visible":true,"x":2944,"y":576,"width":0,"height":0,"point":true,"properties":[{"name":"title","type":"string","value":"Влад"},{"name":"mode","type":"string","value":"cower"},{"name":"hp","type":"int","value":200},{"name":"story","type":"bool","value":true},{"name":"essential","type":"bool","value":true},{"name":"weapon","type":"string","value":""},{"name":"angle","type":"int","value":90},{"name":"lines","type":"string","value":"Мы тут!|Это всё корпоративный напиток!"}]},{"id":135,"name":"stas","type":"npc","rotation":0,"visible":true,"x":384,"y":576,"width":0,"height":0,"point":true,"properties":[{"name":"title","type":"string","value":"Стас"},{"name":"mode","type":"string","value":"idle"},{"name":"hp","type":"int","value":200},{"name":"story","type":"bool","value":true},{"name":"essential","type":"bool","value":true},{"name":"weapon","type":"string","value":""},{"name":"angle","type":"int","value":0},{"name":"lines","type":"string","value":"До одиннадцати! Потом эвакуация.|Петух под сеткой? Это фол!"}]},{"id":136,"name":"pasha","type":"npc","rotation":0,"visible":true,"x":640,"y":576,"width":0,"height":0,"point":true,"properties":[{"name":"title","type":"string","value":"Паша"},{"name":"mode","type":"string","value":"idle"},{"name":"hp","type":"int","value":200},{"name":"story","type":"bool","value":true},{"name":"essential","type":"bool","value":true},{"name":"weapon","type":"string","value":""},{"name":"angle","type":"int","value":180},{"name":"lines","type":"string","value":"До одиннадцати! Потом эвакуация.|Петух под сеткой? Это фол!"}]},{"id":137,"name":"root_manager","type":"npc","rotation":0,"visible":true,"x":2880,"y":1856,"width":0,"height":0,"point":true,"properties":[{"name":"title","type":"string","value":"Лысый менеджер"},{"name":"mode","type":"string","value":"idle"},{"name":"hp","type":"int","value":300},{"name":"story","type":"bool","value":true},{"name":"essential","type":"bool","value":true},{"name":"lines","type":"string","value":"Вы куда? Рабочий день ещё не окончен.|У меня root-доступ к вашему отпуску."}]},{"id":138,"name":"f7_worker0","type":"npc","rotation":0,"visible":true,"x":1344,"y":384,"width":0,"height":0,"point":true,"properties":[{"name":"title","type":"string","value":"Скрам-мастер"},{"name":"kind","type":"string","value":"womanGreen"},{"name":"tag","type":"string","value":"worker7"},{"name":"turn","type":"string","value":"fast"},{"name":"lines","type":"string","value":"Это не баг, это перья.|Митинг можно было заменить яйцом."}]},{"id":139,"name":"f7_worker1","type":"npc","rotation":0,"visible":true,"x":1984,"y":704,"width":0,"height":0,"point":true,"properties":[{"name":"title","type":"string","value":"Ко-коуч"},{"name":"kind","type":"string","value":"manBrown"},{"name":"tag","type":"string","value":"worker7"},{"name":"turn","type":"string","value":"normal"},{"name":"lines","type":"string","value":"Это не баг, это перья.|Митинг можно было заменить яйцом."}]},{"id":140,"name":"f7_worker2","type":"npc","rotation":0,"visible":true,"x":2304,"y":1024,"width":0,"height":0,"point":true,"properties":[{"name":"title","type":"string","value":"Стажёр"},{"name":"kind","type":"string","value":"womanGreen"},{"name":"tag","type":"string","value":"worker7"},{"name":"turn","type":"string","value":"normal"},{"name":"lines","type":"string","value":"Это не баг, это перья.|Митинг можно было заменить яйцом."}]},{"id":141,"name":"f7_worker3","type":"npc","rotation":0,"visible":true,"x":3520,"y":384,"width":0,"height":0,"point":true,"properties":[{"name":"title","type":"string","value":"Куриный евангелист"},{"name":"kind","type":"string","value":"manBrown"},{"name":"tag","type":"string","value":"worker7"},{"name":"turn","type":"string","value":"normal"},{"name":"lines","type":"string","value":"Это не баг, это перья.|Митинг можно было заменить яйцом."}]},{"id":142,"name":"f7_worker4","type":"npc","rotation":0,"visible":true,"x":3904,"y":704,"width":0,"height":0,"point":true,"properties":[{"name":"title","type":"string","value":"Скрам-мастер"},{"name":"kind","type":"string","value":"womanGreen"},{"name":"tag","type":"string","value":"worker7"},{"name":"turn","type":"string","value":"fast"},{"name":"lines","type":"string","value":"Это не баг, это перья.|Митинг можно было заменить яйцом."}]},{"id":143,"name":"f7_worker5","type":"npc","rotation":0,"visible":true,"x":3648,"y":1088,"width":0,"height":0,"point":true,"properties":[{"name":"title","type":"string","value":"Ко-коуч"},{"name":"kind","type":"string","value":"manBrown"},{"name":"tag","type":"string","value":"worker7"},{"name":"turn","type":"string","value":"normal"},{"name":"lines","type":"string","value":"Это не баг, это перья.|Митинг можно было заменить яйцом."}]},{"id":144,"name":"f7_worker6","type":"npc","rotation":0,"visible":true,"x":1920,"y":2048,"width":0,"height":0,"point":true,"properties":[{"name":"title","type":"string","value":"Стажёр"},{"name":"kind","type":"string","value":"womanGreen"},{"name":"tag","type":"string","value":"worker7"},{"name":"turn","type":"string","value":"normal"},{"name":"lines","type":"string","value":"Это не баг, это перья.|Митинг можно было заменить яйцом."}]},{"id":145,"name":"f7_worker7","type":"npc","rotation":0,"visible":true,"x":384,"y":2112,"width":0,"height":0,"point":true,"properties":[{"name":"title","type":"string","value":"Куриный евангелист"},{"name":"kind","type":"string","value":"manBrown"},{"name":"tag","type":"string","value":"worker7"},{"name":"turn","type":"string","value":"normal"},{"name":"lines","type":"string","value":"Это не баг, это перья.|Митинг можно было заменить яйцом."}]},{"id":146,"name":"f7_worker8","type":"npc","rotation":0,"visible":true,"x":3456,"y":2112,"width":0,"height":0,"point":true,"properties":[{"name":"title","type":"string","value":"Скрам-мастер"},{"name":"kind","type":"string","value":"womanGreen"},{"name":"tag","type":"string","value":"worker7"},{"name":"turn","type":"string","value":"fast"},{"name":"lines","type":"string","value":"Это не баг, это перья.|Митинг можно было заменить яйцом."}]},{"id":147,"name":"coffee_intern","type":"npc","rotation":0,"visible":true,"x":3008,"y":499.2,"width":0,"height":0,"point":true,"properties":[{"name":"title","type":"string","value":"Стажёр с кофе"},{"name":"kind","type":"string","value":"worker"},{"name":"mode","type":"string","value":"cower"},{"name":"hp","type":"int","value":100},{"name":"weapon","type":"string","value":"pistol"},{"name":"lines","type":"string","value":"Я только чашки помыть зашёл!"}]},{"id":148,"name":"escort","type":"spawner","rotation":0,"visible":true,"x":256,"y":1536,"width":0,"height":0,"point":true,"properties":[{"name":"how","type":"string","value":"rise"},{"name":"corridorOnly","type":"bool","value":true}]},{"id":149,"name":"escort","type":"spawner","rotation":0,"visible":true,"x":1728,"y":1536,"width":0,"height":0,"point":true,"properties":[{"name":"how","type":"string","value":"rise"},{"name":"corridorOnly","type":"bool","value":true}]},{"id":150,"name":"escort","type":"spawner","rotation":0,"visible":true,"x":3520,"y":1536,"width":0,"height":0,"point":true,"properties":[{"name":"how","type":"string","value":"rise"},{"name":"corridorOnly","type":"bool","value":true}]},{"id":151,"name":"escort","type":"spawner","rotation":0,"visible":true,"x":2688,"y":320,"width":0,"height":0,"point":true,"properties":[{"name":"how","type":"string","value":"rise"},{"name":"corridorOnly","type":"bool","value":true}]},{"id":152,"name":"escort","type":"spawner","rotation":0,"visible":true,"x":1280,"y":2368,"width":0,"height":0,"point":true,"properties":[{"name":"how","type":"string","value":"rise"},{"name":"corridorOnly","type":"bool","value":true}]},{"id":153,"name":"escort","type":"spawner","rotation":0,"visible":true,"x":2240,"y":2048,"width":0,"height":0,"point":true,"properties":[{"name":"how","type":"string","value":"rise"},{"name":"corridorOnly","type":"bool","value":true}]},{"id":154,"name":"escort","type":"spawner","rotation":0,"visible":true,"x":3968,"y":320,"width":0,"height":0,"point":true,"properties":[{"name":"how","type":"string","value":"rise"},{"name":"corridorOnly","type":"bool","value":true}]},{"id":155,"name":"east","type":"trigger","rotation":0,"visible":true,"x":3200,"y":192,"width":1088,"height":1216},{"id":156,"name":"pingpong","type":"trigger","rotation":0,"visible":true,"x":128,"y":192,"width":832,"height":960},{"id":157,"name":"root_ambush","type":"trigger","rotation":0,"visible":true,"x":2624,"y":1792,"width":576,"height":256,"properties":[{"name":"once","type":"bool","value":false}]},{"id":158,"name":"evacuation","type":"trigger","rotation":0,"visible":true,"x":2624,"y":2176,"width":576,"height":448,"properties":[{"name":"once","type":"bool","value":false},{"name":"all","type":"bool","value":true}]},{"id":159,"name":"weapon","type":"pickup","rotation":0,"visible":true,"x":2752,"y":2112,"width":0,"height":0,"point":true,"properties":[{"name":"weapon","type":"string","value":"shotgun"}]},{"id":160,"name":"ammo","type":"pickup","rotation":0,"visible":true,"x":2880,"y":2176,"width":0,"height":0,"point":true},{"id":161,"name":"ammo","type":"pickup","rotation":0,"visible":true,"x":2688,"y":1536,"width":0,"height":0,"point":true},{"id":162,"name":"ammo","type":"pickup","rotation":0,"visible":true,"x":2944,"y":576,"width":0,"height":0,"point":true},{"id":163,"name":"ammo","type":"pickup","rotation":0,"visible":true,"x":512,"y":896,"width":0,"height":0,"point":true},{"id":164,"name":"ammo","type":"pickup","rotation":0,"visible":true,"x":4032,"y":1600,"width":0,"height":0,"point":true},{"id":165,"name":"health","type":"pickup","rotation":0,"visible":true,"x":2816,"y":2112,"width":0,"height":0,"point":true},{"id":166,"name":"","type":"note","rotation":0,"visible":true,"x":2816,"y":1920,"width":0,"height":0,"point":true,"properties":[{"name":"text","type":"string","value":"План эвакуации: 1. Сохраняйте спокойствие. 2. Не сохраняйте Excel. 3. Бегите."}]},{"id":167,"name":"","type":"note","rotation":0,"visible":true,"x":2944,"y":256,"width":0,"height":0,"point":true,"properties":[{"name":"text","type":"string","value":"КУКАРЕКС — пилотная партия лаборатории −3. Не смешивать с кофе. Не выдавать сотрудникам. Подпись: менеджер."}]}]}]}