{"type":"map","version":"1.10","tiledversion":"1.11.0","orientation":"orthogonal","renderorder":"right-down","width":84,"height":56,"tilewidth":64,"tileheight":64,"infinite":false,"nextlayerid":5,"nextobjectid":156,"properties":[{"name":"theme","type":"string","value":"street"},{"name":"ambient","type":"float","value":0.12},{"name":"wallFace","type":"string","value":"street"},{"name":"podLook","type":"string","value":"egg"}],"tilesets":[{"firstgid":1,"name":"kenney","image":"../gen/tiles.png","imagewidth":1728,"imageheight":1280,"tilewidth":64,"tileheight":64,"tilecount":540,"columns":27,"margin":0,"spacing":0},{"firstgid":541,"name":"walls","image":"../gen/walls.png","imagewidth":1024,"imageheight":1536,"tilewidth":64,"tileheight":64,"tilecount":384,"columns":16,"margin":0,"spacing":0}],"layers":[{"id":1,"name":"floor","type":"tilelayer","width":84,"height":56,"x":0,"y":0,"opacity":1,"visible":true,"data":[0,0,0,0,0,0,0,0,0,0,0,0,0,0,0,0,0,0,0,0,0,0,0,0,0,0,0,0,0,0,0,0,0,0,0,0,0,0,508,508,503,503,505,503,503,508,508,0,0,0,0,0,0,0,0,0,0,0,0,0,0,0,0,0,0,0,0,0,0,0,0,0,0,0,0,0,0,0,0,0,0,0,0,0,0,0,0,0,0,0,0,0,0,0,0,0,0,0,0,0,0,0,0,0,0,0,0,0,0,0,0,0,0,0,0,0,0,0,0,0,0,0,508,508,503,503,505,503,503,508,508,0,0,0,0,0,0,0,0,0,0,0,0,0,0,0,0,0,0,0,0,0,0,0,0,0,0,0,0,0,0,0,0,0,0,0,0,0,0,0,0,0,0,0,0,0,0,0,0,0,0,0,0,0,0,0,0,0,0,0,0,0,0,0,0,0,0,0,0,0,0,0,0,0,0,0,508,508,503,503,505,503,503,508,508,0,0,0,0,0,0,0,0,0,0,0,0,0,0,0,0,0,0,0,0,0,0,0,0,0,0,0,0,0,0,0,0,0,0,0,0,0,0,0,0,511,511,511,511,511,511,511,511,511,511,511,511,511,511,511,511,511,511,511,511,511,511,511,511,511,511,511,511,511,511,511,511,511,511,0,508,508,503,503,505,503,503,508,508,0,0,0,0,0,0,0,0,0,0,0,0,0,0,0,0,0,0,0,0,0,0,0,0,0,0,0,0,0,0,0,0,0,0,0,0,0,0,0,0,511,511,511,511,511,511,511,511,511,511,511,511,511,511,511,511,511,511,511,511,511,511,511,511,511,511,511,511,511,511,511,511,511,511,508,508,508,503,503,505,503,503,508,508,0,0,0,0,0,0,0,0,0,0,0,0,0,0,0,0,0,0,0,0,0,0,0,0,0,0,0,0,0,0,0,0,0,0,0,0,0,0,0,0,511,511,511,511,511,511,511,511,511,511,511,511,511,511,511,511,511,511,511,511,511,511,511,511,511,511,511,511,511,511,511,511,511,511,508,508,508,503,503,505,503,503,508,508,0,0,0,0,0,0,0,0,0,0,0,0,0,0,0,0,0,0,0,0,0,0,0,0,0,0,0,0,0,0,0,0,0,0,0,0,0,0,0,0,511,511,511,511,511,511,511,511,511,511,511,511,511,511,511,511,511,511,511,511,511,511,511,511,511,511,511,511,511,511,511,511,511,511,508,508,508,503,503,505,503,503,508,508,0,0,0,0,0,0,0,0,0,0,0,0,0,0,0,0,0,0,0,0,0,0,0,0,0,0,0,0,0,0,0,0,0,0,0,0,0,0,0,0,511,511,511,511,511,511,511,511,511,511,511,511,511,511,511,511,511,511,511,511,511,511,511,511,511,511,511,511,511,511,511,511,511,511,508,508,508,503,503,505,503,503,508,508,0,0,0,0,0,0,0,0,0,0,0,0,0,0,0,0,0,0,0,0,0,0,0,0,0,0,0,0,0,0,0,0,0,0,0,0,0,0,0,0,511,511,511,511,511,511,511,511,511,511,511,511,511,511,511,511,511,511,511,511,511,511,511,511,511,511,511,511,511,511,511,511,511,511,508,508,508,503,503,505,503,503,508,508,0,0,0,0,0,0,0,0,0,0,0,0,0,0,0,0,0,0,0,0,0,0,0,0,0,0,0,0,0,0,0,0,0,0,0,0,0,0,0,0,511,511,511,511,511,511,511,511,511,511,511,511,511,511,511,511,511,511,511,511,511,511,511,511,511,511,511,511,511,511,511,511,511,511,508,508,508,503,503,505,503,503,508,508,0,0,0,0,0,0,0,0,0,0,0,0,0,0,0,0,0,0,0,0,0,0,0,0,0,0,0,0,0,0,0,0,0,0,0,0,0,0,0,0,511,511,511,511,511,511,511,511,511,511,511,511,511,511,511,511,511,511,511,511,511,511,511,511,511,511,511,511,511,511,511,511,511,511,508,508,508,503,503,505,503,503,508,508,0,0,0,0,0,0,0,0,0,0,0,0,0,0,0,0,0,0,0,0,0,0,0,0,0,0,0,0,0,0,0,0,0,0,0,0,0,0,0,0,511,511,511,511,511,511,511,511,511,511,511,511,511,511,511,511,511,511,511,511,511,511,511,511,511,511,511,511,511,511,511,511,511,511,508,508,508,503,503,505,503,503,508,508,0,0,0,0,0,0,0,0,0,0,0,0,0,0,0,0,0,0,0,0,0,0,0,0,0,0,0,0,0,0,0,0,0,0,0,0,0,0,0,0,511,511,511,511,511,511,511,511,511,511,511,511,511,511,511,511,511,511,511,511,511,511,511,511,511,511,511,511,511,511,511,511,511,511,508,508,508,503,503,505,503,503,508,508,0,0,0,0,0,0,0,0,0,0,0,0,0,0,0,0,0,0,0,0,0,0,0,0,0,0,0,0,0,0,0,0,0,0,0,0,0,0,0,0,511,511,511,511,511,511,511,511,511,511,511,511,511,511,511,511,511,511,511,511,511,511,511,511,511,511,511,511,511,511,511,511,511,511,0,508,508,503,503,505,503,503,508,508,0,0,0,0,0,0,0,0,0,0,0,0,0,0,0,0,0,0,0,0,0,0,0,0,0,0,0,0,0,0,0,0,0,0,0,0,0,0,0,0,511,511,511,511,511,511,511,511,511,511,511,511,511,511,511,511,511,511,511,511,511,511,511,511,511,511,511,511,511,511,511,511,511,511,0,508,508,503,503,505,503,503,508,508,0,0,0,0,0,0,0,0,0,0,0,0,0,0,0,0,0,0,0,0,0,0,0,0,0,0,0,0,0,0,0,0,0,0,0,0,0,0,0,0,511,511,511,511,511,511,511,511,511,511,511,511,511,511,511,511,511,511,511,511,511,511,511,511,511,511,511,511,511,511,511,511,511,511,0,0,0,0,0,0,0,0,0,0,0,0,0,0,0,0,0,0,0,0,0,0,0,0,0,0,0,0,0,0,0,0,0,0,0,0,0,0,0,0,0,0,0,0,0,0,0,0,0,0,511,511,511,511,511,511,511,511,511,511,511,511,511,511,511,511,511,511,511,511,511,511,511,511,511,511,511,511,511,511,511,511,511,511,0,0,0,0,0,0,0,0,0,0,0,0,0,0,0,0,0,0,0,0,0,0,0,0,0,0,0,0,0,0,0,0,0,0,0,0,0,0,0,0,0,0,0,0,0,0,0,0,0,0,511,511,511,511,511,511,511,511,511,511,511,511,511,511,511,511,511,511,511,511,511,511,511,511,511,511,511,511,511,511,511,511,511,511,0,0,0,0,0,0,0,0,0,0,0,0,0,0,0,0,0,0,0,0,0,0,0,0,0,0,0,0,0,0,0,0,0,0,0,0,0,0,0,0,0,0,0,0,0,0,0,0,0,0,511,511,511,511,511,511,511,511,511,511,511,511,511,511,511,511,511,511,511,511,511,511,511,511,511,511,511,511,511,511,511,511,511,511,0,0,0,0,0,0,0,0,0,0,0,0,0,0,0,0,0,0,0,0,0,0,0,0,0,0,0,0,0,0,0,0,0,0,0,0,0,0,0,0,0,0,0,0,0,0,0,0,0,0,511,511,511,511,511,511,511,511,511,511,511,511,511,511,511,511,511,511,511,511,511,511,511,511,511,511,511,511,511,511,511,511,511,511,0,0,0,0,0,0,0,0,0,0,0,0,0,0,0,0,0,0,0,0,0,0,0,0,0,0,0,0,0,0,0,0,0,0,0,0,0,0,0,0,0,0,0,0,0,0,0,0,0,0,511,511,511,511,511,511,511,511,511,511,511,511,511,511,511,511,511,511,511,511,511,511,511,511,511,511,511,511,511,511,511,511,511,511,0,0,0,0,0,0,0,0,0,0,0,0,0,0,0,0,0,0,0,0,0,0,0,0,0,0,0,0,0,0,0,0,0,0,0,0,0,0,0,0,0,0,0,0,0,0,0,0,0,0,511,511,511,511,511,511,511,511,511,511,511,511,511,511,511,511,511,511,511,511,511,511,511,511,511,511,511,511,511,511,511,511,511,511,0,0,0,0,0,0,0,0,0,0,0,0,0,0,0,0,0,0,0,0,0,0,0,0,0,0,0,0,0,0,0,0,0,0,0,0,0,0,0,0,0,0,0,0,0,0,0,0,0,0,511,511,511,511,511,511,511,511,511,511,511,511,511,511,511,511,511,511,511,511,511,511,511,511,511,511,511,511,511,511,511,511,511,511,0,0,0,0,0,0,0,0,0,0,0,0,0,0,0,0,0,0,0,0,0,0,0,0,0,0,0,0,0,0,0,0,0,0,0,0,0,0,0,0,0,0,0,0,0,0,0,0,0,0,511,511,511,511,511,511,511,511,511,511,511,511,511,511,511,511,511,511,511,511,511,511,511,511,511,511,511,511,511,511,511,511,511,511,0,0,0,0,0,0,0,0,0,0,0,0,0,0,0,0,0,0,0,0,0,0,0,0,0,0,0,0,0,0,0,0,0,0,0,0,0,0,0,0,0,0,0,0,0,0,0,0,0,0,511,511,511,511,511,511,511,511,511,511,511,511,511,511,511,511,511,511,511,511,511,511,511,511,511,511,511,511,511,511,511,511,511,511,0,0,0,0,0,0,0,0,0,0,0,0,0,0,0,0,0,0,0,0,0,0,0,0,0,0,0,0,0,0,0,0,0,0,0,0,0,0,0,0,0,0,0,0,0,0,0,0,0,0,511,511,511,511,511,511,511,511,511,511,511,511,511,511,511,511,511,511,511,511,511,511,511,511,511,511,511,511,511,511,511,511,511,511,0,0,0,0,0,0,0,0,0,0,0,0,0,0,0,0,0,0,0,0,0,0,0,0,0,0,0,0,0,0,0,0,0,0,0,0,0,0,0,0,0,0,0,0,0,0,0,0,0,0,511,511,511,511,511,511,511,511,511,511,511,511,511,511,511,511,511,511,511,511,511,511,511,511,511,511,511,511,511,511,511,511,511,511,0,0,0,0,0,0,0,0,0,0,0,0,0,0,0,0,0,0,0,0,0,0,0,0,0,0,0,0,0,0,0,0,0,0,0,0,0,0,0,0,0,0,0,0,0,0,0,0,0,0,0,0,0,0,0,0,0,0,0,0,0,0,0,0,515,515,515,515,0,0,0,0,0,0,0,0,0,0,0,0,0,0,0,0,0,0,0,0,0,0,0,0,0,0,0,0,0,0,0,0,0,0,0,0,0,0,0,0,0,0,0,0,0,0,0,0,0,0,0,0,0,0,0,0,0,0,0,0,0,0,0,0,0,0,510,509,510,509,509,509,509,510,509,509,509,509,509,509,509,515,515,510,510,510,509,510,510,510,510,509,509,510,510,509,509,510,510,509,510,0,0,0,0,0,0,0,0,0,0,0,0,0,0,0,0,0,0,0,0,0,0,0,0,0,0,0,0,0,0,0,0,0,0,0,0,0,0,0,0,0,0,0,0,0,0,0,0,0,510,510,510,510,509,509,510,509,510,509,509,509,510,509,509,515,515,510,510,509,510,509,510,510,510,510,509,510,510,510,510,510,509,510,509,0,0,0,0,0,0,0,0,0,0,0,0,0,0,0,0,0,0,0,0,0,0,0,0,0,0,0,0,0,0,0,0,0,0,0,0,0,0,0,0,0,0,0,0,0,0,0,0,0,509,510,510,509,509,509,509,509,509,510,509,509,510,510,509,515,515,510,509,509,509,510,509,510,510,509,509,509,509,510,510,510,510,509,509,515,503,503,503,503,503,503,503,503,503,503,503,503,503,503,503,503,503,503,503,503,503,503,503,503,503,503,503,503,503,503,503,503,0,0,0,0,0,0,0,0,0,0,0,0,0,0,0,0,510,510,510,510,510,509,510,509,510,510,509,509,510,509,509,515,515,509,510,510,510,509,509,509,510,510,509,510,510,510,509,509,510,509,509,515,503,503,503,503,503,503,503,503,503,503,503,503,503,503,503,503,503,503,503,503,503,503,503,503,503,503,503,503,503,503,503,503,0,7,7,7,7,7,7,7,7,7,7,0,0,0,0,0,509,510,510,509,509,510,510,510,510,509,510,510,509,509,509,515,515,509,510,509,510,510,510,509,510,509,510,509,510,509,509,510,509,510,509,515,503,503,503,503,503,503,503,503,503,503,503,503,503,503,503,503,503,503,503,503,503,503,503,503,503,503,503,503,503,503,503,503,0,7,7,7,7,7,7,7,7,7,7,0,0,0,0,0,509,510,510,510,509,509,509,510,510,510,510,510,510,510,509,515,515,510,509,510,509,510,510,510,510,510,509,510,509,509,509,510,510,510,510,515,503,503,503,503,503,503,503,503,503,503,503,503,503,503,503,503,503,503,503,503,503,503,503,503,503,503,503,503,503,503,503,503,0,7,7,7,7,7,7,7,7,7,7,0,0,0,0,0,509,509,509,510,510,510,509,510,509,510,509,509,510,510,510,515,515,509,510,509,509,510,510,509,509,510,509,510,510,510,509,509,509,509,509,515,503,503,503,503,503,503,503,503,503,503,503,503,503,503,503,503,503,503,503,503,503,503,503,503,503,503,503,503,503,503,503,503,0,7,7,7,7,7,7,7,7,7,7,0,0,0,0,0,509,510,510,509,510,509,509,509,510,510,509,509,509,509,509,515,515,510,510,510,510,509,509,509,510,509,509,509,510,510,510,510,510,509,510,515,503,503,503,503,503,503,503,503,503,503,503,503,503,503,503,503,503,503,503,503,503,503,503,503,503,503,503,503,503,503,503,503,0,7,7,7,7,7,7,7,7,7,7,0,0,0,0,0,510,510,510,510,510,509,509,509,510,509,509,509,510,510,510,515,515,510,510,509,509,510,509,509,509,509,510,509,510,509,510,510,510,509,509,515,503,503,503,503,503,503,503,503,503,503,503,503,503,503,503,503,503,503,503,503,503,503,503,503,503,503,503,503,503,503,503,503,0,7,7,7,7,7,7,7,7,7,7,0,0,0,0,0,509,509,510,509,509,510,510,510,510,510,509,510,509,510,510,515,515,509,509,510,510,510,510,510,510,509,510,510,510,510,510,510,509,509,509,515,503,503,503,503,503,503,503,503,503,503,503,503,503,503,503,503,503,503,503,503,503,503,503,503,503,503,503,503,503,503,503,503,0,7,7,7,7,7,7,7,7,7,7,0,0,0,0,0,509,510,509,510,510,510,510,509,509,510,509,509,509,510,509,515,515,510,510,510,509,509,509,510,509,510,510,510,510,509,510,510,509,509,509,515,503,503,503,503,503,503,503,503,503,503,503,503,503,503,503,503,503,503,503,503,503,503,503,503,503,503,503,503,503,503,503,503,0,7,7,7,7,7,7,7,7,7,7,0,0,0,0,0,515,515,515,515,515,515,515,515,515,515,515,515,515,515,515,515,515,515,515,515,515,515,515,515,515,515,515,515,515,515,515,515,515,515,515,515,503,503,503,503,503,503,503,503,503,503,503,503,503,503,503,503,503,503,503,503,503,503,503,503,503,503,503,503,503,503,503,503,503,0,0,0,7,7,7,0,0,0,0,0,0,0,0,0,515,515,515,515,515,515,515,515,515,515,515,515,515,515,515,515,515,515,515,515,515,515,515,515,515,515,515,515,515,515,515,515,515,515,515,515,503,503,503,503,503,503,503,503,503,503,503,503,503,503,503,503,503,503,503,503,503,503,503,503,503,503,503,503,503,503,503,503,503,503,503,503,503,503,503,503,503,503,503,0,0,0,0,0,509,510,510,509,510,510,510,510,509,509,510,510,509,509,509,515,515,510,510,510,509,509,509,510,510,510,509,510,510,509,510,509,510,510,510,515,503,503,503,503,503,503,503,503,503,503,503,503,503,503,503,503,503,503,503,503,503,503,503,503,503,503,503,503,503,503,503,503,503,503,503,503,503,503,503,503,503,503,503,0,0,0,0,0,509,510,509,509,510,510,510,510,509,509,510,510,509,509,510,515,515,510,510,510,510,510,509,510,509,509,510,509,510,509,510,510,510,510,509,515,503,503,503,503,503,503,503,503,503,503,503,503,503,503,503,503,503,503,503,503,503,503,503,503,503,503,503,503,503,503,503,503,503,503,503,503,503,503,503,503,503,503,503,0,0,0,0,0,509,509,509,510,509,510,509,510,510,510,510,510,510,510,510,515,515,510,509,510,509,510,509,510,510,510,509,510,509,510,510,510,509,509,509,515,503,503,503,503,503,503,503,503,503,503,503,503,503,503,503,503,503,503,503,503,503,503,503,503,503,503,503,503,503,503,503,503,503,503,503,503,503,503,503,503,503,503,503,0,0,0,0,0,510,509,510,510,510,509,509,510,510,509,509,509,510,510,509,515,515,510,509,509,509,510,509,510,510,510,509,509,510,510,510,509,510,510,509,515,503,503,503,503,503,503,503,503,503,503,503,503,503,503,503,503,503,503,503,503,503,503,503,503,503,503,503,503,503,503,503,503,503,503,503,503,503,503,503,503,503,503,503,0,0,0,0,0,509,510,510,509,509,509,510,510,509,510,510,510,509,509,510,515,515,509,509,510,509,510,510,510,510,509,510,510,510,509,509,509,510,509,510,515,503,503,503,503,503,503,503,503,503,503,503,503,503,503,503,503,503,503,503,503,503,503,503,503,503,503,503,503,503,503,503,503,503,503,503,503,503,503,503,503,503,503,503,0,0,0,0,0,509,510,509,510,509,509,510,510,510,510,509,509,509,509,510,515,515,509,509,509,510,509,509,510,510,510,510,510,510,509,510,510,509,509,509,515,503,503,503,503,503,503,503,503,503,503,503,503,503,503,503,503,503,503,503,503,503,503,503,503,503,503,503,0,0,0,0,0,503,503,503,503,503,503,503,503,503,503,503,0,0,0,0,0,510,509,509,510,509,509,509,509,510,509,510,510,509,510,509,515,515,509,510,510,510,510,510,510,510,510,510,510,510,509,510,509,510,509,510,515,503,503,503,503,503,503,503,503,503,503,503,503,503,503,503,503,503,503,503,503,503,503,503,503,503,503,503,0,508,508,508,0,503,503,503,503,503,503,503,503,503,503,503,0,0,0,0,0,509,509,510,510,510,509,510,509,510,510,510,509,510,510,509,515,515,509,509,509,510,510,510,509,509,510,510,510,509,509,509,509,510,509,509,515,503,503,503,503,503,503,503,503,503,503,503,503,503,503,503,503,503,503,503,503,503,503,503,503,503,503,503,508,508,508,508,0,503,503,503,503,503,503,503,503,503,503,503,0,0,0,0,0,509,510,509,509,510,509,509,510,510,510,510,510,509,510,509,515,515,509,509,509,510,510,510,509,509,510,509,509,509,510,509,510,509,510,509,515,503,503,503,503,503,503,503,503,503,503,503,503,503,503,503,503,503,503,503,503,503,503,503,503,503,503,503,508,508,508,508,0,503,503,503,503,503,503,503,503,503,503,503,0,0,0,0,0,509,510,510,509,509,509,510,510,510,510,510,509,509,510,510,515,515,509,510,509,509,510,510,510,509,509,510,509,509,510,510,509,509,509,509,515,503,503,503,503,503,503,503,503,503,503,503,503,503,503,503,503,503,503,503,503,503,503,503,503,503,503,503,0,508,508,508,0,503,503,503,503,503,503,503,503,503,503,503,0,0,0,0,0,510,510,510,510,509,510,510,509,510,509,509,510,510,510,510,515,515,510,509,509,510,509,510,510,510,510,510,509,510,509,510,510,509,510,510,515,503,503,503,503,503,503,503,503,503,503,503,503,503,503,503,503,503,503,503,503,503,503,503,503,503,503,503,0,0,0,0,0,503,503,503,503,503,503,503,503,503,503,503,0,0,0,0,0,510,509,509,509,509,510,510,509,509,509,509,510,509,510,509,515,515,510,509,510,510,510,509,509,509,509,510,509,509,510,510,509,510,509,509,515,0,0,0,0,0,0,0,0,0,0,0,0,0,0,0,0,503,503,503,503,503,503,503,503,503,503,0,0,0,0,0,0,0,0,0,0,0,0,0,0,0,0,0,0,0,0,0,0,0,0,0,0,0,0,0,0,0,0,0,0,0,0,0,0,0,0,0,0,0,0,0,0,0,0,0,0,0,0,0,0,0,0,0,0,0,0,0,0,0,0,0,0,0,0,0,0,0,0,503,503,503,503,503,503,503,503,503,503,503,503,503,503,0,0,0,0,0,0,0,0,0,0,0,0,0,0,0,0,0,0,0,0,0,0,0,0,0,0,0,0,0,0,0,0,0,0,0,0,0,0,0,0,0,0,0,0,0,0,0,0,0,0,0,0,0,0,0,0,0,0,0,0,0,0,0,0,0,0,0,0,0,0,503,503,503,503,503,503,503,503,503,503,503,503,503,503,0,0,0,0,0,0,0,0,0,0,0,0,0,0,0,0,0,0,0,0,0,0,0,0,0,0,0,0,0,0,0,0,0,0,0,0,0,0,0,0,0,0,0,0,0,0,0,0,0,0,0,0,0,0,0,0,0,0,0,0,0,0,0,0,0,0,0,0,0,0,0,0,0,0,0,0,0,0,0,0,0,0,0,0,0,0,0,0,0,0,0,0,0,0,0,0,0,0,0,0,0]},{"id":2,"name":"decor","type":"tilelayer","width":84,"height":56,"x":0,"y":0,"opacity":1,"visible":true,"data":[0,0,0,0,0,0,0,0,0,0,0,0,0,0,0,0,0,0,0,0,0,0,0,0,0,0,0,0,0,0,0,0,0,0,0,0,0,0,0,0,0,0,0,0,0,0,0,0,0,0,0,0,0,0,0,0,0,0,0,0,0,0,0,0,0,0,0,0,0,0,0,0,0,0,0,0,0,0,0,0,0,0,0,0,0,0,0,0,0,0,0,0,0,0,0,0,0,0,0,0,0,0,0,0,0,0,0,0,0,0,0,0,0,0,0,0,0,0,0,0,0,0,0,0,0,0,0,0,0,0,0,0,0,0,0,0,0,0,0,0,0,0,0,0,0,0,0,0,0,0,0,0,0,0,0,0,0,0,0,0,0,0,0,0,0,0,0,0,0,0,0,0,0,0,0,0,0,0,0,0,0,0,0,0,0,0,0,0,0,0,0,0,0,0,0,0,0,0,0,0,0,0,0,0,0,0,0,0,0,0,0,0,0,0,0,0,0,0,0,0,0,0,0,0,0,0,0,0,0,0,0,0,0,0,0,0,0,0,0,0,0,0,0,0,0,0,0,0,0,0,0,0,0,0,0,0,0,0,0,0,0,0,0,0,0,0,0,0,0,0,0,0,0,0,0,0,0,0,0,0,0,0,0,0,0,0,0,0,0,0,0,0,0,0,0,0,0,0,0,0,0,0,0,0,0,0,0,0,0,0,0,0,0,0,0,0,0,0,0,0,0,0,0,0,0,0,0,0,0,0,0,0,0,0,0,0,0,0,0,0,0,0,0,0,0,0,0,0,0,0,0,0,0,0,0,0,0,0,0,0,0,0,0,0,0,0,0,0,0,0,0,0,0,0,0,0,0,0,0,0,0,0,0,0,0,0,0,0,0,0,0,0,0,0,0,0,0,0,0,0,0,0,0,0,0,0,0,0,0,0,0,0,0,0,0,0,0,0,0,0,0,0,0,0,0,0,0,0,0,0,0,0,0,0,0,0,0,0,0,0,0,0,0,0,0,0,0,0,0,0,0,0,0,0,0,0,0,0,0,0,0,0,0,0,0,0,0,0,0,0,0,0,0,0,0,0,0,0,0,0,0,0,0,0,0,0,0,0,0,0,0,0,0,0,0,0,0,0,0,0,0,0,0,0,0,0,0,0,0,0,0,0,0,0,0,0,0,0,0,0,0,0,0,0,0,0,0,0,0,0,0,0,0,0,0,0,0,0,0,0,0,0,0,0,0,0,0,0,0,0,0,0,0,0,0,0,0,0,0,0,0,0,0,0,0,0,0,0,0,0,0,0,0,0,0,0,0,0,0,0,0,0,0,0,0,0,0,0,0,0,0,0,0,0,0,0,0,0,0,0,0,0,0,0,0,0,0,0,0,0,0,0,0,0,0,0,0,0,0,0,0,0,0,0,0,0,0,0,0,0,0,0,0,0,0,0,0,0,0,0,0,0,0,0,0,0,0,0,0,0,0,0,0,0,0,0,0,0,0,0,0,0,0,0,0,0,0,0,0,0,0,0,0,0,0,0,0,0,0,0,0,0,0,0,0,0,0,0,0,0,0,0,0,0,0,0,0,0,0,0,0,0,0,0,0,0,0,0,0,0,0,0,0,0,0,0,0,0,0,0,0,0,0,0,0,0,0,0,0,0,0,0,0,0,0,0,0,0,0,0,0,0,0,0,0,0,0,0,0,0,0,0,0,0,0,0,0,0,0,0,0,0,0,0,0,0,0,0,0,0,0,0,0,0,0,0,0,0,0,0,0,0,0,0,0,0,0,0,0,0,0,0,0,0,0,0,0,0,0,0,0,0,0,0,0,0,0,0,0,0,0,0,0,0,0,0,0,0,0,0,0,0,0,0,0,0,0,0,0,0,0,0,0,0,0,0,0,0,0,0,0,0,0,0,0,0,0,0,0,0,0,0,0,0,0,0,0,0,0,0,0,0,0,0,0,0,0,0,0,0,0,0,0,0,0,0,0,0,0,0,0,0,0,0,0,0,0,0,0,0,0,0,0,0,0,0,0,0,0,0,0,0,0,0,0,0,0,0,0,0,0,0,0,0,0,0,0,0,0,0,0,0,0,0,0,0,0,0,0,0,0,0,0,0,0,0,0,0,0,0,0,0,0,0,0,0,0,0,0,0,0,0,0,0,0,0,0,0,0,0,0,0,0,0,0,0,0,0,0,0,0,0,0,0,0,0,0,0,0,0,0,0,0,0,0,0,0,0,0,0,0,0,0,0,0,0,0,0,0,0,0,0,0,0,0,0,0,0,0,0,0,0,0,0,0,0,0,0,0,0,0,0,0,0,0,0,0,0,0,0,0,0,0,0,0,0,0,0,0,0,0,0,0,0,0,0,0,0,0,0,0,0,0,0,0,0,0,0,0,0,0,0,0,0,0,0,0,0,0,0,0,0,0,0,0,0,0,0,0,0,0,0,0,0,0,0,0,0,0,0,0,0,0,0,0,0,0,0,0,0,0,0,0,0,0,0,0,0,0,0,0,0,0,0,0,0,0,0,0,0,0,0,0,0,0,0,0,0,0,0,0,0,0,0,0,0,0,0,0,0,0,0,0,0,0,0,0,0,0,0,0,0,0,0,0,0,0,0,0,0,0,0,0,0,0,0,0,0,0,0,0,0,0,0,0,0,0,0,0,0,0,0,0,0,0,0,0,0,0,0,0,0,0,0,0,0,0,0,0,0,0,0,0,0,0,0,0,0,0,0,0,0,0,0,0,0,0,0,0,0,0,0,0,0,0,0,0,0,0,0,0,0,0,0,0,0,0,0,0,0,0,0,0,0,0,0,0,0,0,0,0,0,0,0,0,0,0,0,0,0,0,0,0,0,0,0,0,0,0,0,0,0,0,0,0,0,0,0,0,0,0,0,0,0,0,0,0,0,0,0,0,0,0,0,0,0,0,0,0,0,0,0,0,0,0,0,0,0,0,0,0,0,0,0,0,0,0,0,0,0,0,0,0,0,0,0,0,0,0,0,0,0,0,0,0,0,0,0,0,0,0,0,0,0,0,0,0,0,0,0,0,0,0,0,0,0,0,0,0,0,0,0,0,0,0,0,0,0,0,0,0,0,0,0,0,0,0,0,0,0,0,0,0,0,0,0,0,0,0,0,0,0,0,0,0,0,0,0,0,0,0,0,0,0,0,0,0,0,0,0,0,0,0,0,0,0,0,0,0,0,0,0,0,0,0,0,0,0,0,0,0,0,0,0,0,0,0,0,0,0,0,0,0,0,0,0,0,0,0,0,0,0,0,0,0,0,0,0,0,0,0,0,0,0,0,0,0,0,0,0,0,0,0,0,0,0,0,0,0,0,0,0,0,0,0,0,0,0,0,0,0,0,0,0,0,0,0,0,0,0,0,0,0,0,0,0,0,0,0,0,0,0,0,0,0,0,0,0,0,0,0,0,0,0,0,0,0,0,0,0,0,0,0,0,0,0,0,0,0,0,0,0,0,0,0,0,0,0,0,0,0,0,0,0,0,0,0,0,0,0,0,0,0,0,0,0,0,0,0,0,0,0,0,0,0,0,0,0,0,0,0,0,0,0,0,0,0,0,0,0,0,0,0,0,0,0,0,0,0,0,0,0,0,0,0,0,0,0,0,0,0,0,0,0,0,0,0,0,0,0,0,0,0,0,0,0,0,0,0,0,0,0,0,0,0,0,0,0,0,0,0,0,0,0,0,0,0,0,0,0,0,0,0,0,0,0,0,0,0,0,0,0,0,0,0,0,0,0,0,0,0,0,0,0,0,0,0,0,0,0,0,0,0,0,0,0,0,0,0,0,0,0,0,0,0,0,0,0,0,0,0,0,0,0,0,0,0,0,0,0,0,0,0,0,0,0,0,0,0,0,0,0,0,0,0,0,0,0,0,0,0,0,0,0,0,0,0,0,0,0,0,0,0,0,0,0,0,0,0,0,0,0,0,0,0,0,0,0,0,0,0,0,0,0,0,0,0,0,0,0,0,0,0,0,0,0,0,0,0,0,0,0,0,0,0,0,0,0,0,0,0,0,0,0,0,0,0,0,0,0,0,0,0,0,0,0,0,0,0,0,0,0,0,0,0,0,0,0,0,0,0,0,0,0,0,0,0,0,0,0,0,0,0,0,0,0,0,0,0,0,0,0,0,0,0,0,0,0,0,0,0,0,0,0,0,0,0,0,0,0,0,0,0,0,0,0,0,0,0,0,0,0,0,0,0,0,0,0,0,0,0,0,0,0,0,0,0,0,0,0,0,0,0,0,0,0,0,0,0,0,0,0,0,0,0,0,0,0,0,0,0,0,0,0,0,0,0,0,0,0,0,0,0,0,0,0,0,0,0,0,0,0,0,0,0,0,0,0,0,0,0,0,0,0,0,0,0,0,0,0,0,0,0,0,0,0,0,0,0,0,0,0,0,0,0,0,0,0,0,0,0,0,0,0,0,0,0,0,0,0,0,0,0,0,0,0,0,0,0,0,0,0,0,0,0,0,0,0,0,0,0,0,0,0,0,0,0,0,0,0,0,0,0,0,0,0,0,0,0,0,0,0,0,0,0,0,0,0,0,0,0,0,0,0,0,0,0,0,0,0,0,0,0,0,0,0,0,0,0,0,0,0,0,0,0,0,0,0,0,0,0,0,0,0,0,0,0,0,0,0,0,0,0,0,0,0,0,0,0,0,0,0,0,0,0,0,0,0,0,0,0,0,0,0,0,0,0,0,0,0,0,0,0,0,0,0,0,0,0,0,0,0,0,0,0,0,0,0,0,0,0,0,0,0,0,0,0,0,0,0,0,0,0,0,0,0,0,0,0,0,0,0,0,0,0,0,0,0,0,0,0,0,0,0,0,0,0,0,0,0,0,0,0,0,0,0,0,0,0,0,0,0,0,0,0,0,0,0,0,0,0,0,0,0,0,0,0,0,0,0,0,0,0,0,0,0,0,0,0,0,0,0,0,0,0,0,0,0,0,0,0,0,0,0,0,0,0,0,0,0,0,0,0,0,0,0,0,0,0,0,0,0,0,0,0,0,0,0,0,0,0,0,0,0,0,0,0,0,0,0,0,0,0,0,0,0,0,0,0,0,0,0,0,0,0,0,0,0,0,0,0,0,0,0,0,0,0,0,0,0,0,0,0,0,0,0,0,0,0,0,0,0,0,0,0,0,0,0,0,0,0,0,0,0,0,0,0,0,0,0,0,0,0,0,0,0,0,0,0,0,0,0,0,0,0,0,0,0,0,0,0,0,0,0,0,0,0,0,0,0,0,0,0,0,0,0,0,0,0,0,0,0,0,0,0,0,0,0,0,0,0,0,0,0,0,0,0,0,0,0,0,0,0,0,0,0,0,0,0,0,0,0,0,0,0,0,0,0,0,0,0,0,0,0,0,0,0,0,0,0,0,0,0,0,0,0,0,0,0,0,0,0,0,0,0,0,0,0,0,0,0,0,0,0,0,0,0,0,0,0,0,0,0,0,0,0,0,0,0,0,0,0,0,0,0,0,0,0,0,0,0,0,0,0,0,0,0,0,0,0,0,0,0,0,0,0,0,0,0,0,0,0,0,0,0,0,0,0,0,0,0,0,0,0,0,0,0,0,0,0,0,0,0,0,0,0,0,0,0,0,0,0,0,0,0,0,0,0,0,0,0,0,0,0,0,0,0,0,0,0,0,0,0,0,0,0,0,0,0,0,0,0,0,0,0,0,0,0,0,0,0,0,0,0,0,0,0,0,0,0,0,0,0,0,0,0,0,0,0,0,0,0,0,0,0,0,0,0,0,0,0,0,0,0,0,0,0,0,0,0,0,0,0,0,0,0,0,0,0,0,0,0,0,0,0,0,0,0,0,0,0,0,0,0,0,0,0,0,0,0,0,0,0,0,0,0,0,0,0,0,0,0,0,0,0,0,0,0,0,0,0,0,0,0,0,0,0,0,0,0,0,0,0,0,0,0,0,0,0,0,0,0,0,0,0,0,0,0,0,0,0,0,0,0,0,0,0,0,0,0,0,0,0,0,0,0,0,0,0,0,0,0,0,0,0,0,0,0,0,0,0,0,0,0,0,0,0,0,0,0,0,0,0,0,0,0,0,0,0,0,0,0,0,0,0,0,0,0,0,0,0,0,0,0,0,0,0,0,0,0,0,0,0,0,0,0,0,0,0,0,0,0,0,0,0,0,0,0,0,0,0,0,0,0,0,0,0,0,0,0,0,0,0,0,0,0,0,0,0,0,0,0,0,0,0,0,0,0,0,0,0,0,0,0,0,0,0,0,0,0,0,0,0,0,0,0,0,0,0,0,0,0,0,0,0,0,0,0,0,0,0,0,0,0,0,0,0,0,0,0,0,0,0,0,0,0,0,0,0,0,0,0,0,0,0,0,0,0,0,0,0,0,0,0,0,0,0,0,0,0,0,0,0,0,0,0,0,0,0,0,0,0,0,0,0,0,0,0,0,0,0,0,0,0,0,0,0,0,0,0,0,0,0,0,0,0,0,0,0,0,0,0,0,0,0,0,0,0,0,0,0,0,0,0,0,0,0,0,0,0,0,0,0,0,0,0,0,0,0,0,0,0,0,0,0,0,0,0,0,0,0,0,0,0,0,0,0,0,0,0,0,0,0,0,0,0,0,0,0,0,0,0,0,0,0,0,0,0,0,0,0,0,0,0,0,0,0,0,0,0,0,0,0,0,0,0,0,0,0,0,0,0,0,0,0,0,0,0,0,0,0,0,0,0,0,0,0,0,0,0,0,0,0,0,0,0,0,0,0,0,0,0,0,0,0,0,0,0,0,0,0,0,0,0,0,0,0,0,0,0,0,0,0,0,0,0,0,0,0,0,0,0,0,0,0,0,0,0,0,0,0,0,0,0,0,0,0,0,0,0,0,0,0,0,0,0,0,0,0,0,0,0,0,0,0,0,0,0,0,0,0,0,0,0,0,0,0,0,0,0,0,0,0,0,0,0,0,0,0,0,0,0,0,0,0,0,0,0,0,0,0,0,0,0,0,0,0,0,0,0,0,0,0,0,0,0,0,0,0,0,0,0,0,0,0,0,0,0,0,0,0,0,0,0,0,0,0,0,0,0,0,0,0,0,0,0,0,0,0,0,0,0,0,0,0,0,0,0,0,0,0,0,0,0,0,0,0,0,0,0,0,0,0,0,0,0,0,0,0,0,0,0,0,0,0,0,0,0,0,0,0,0,0,0,0,0,0,0,0,0,0,0,0,0,0,0,0,0,0,0,0,0,0,0,0,0,0,0,0,0,0,0,0,0,0,0,0,0,0,0,0,0,0,0,0,0,0,0,0,0,0,0,0,0,0,0,0,0,0,0,0,0,0,0,0,0,0,0,0,0,0,0,0,0,0,0,0,0,0,0,0,0,0,0,0,0,0,0,0,0,0,0,0,0,0,0,0,0,0,0,0,0,0,0,0,0,0,0,0,0,0,0,0,0,0,0,0,0,0,0,0,0,0,0,0,0,0,0,0,0,0,0,0,0,0,0,0,0,0,0,0,0,0,0,0,0,0,0,0,0,0,0,0,0,0,0,0,0,0,0,0,0,0,0,0,0,0,0,0,0,0,0,0,0,0,0,0,0,0,0,0,0,0,0,0,0,0,0,0,0,0,0,0,0,0,0,0,0,0,0,0,0,0,0,0,0,0,0,0,0,0,0,0,0,0,0,0,0,0,0,0,0,0,0,0,0,0,0,0,0,0,0,0,0,0,0,0,0,0,0,0,0,0,0,0,0,0,0,0,0,0,0,0,0,0,0,0,0,0,0,0,0,0,0,0,0,0,0,0,0,0,0,0,0,0,0,0,0,0,0,0,0,0,0,0,0,0,0,0,0,0,0,0,0,0,0,0,0,0,0,0,0,0,0,0,0,0,0,0,0,0,0,0,0,0,0,0,0,0,0,0,0,0,0,0,0,0,0,0,0,0,0,0,0,0,0,0,0,0,0,0,0,0,0,0,0,0,0,0,0,0,0,0,0,0,0,0,0,0,0,0,0,0,0,0,0,0,0,0,0,0,0,0,0,0,0,0,0,0,0,0,0,0,0,0,0,0,0,0,0,0,0,0,0,0,0,0,0,0,0,0,0,0,0,0,0,0,0,0,0,0,0,0,0,0,0,0,0,0,0,0,0,0,0,0,0,0,0,0,0,0,0,0,0,0,0,0,0,0,0,0,0,0,0,0,0,0,0,0,0,0,0,0,0,0,0,0,0,0,0,0,0,0,0,0,0,0,0,0,0,0,0,0,0,0,0,0,0,0,0,0,0,0,0,0,0,0,0,0,0,0,0,0,0,0,0,0,0,0,0,0,0,0,0,0,0,0,0,0,0,0,0,0,0,0,0,0,0,0,0,0,0,0,0,0,0,0,0,0,0,0,0,0,0,0,0,0,0,0,0,0,0,0,0,0,0,0,0,0,0,0,0,0,0,0,0,0,0,0,0,0,0,0,0,0,0,0,0,0,0,0,0,0,0,0,0,0,0,0,0,0,0,0,0,0,0,0,0,0,0,0,0,0,0,0,0,0,0,0,0,0,0,0,0,0,0,0,0,0,0,0,0,0,0,0,0,0,0,0,0,0,0,0,0,0,0,0,0,0,0,0,0,0,0,0,0,0,0,0,0,0,0,0,0,0,0,0,0,0,0,0,0,0,0,0,0,0,0,0,0,0,0,0,0,0,0,0,0,0,0,0,0,0,0,0,0,0,0,0,0,0,0,0,0,0,0,0,0,0,0,0,0,0,0,0,0,0,0,0,0,0,0,0,0,0,0,0,0,0,0,0,0,0,0,0,0,0,0,0,0,0,0,0,0,0,0,0,0,0,0,0,0,0,0,0,0,0,0,0,0,0,0,0,0,0,0,0,0,0,0,0,0,0,0,0,0,0,0,0,0,0,0,0,0,0,0,0,0,0,0,0,0,0,0,0,0,0,0,0,0,0,0,0,0,0,0,0,0,0,0,0,0,0,0,0,0,0,0,0,0,0,0,0,0,0,0,0,0,0,0,0,0,0,0,0,0,0,0,0,0,0,0,0,0,0,0,0,0,0,0,0,0,0,0,0,0,0,0,0,0,0,0,0,0,0,0,0,0,0,0,0,0,0,0,0,0,0,0,0,0,0,0,0,0,0,0,0,0,0,0,0,0,0,0,0,0,0,0,0,0,0,0,0,0,0,0,0,0,0,0,0,0,0,0,0,0,0,0,0,0,0,0,0,0,0,0,0,0,0,0,0,0,0,0,0,0,0,0,0,0,0,0,0,0,0,0,0,0,0,0,0,0,0,0,0,0,0,0,0,0,0,0,0,0,0,0,0,0,0,0,0,0,0,0,0,0,0,0,0,0,0,0,0,0,0,0,0,0,0,0,0,0,0,0,0,0,0,0,0,0,0,0,0,0,0,0,0,0,0,0,0,0,0,0,0,0,0,0,0,0,0,0,0,0,0,0,0,0,0,0,0,0,0,0,0,0,0,0,0,0,0,0,0,0,0,0,0,0,0,0,0,0,0,0,0,0,0,0,0,0,0,0,0,0,0,0,0,0,0,0,0,0,0,0,0,0,0,0,0,0,0,0,0,0,0,0,0,0,0,0,0,0,0,0,0,0,0,0,0,0,0,0,0,0,0,0,0,0,0,0,0,0,0,0,0,0,0,0,0,0,0,0,0,0,0,0,0,0,0,0,0,0,0,0,0,0,0,0,0,0,0,0,0,0,0,0,0,0,0,0,0,0,0,0,0,0,0,0,0,0,0,0,0,0,0,0,0,0,0,0,0,0,0,0,0,0,0,0,0,0,0,0,0,0,0,0,0,0,0,0,0,0,0,0,0,0,0,0,0,0,0,0,0,0,0,0,0,0,0,0,0,0,0,0,0,0,0,0,0,0,0,0,0,0,0,0,0,0,0,0,0,0,0,0,0,0,0,0,0,0,0,0,0,0,0,0,0,0,0,0,0,0,0,0,0,0,0,0,0,0,0,0,0,0,0,0,0,0,0,0,0,0,0,0,0,0,0,0,0,0,0,0,0,0,0,0,0,0,0,0,0,0,0,0,0,0,0,0,0,0,0,0,0,0,0,0,0,0,0,0,0,0,0,0,0,0,0,0,0,0,0,0,0,0,0,0,0,0,0,0,0,0,0,0,0,0,0,0,0,0,0,0,0,0,0,0,0,0,0,0,0,0,0,0,0,0,0,0,0,0,0,0,0,0,0,0,0,0,0,0,0,0,0,0,0,0,0,0,0,0,0,0,0,0,0,0,0,0,0,0,0,0,0,0,0,0,0,0,0,0,0,0,0,0,0,0,0,0,0,0,0,0,0,0,0,0,0,0,0,0,0,0,0,0,0,0,0,0,0,0,0,0,0,0,0,0,0,0,0,0,0,0,0,0,0,0,0,0,0,0,0,0,0,0,0,0,0,0,0,0,0,0,0,0,0,0,0,0,0,0,0,0,0,0,0,0,0,0,0,0,0,0,0,0,0,0,0,0,0,0,0,0,0,0,0,0,0,0,0,0,0,0,0,0,0,0,0,0,0,0,0,0,0,0,0,0,0,0,0,0,0,0,0,0]},{"id":3,"name":"walls","type":"tilelayer","width":84,"height":56,"x":0,"y":0,"opacity":1,"visible":true,"data":[875,875,875,875,875,875,875,875,875,875,875,875,875,875,875,875,875,875,875,875,875,875,875,875,875,875,875,875,875,875,875,875,875,875,875,875,875,871,0,0,0,0,0,0,0,0,0,853,875,875,875,875,875,875,875,875,875,875,875,875,875,875,875,875,875,875,875,875,875,875,875,875,875,875,875,875,875,875,875,875,875,875,875,875,875,875,875,875,875,875,875,875,875,875,875,875,875,875,875,875,875,875,875,875,875,875,875,875,875,875,875,875,875,875,875,875,875,875,875,875,875,871,0,0,0,0,0,0,0,0,0,853,875,875,875,875,875,875,875,875,875,875,875,875,875,875,875,875,875,875,875,875,875,875,875,875,875,875,875,875,875,875,875,875,875,875,875,875,875,875,873,867,867,867,867,867,867,867,867,867,867,867,867,867,867,867,867,867,867,867,867,867,867,867,867,867,867,867,867,867,867,867,867,867,867,865,0,0,0,0,0,0,0,0,0,853,875,875,875,875,875,875,875,875,875,875,875,875,875,875,875,875,875,875,875,875,875,875,875,875,875,875,875,875,875,875,875,875,875,875,875,875,875,875,871,0,0,0,0,0,0,0,0,0,0,0,0,0,0,0,0,0,0,0,0,0,0,0,0,0,0,0,0,0,0,0,0,0,0,830,0,0,0,0,0,0,0,0,0,853,875,875,875,875,875,875,875,875,875,875,875,875,875,875,875,875,875,875,875,875,875,875,875,875,875,875,875,875,875,875,875,875,875,875,875,875,875,875,871,0,0,0,0,0,0,0,0,0,0,0,0,0,0,0,0,0,0,0,0,0,0,0,0,0,0,0,0,0,0,0,0,0,0,0,0,0,0,0,0,0,0,0,0,853,875,875,875,875,875,875,875,875,875,875,875,875,875,875,875,875,875,875,875,875,875,875,875,875,875,875,875,875,875,875,875,875,875,875,875,875,875,875,871,0,0,0,0,0,0,0,0,0,0,0,0,0,0,0,0,0,0,0,0,0,0,0,0,0,0,0,0,0,0,0,0,0,0,0,0,0,0,0,0,0,0,0,0,853,875,875,875,875,875,875,875,875,875,875,875,875,875,875,875,875,875,875,875,875,875,875,875,875,875,875,875,875,875,875,875,875,875,875,875,875,875,875,871,0,0,0,0,0,0,0,0,0,0,0,0,0,0,0,0,0,0,0,0,0,0,0,0,0,0,0,0,0,0,0,0,0,0,0,0,0,0,0,0,0,0,0,0,853,875,875,875,875,875,875,875,875,875,875,875,875,875,875,875,875,875,875,875,875,875,875,875,875,875,875,875,875,875,875,875,875,875,875,875,875,875,875,871,0,0,0,0,0,0,0,0,0,0,0,0,0,0,0,0,0,0,0,0,0,0,0,0,0,0,0,0,0,0,0,0,0,0,0,0,0,0,0,0,0,0,0,0,853,875,875,875,875,875,875,875,875,875,875,875,875,875,875,875,875,875,875,875,875,875,875,875,875,875,875,875,875,875,875,875,875,875,875,875,875,875,875,871,0,0,0,0,0,0,0,0,0,0,0,0,0,0,0,0,0,0,0,0,0,0,0,0,0,0,0,0,0,0,0,0,0,0,0,0,0,0,0,0,0,0,0,0,853,875,875,875,875,875,875,875,875,875,875,875,875,875,875,875,875,875,875,875,875,875,875,875,875,875,875,875,875,875,875,875,875,875,875,875,875,875,875,871,0,0,0,0,0,0,0,0,0,0,0,0,0,0,0,0,0,0,0,0,0,0,0,0,0,0,0,0,0,0,0,0,0,0,0,0,0,0,0,0,0,0,0,0,853,875,875,875,875,875,875,875,875,875,875,875,875,875,875,875,875,875,875,875,875,875,875,875,875,875,875,875,875,875,875,875,875,875,875,875,875,875,875,871,0,0,0,0,0,0,0,0,0,0,0,0,0,0,0,0,0,0,0,0,0,0,0,0,0,0,0,0,0,0,0,0,0,0,0,0,0,0,0,0,0,0,0,0,853,875,875,875,875,875,875,875,875,875,875,875,875,875,875,875,875,875,875,875,875,875,875,875,875,875,875,875,875,875,875,875,875,875,875,875,875,875,875,871,0,0,0,0,0,0,0,0,0,0,0,0,0,0,0,0,0,0,0,0,0,0,0,0,0,0,0,0,0,0,0,0,0,0,0,0,0,0,0,0,0,0,0,0,853,875,875,875,875,875,875,875,875,875,875,875,875,875,875,875,875,875,875,875,875,875,875,875,875,875,875,875,875,875,875,875,875,875,875,875,875,875,875,871,0,0,0,0,0,0,0,0,0,0,0,0,0,0,0,0,0,0,0,0,0,0,0,0,0,0,0,0,0,0,0,0,0,0,0,0,0,0,0,0,0,0,0,0,853,875,875,875,875,875,875,875,875,875,875,875,875,875,875,875,875,875,875,875,875,875,875,875,875,875,875,875,875,875,875,875,875,875,875,875,875,875,875,871,0,0,0,0,0,0,0,0,0,0,0,0,0,0,0,0,0,0,0,0,0,0,0,0,0,0,0,0,0,0,0,0,0,0,833,0,0,0,0,0,0,0,0,0,853,875,875,875,875,875,875,875,875,875,875,875,875,875,875,875,875,875,875,875,875,875,875,875,875,875,875,875,875,875,875,875,875,875,875,875,875,875,875,871,0,0,0,0,0,0,0,0,0,0,0,0,0,0,0,0,0,0,0,0,0,0,0,0,0,0,0,0,0,0,0,0,0,0,834,0,0,0,0,0,0,0,0,0,853,875,875,875,875,875,875,875,875,875,875,875,875,875,875,875,875,875,875,875,875,875,875,875,875,875,875,875,875,875,875,875,875,875,875,875,875,875,875,871,0,0,0,0,0,0,0,0,0,0,0,0,0,0,0,0,0,0,0,0,0,0,0,0,0,0,0,0,0,0,0,0,0,0,850,860,860,860,860,860,860,860,860,860,862,875,875,875,875,875,875,875,875,875,875,875,875,875,875,875,875,875,875,875,875,875,875,875,875,875,875,875,875,875,875,875,875,875,875,875,875,875,875,871,0,0,0,0,0,0,0,0,0,0,0,0,0,0,0,0,0,0,0,0,0,0,0,0,0,0,0,0,0,0,0,0,0,0,853,875,875,875,875,875,875,875,875,875,875,875,875,875,875,875,875,875,875,875,875,875,875,875,875,875,875,875,875,875,875,875,875,875,875,875,875,875,875,875,875,875,875,875,875,875,875,875,875,871,0,0,0,0,0,0,0,0,0,0,0,0,0,0,0,0,0,0,0,0,0,0,0,0,0,0,0,0,0,0,0,0,0,0,853,875,875,875,875,875,875,875,875,875,875,875,875,875,875,875,875,875,875,875,875,875,875,875,875,875,875,875,875,875,875,875,875,875,875,875,875,875,875,875,875,875,875,875,875,875,875,875,875,871,0,0,0,0,0,0,0,0,0,0,0,0,0,0,0,0,0,0,0,0,0,0,0,0,0,0,0,0,0,0,0,0,0,0,853,875,875,875,875,875,875,875,875,875,875,875,875,875,875,875,875,875,875,875,875,875,875,875,875,875,875,875,875,875,875,875,875,875,875,875,875,875,875,875,875,875,875,875,875,875,875,875,875,871,0,0,0,0,0,0,0,0,0,0,0,0,0,0,0,0,0,0,0,0,0,0,0,0,0,0,0,0,0,0,0,0,0,0,853,875,875,875,875,875,875,875,875,875,875,875,875,875,875,875,875,875,875,875,875,875,875,875,875,875,875,875,875,875,875,875,875,875,875,875,875,875,875,875,875,875,875,875,875,875,875,875,875,871,0,0,0,0,0,0,0,0,0,0,0,0,0,0,0,0,0,0,0,0,0,0,0,0,0,0,0,0,0,0,0,0,0,0,853,875,875,875,875,875,875,875,875,875,875,875,875,875,875,875,875,875,875,875,875,875,875,875,875,875,875,875,875,875,875,875,875,875,875,875,875,875,875,875,875,875,875,875,875,875,875,875,875,871,0,0,0,0,0,0,0,0,0,0,0,0,0,0,0,0,0,0,0,0,0,0,0,0,0,0,0,0,0,0,0,0,0,0,853,875,875,875,875,875,875,875,875,875,875,875,875,875,875,875,875,875,875,875,875,875,875,875,875,875,875,875,875,875,875,875,875,875,875,875,875,875,875,875,875,875,875,875,875,875,875,875,875,871,0,0,0,0,0,0,0,0,0,0,0,0,0,0,0,0,0,0,0,0,0,0,0,0,0,0,0,0,0,0,0,0,0,0,853,875,875,875,875,875,875,875,875,875,875,875,875,875,875,875,875,875,875,875,875,875,875,875,875,875,875,875,875,875,875,875,875,875,875,875,875,875,875,875,875,875,875,875,875,875,875,875,875,871,0,0,0,0,0,0,0,0,0,0,0,0,0,0,0,0,0,0,0,0,0,0,0,0,0,0,0,0,0,0,0,0,0,0,853,875,875,875,875,875,875,875,875,875,875,875,875,875,875,875,875,875,875,875,875,875,875,875,875,875,875,875,875,875,875,875,875,875,875,875,875,875,875,875,875,875,875,875,875,875,875,875,875,871,0,0,0,0,0,0,0,0,0,0,0,0,0,0,0,0,0,0,0,0,0,0,0,0,0,0,0,0,0,0,0,0,0,0,853,875,875,875,875,875,875,875,875,875,875,875,875,875,875,875,875,875,875,875,875,875,875,875,875,875,875,875,875,875,875,875,875,875,875,875,875,875,875,875,875,875,875,875,875,875,875,875,875,871,0,0,0,0,0,0,0,0,0,0,0,0,0,0,0,0,0,0,0,0,0,0,0,0,0,0,0,0,0,0,0,0,0,0,853,875,875,875,875,875,875,875,875,875,875,875,875,875,875,875,875,875,875,875,875,875,875,875,875,875,875,875,875,875,875,875,875,875,875,875,875,875,875,875,875,875,875,875,875,875,875,875,875,871,0,0,0,0,0,0,0,0,0,0,0,0,0,0,0,0,0,0,0,0,0,0,0,0,0,0,0,0,0,0,0,0,0,0,853,875,875,875,875,875,875,875,875,875,875,875,875,875,875,875,875,875,875,875,875,875,875,875,875,875,875,875,875,875,875,875,875,875,875,875,875,875,875,875,875,875,875,875,875,875,875,875,875,872,839,839,839,839,839,839,839,839,839,839,839,839,839,837,0,0,0,0,831,839,839,839,839,839,839,839,839,839,839,839,839,839,839,839,847,870,875,875,875,875,875,875,875,875,875,875,875,875,875,875,875,875,875,875,875,875,875,875,875,875,875,875,875,875,875,875,875,875,875,875,875,875,875,875,875,875,875,875,875,875,875,875,875,871,0,0,0,0,0,0,0,0,0,0,0,0,0,0,0,0,0,0,0,0,0,0,0,0,0,0,0,0,0,0,0,0,0,0,0,853,875,875,875,875,875,875,875,875,875,875,875,875,875,875,875,875,875,875,875,875,875,875,875,875,875,875,875,875,875,875,875,875,875,875,875,875,875,875,875,875,875,875,875,875,875,875,875,871,0,0,0,0,0,0,0,0,0,0,0,0,0,0,0,0,0,0,0,0,0,0,0,0,0,0,0,0,0,0,0,0,0,0,0,845,867,867,867,867,867,867,867,867,867,867,867,867,867,867,867,867,867,867,867,867,867,867,867,867,867,867,867,867,867,867,867,867,870,875,875,875,875,875,875,875,875,875,875,875,875,875,875,871,0,0,0,0,0,0,0,0,0,0,0,0,0,0,0,0,0,0,0,0,0,0,0,0,0,0,0,0,0,0,0,0,0,0,0,0,0,0,0,0,0,0,0,0,0,0,0,0,0,0,0,0,0,0,0,0,0,0,0,0,0,0,0,0,0,0,0,0,846,867,867,867,867,867,867,867,867,867,867,870,875,875,875,871,0,0,0,0,0,0,0,0,0,0,0,0,0,0,0,0,0,0,0,0,0,0,0,0,0,0,0,0,0,0,0,0,0,0,0,0,0,0,0,0,0,0,0,0,0,0,0,0,0,0,0,0,0,0,0,0,0,0,0,0,0,0,0,0,0,0,0,0,834,0,0,0,0,0,0,0,0,0,0,853,875,875,875,871,0,0,0,0,0,0,0,0,0,0,0,0,0,0,0,0,0,0,0,0,0,0,0,0,0,0,0,0,0,0,0,0,0,0,0,0,0,0,0,0,0,0,0,0,0,0,0,0,0,0,0,0,0,0,0,0,0,0,0,0,0,0,0,0,0,0,0,0,834,0,0,0,0,0,0,0,0,0,0,853,875,875,875,871,0,0,0,0,0,0,0,0,0,0,0,0,0,0,0,0,0,0,0,0,0,0,0,0,0,0,0,0,0,0,0,0,0,0,0,0,0,0,0,0,0,0,0,0,0,0,0,0,0,0,0,0,0,0,0,0,0,0,0,0,0,0,0,0,0,0,0,0,834,0,0,0,0,0,0,0,0,0,0,853,875,875,875,871,0,0,0,0,0,0,0,0,0,0,0,0,0,0,0,0,0,0,0,0,0,0,0,0,0,0,0,0,0,0,0,0,0,0,0,0,0,0,0,0,0,0,0,0,0,0,0,0,0,0,0,0,0,0,0,0,0,0,0,0,0,0,0,0,0,0,0,0,834,0,0,0,0,0,0,0,0,0,0,853,875,875,875,871,0,0,0,0,0,0,0,0,0,0,0,0,0,0,0,0,0,0,0,0,0,0,0,0,0,0,0,0,0,0,0,0,0,0,0,0,0,0,0,0,0,0,0,0,0,0,0,0,0,0,0,0,0,0,0,0,0,0,0,0,0,0,0,0,0,0,0,0,834,0,0,0,0,0,0,0,0,0,0,853,875,875,875,871,0,0,0,0,0,0,0,0,0,0,0,0,0,0,0,0,0,0,0,0,0,0,0,0,0,0,0,0,0,0,0,0,0,0,0,0,0,0,0,0,0,0,0,0,0,0,0,0,0,0,0,0,0,0,0,0,0,0,0,0,0,0,0,0,0,0,0,0,834,0,0,0,0,0,0,0,0,0,0,853,875,875,875,871,0,0,0,0,0,0,0,0,0,0,0,0,0,0,0,0,0,0,0,0,0,0,0,0,0,0,0,0,0,0,0,0,0,0,0,0,0,0,0,0,0,0,0,0,0,0,0,0,0,0,0,0,0,0,0,0,0,0,0,0,0,0,0,0,0,0,0,0,834,0,0,0,0,0,0,0,0,0,0,853,875,875,875,871,0,0,0,0,0,0,0,0,0,0,0,0,0,0,0,0,0,0,0,0,0,0,0,0,0,0,0,0,0,0,0,0,0,0,0,0,0,0,0,0,0,0,0,0,0,0,0,0,0,0,0,0,0,0,0,0,0,0,0,0,0,0,0,0,0,0,0,0,830,0,0,0,0,0,0,0,0,0,0,853,875,875,875,871,0,0,0,0,0,0,0,0,0,0,0,0,0,0,0,0,0,0,0,0,0,0,0,0,0,0,0,0,0,0,0,0,0,0,0,0,0,0,0,0,0,0,0,0,0,0,0,0,0,0,0,0,0,0,0,0,0,0,0,0,0,0,0,0,0,0,0,0,0,831,839,837,0,0,0,831,839,839,839,854,875,875,875,871,0,0,0,0,0,0,0,0,0,0,0,0,0,0,0,0,0,0,0,0,0,0,0,0,0,0,0,0,0,0,0,0,0,0,0,0,0,0,0,0,0,0,0,0,0,0,0,0,0,0,0,0,0,0,0,0,0,0,0,0,0,0,0,0,0,0,0,0,0,0,0,0,0,0,0,0,0,0,0,853,875,875,875,871,0,0,0,0,0,0,0,0,0,0,0,0,0,0,0,0,0,0,0,0,0,0,0,0,0,0,0,0,0,0,0,0,0,0,0,0,0,0,0,0,0,0,0,0,0,0,0,0,0,0,0,0,0,0,0,0,0,0,0,0,0,0,0,0,0,0,0,0,0,0,0,0,0,0,0,0,0,0,0,853,875,875,875,871,0,0,0,0,0,0,0,0,0,0,0,0,0,0,0,0,0,0,0,0,0,0,0,0,0,0,0,0,0,0,0,0,0,0,0,0,0,0,0,0,0,0,0,0,0,0,0,0,0,0,0,0,0,0,0,0,0,0,0,0,0,0,0,0,0,0,0,0,0,0,0,0,0,0,0,0,0,0,0,853,875,875,875,871,0,0,0,0,0,0,0,0,0,0,0,0,0,0,0,0,0,0,0,0,0,0,0,0,0,0,0,0,0,0,0,0,0,0,0,0,0,0,0,0,0,0,0,0,0,0,0,0,0,0,0,0,0,0,0,0,0,0,0,0,0,0,0,0,0,0,0,0,0,0,0,0,0,0,0,0,0,0,0,853,875,875,875,871,0,0,0,0,0,0,0,0,0,0,0,0,0,0,0,0,0,0,0,0,0,0,0,0,0,0,0,0,0,0,0,0,0,0,0,0,0,0,0,0,0,0,0,0,0,0,0,0,0,0,0,0,0,0,0,0,0,0,0,0,0,0,0,0,0,0,0,0,0,0,0,0,0,0,0,0,0,0,0,853,875,875,875,871,0,0,0,0,0,0,0,0,0,0,0,0,0,0,0,0,0,0,0,0,0,0,0,0,0,0,0,0,0,0,0,0,0,0,0,0,0,0,0,0,0,0,0,0,0,0,0,0,0,0,0,0,0,0,0,0,0,0,0,0,0,0,0,0,0,0,0,0,0,0,0,0,0,0,0,0,0,0,0,853,875,875,875,871,0,0,0,0,0,0,0,0,0,0,0,0,0,0,0,0,0,0,0,0,0,0,0,0,0,0,0,0,0,0,0,0,0,0,0,0,0,0,0,0,0,0,0,0,0,0,0,0,0,0,0,0,0,0,0,0,0,0,0,0,0,0,0,835,839,839,839,841,0,0,0,0,0,0,0,0,0,0,0,853,875,875,875,871,0,0,0,0,0,0,0,0,0,0,0,0,0,0,0,0,0,0,0,0,0,0,0,0,0,0,0,0,0,0,0,0,0,0,0,0,0,0,0,0,0,0,0,0,0,0,0,0,0,0,0,0,0,0,0,0,0,0,0,0,0,0,0,830,0,0,0,834,0,0,0,0,0,0,0,0,0,0,0,853,875,875,875,871,0,0,0,0,0,0,0,0,0,0,0,0,0,0,0,0,0,0,0,0,0,0,0,0,0,0,0,0,0,0,0,0,0,0,0,0,0,0,0,0,0,0,0,0,0,0,0,0,0,0,0,0,0,0,0,0,0,0,0,0,0,0,0,0,0,0,0,834,0,0,0,0,0,0,0,0,0,0,0,853,875,875,875,871,0,0,0,0,0,0,0,0,0,0,0,0,0,0,0,0,0,0,0,0,0,0,0,0,0,0,0,0,0,0,0,0,0,0,0,0,0,0,0,0,0,0,0,0,0,0,0,0,0,0,0,0,0,0,0,0,0,0,0,0,0,0,0,0,0,0,0,834,0,0,0,0,0,0,0,0,0,0,0,853,875,875,875,871,0,0,0,0,0,0,0,0,0,0,0,0,0,0,0,0,0,0,0,0,0,0,0,0,0,0,0,0,0,0,0,0,0,0,0,0,0,0,0,0,0,0,0,0,0,0,0,0,0,0,0,0,0,0,0,0,0,0,0,0,0,0,0,833,0,0,0,834,0,0,0,0,0,0,0,0,0,0,0,853,875,875,875,871,0,0,0,0,0,0,0,0,0,0,0,0,0,0,0,0,0,0,0,0,0,0,0,0,0,0,0,0,0,0,0,0,0,0,0,0,0,0,0,0,0,0,0,0,0,0,0,0,0,0,0,0,0,0,0,0,0,0,0,0,0,0,0,850,860,860,860,856,0,0,0,0,0,0,0,0,0,0,0,853,875,875,875,871,0,0,0,0,0,0,0,0,0,0,0,0,0,0,0,0,0,0,0,0,0,0,0,0,0,0,0,0,0,0,0,0,0,0,0,0,849,860,860,860,860,860,860,860,860,860,860,860,860,857,839,837,0,0,0,0,0,0,0,0,0,0,831,847,870,875,875,874,860,860,860,860,860,860,860,860,860,860,860,862,875,875,875,874,860,860,860,860,860,860,860,860,860,860,860,860,860,860,860,860,860,860,860,860,860,860,860,860,860,860,860,860,860,860,860,860,860,860,860,860,862,875,875,875,875,875,875,875,875,875,875,875,875,871,0,0,0,0,0,0,0,0,0,0,0,0,0,0,853,875,875,875,875,875,875,875,875,875,875,875,875,875,875,875,875,875,875,875,875,875,875,875,875,875,875,875,875,875,875,875,875,875,875,875,875,875,875,875,875,875,875,875,875,875,875,875,875,875,875,875,875,875,875,875,875,875,875,875,875,875,875,875,875,875,875,875,875,871,0,0,0,0,0,0,0,0,0,0,0,0,0,0,853,875,875,875,875,875,875,875,875,875,875,875,875,875,875,875,875,875,875,875,875,875,875,875,875,875,875,875,875,875,875,875,875,875,875,875,875,875,875,875,875,875,875,875,875,875,875,875,875,875,875,875,875,875,875,875,875,875,875,875,875,875,875,875,875,875,875,875,875,874,860,860,860,860,860,860,860,860,860,860,860,860,860,860,862,875,875,875,875,875,875,875,875,875,875,875,875,875,875,875,875]},{"id":4,"name":"objects","type":"objectgroup","draworder":"topdown","opacity":1,"visible":true,"x":0,"y":0,"objects":[{"id":1,"name":"market_gate","type":"door","rotation":0,"visible":true,"x":1088,"y":1752,"width":256,"height":16,"properties":[{"name":"theme","type":"string","value":"street"},{"name":"locked","type":"string","value":"script"},{"name":"dir","type":"string","value":"h"}]},{"id":2,"name":"gate","type":"door","rotation":0,"visible":true,"x":3520,"y":3352,"width":640,"height":16,"properties":[{"name":"theme","type":"string","value":"street"},{"name":"locked","type":"string","value":"script"},{"name":"dir","type":"string","value":"h"}]},{"id":3,"name":"player","type":"spawn","rotation":0,"visible":true,"x":2624,"y":192,"width":0,"height":0,"point":true},{"id":4,"name":"player","type":"spawn","rotation":0,"visible":true,"x":2752,"y":192,"width":0,"height":0,"point":true},{"id":5,"name":"player","type":"spawn","rotation":0,"visible":true,"x":2624,"y":275.2,"width":0,"height":0,"point":true},{"id":6,"name":"player","type":"spawn","rotation":0,"visible":true,"x":2752,"y":275.2,"width":0,"height":0,"point":true},{"id":7,"name":"car_burnt","type":"prop","rotation":0,"visible":true,"x":2566,"y":822.6,"width":244,"height":70},{"id":8,"name":"car_white_l","type":"prop","rotation":0,"visible":true,"x":2605,"y":692.6,"width":230,"height":74},{"id":9,"name":"cone","type":"prop","rotation":0,"visible":true,"x":2486,"y":863.4,"width":20,"height":14},{"id":10,"name":"cone","type":"prop","rotation":0,"visible":true,"x":2902,"y":863.4,"width":20,"height":14},{"id":11,"name":"","type":"label","rotation":0,"visible":true,"x":2688,"y":576,"width":0,"height":0,"point":true,"properties":[{"name":"text","type":"string","value":"ПРОЕЗД ЗАКРЫТ · ДТП С ФУРОЙ МАЙОНЕЗА"},{"name":"size","type":"int","value":16},{"name":"color","type":"string","value":"#8a2a20"},{"name":"alpha","type":"float","value":0.45}]},{"id":12,"name":"","type":"note","rotation":0,"visible":true,"x":2816,"y":672,"width":0,"height":0,"point":true,"properties":[{"name":"text","type":"string","value":"Табличка ГИБДД: «Объезд через рынок». Под ней перьями: «Добро пожаловать»"}]},{"id":13,"name":"street_lamp","type":"prop","rotation":0,"visible":true,"x":2442.2,"y":119,"width":18,"height":18},{"id":14,"name":"street_lamp","type":"prop","rotation":0,"visible":true,"x":2973.4,"y":247,"width":18,"height":18},{"id":15,"name":"street_lamp","type":"prop","rotation":0,"visible":true,"x":2442.2,"y":631,"width":18,"height":18},{"id":16,"name":"street_lamp","type":"prop","rotation":0,"visible":true,"x":2973.4,"y":759,"width":18,"height":18},{"id":17,"name":"blogger","type":"npc","rotation":0,"visible":true,"x":2470.4,"y":448,"width":0,"height":0,"point":true,"properties":[{"name":"title","type":"string","value":"Блогер Стёпа · в эфире"},{"name":"mode","type":"string","value":"idle"},{"name":"hp","type":"int","value":120},{"name":"story","type":"bool","value":true},{"name":"angle","type":"int","value":180},{"name":"lines","type":"string","value":"Ставьте лайк, если вы не курица!|Донат: «Стёпа, сзади!» Спасибо!"}]},{"id":18,"name":"blogger","type":"trigger","rotation":0,"visible":true,"x":2368,"y":192,"width":640,"height":576},{"id":19,"name":"stall","type":"prop","rotation":0,"visible":true,"x":363,"y":422,"width":170,"height":52},{"id":20,"name":"stall","type":"prop","rotation":0,"visible":true,"x":875,"y":422,"width":170,"height":52},{"id":21,"name":"stall","type":"prop","rotation":0,"visible":true,"x":1899,"y":422,"width":170,"height":52},{"id":22,"name":"stall","type":"prop","rotation":0,"visible":true,"x":363,"y":806,"width":170,"height":52},{"id":23,"name":"stall","type":"prop","rotation":0,"visible":true,"x":875,"y":806,"width":170,"height":52},{"id":24,"name":"stall","type":"prop","rotation":0,"visible":true,"x":1899,"y":806,"width":170,"height":52},{"id":25,"name":"stall","type":"prop","rotation":0,"visible":true,"x":363,"y":1190,"width":170,"height":52},{"id":26,"name":"stall","type":"prop","rotation":0,"visible":true,"x":875,"y":1190,"width":170,"height":52},{"id":27,"name":"stall","type":"prop","rotation":0,"visible":true,"x":1899,"y":1190,"width":170,"height":52},{"id":28,"name":"stall","type":"prop","rotation":0,"visible":true,"x":1387,"y":422,"width":170,"height":52},{"id":29,"name":"stall","type":"prop","rotation":0,"visible":true,"x":1387,"y":1190,"width":170,"height":52},{"id":30,"name":"stall","type":"prop","rotation":0,"visible":true,"x":1387,"y":806,"width":170,"height":52},{"id":31,"name":"valya","type":"npc","rotation":0,"visible":true,"x":1472,"y":774.4,"width":0,"height":0,"point":true,"properties":[{"name":"reach","type":"int","value":150},{"name":"title","type":"string","value":"Тётя Валя · яйца"},{"name":"mode","type":"string","value":"idle"},{"name":"hp","type":"int","value":200},{"name":"story","type":"bool","value":true},{"name":"essential","type":"bool","value":true},{"name":"untargetable","type":"bool","value":true},{"name":"angle","type":"int","value":90},{"name":"lines","type":"string","value":"Яйца! Свежие! Почти не вылупляются!"}]},{"id":32,"name":"","type":"pod","rotation":0,"visible":true,"x":1312,"y":921.6,"width":0,"height":0,"point":true,"properties":[{"name":"tag","type":"string","value":"eggs"},{"name":"hatch","type":"string","value":"normal"}]},{"id":33,"name":"","type":"pod","rotation":0,"visible":true,"x":1632,"y":921.6,"width":0,"height":0,"point":true,"properties":[{"name":"tag","type":"string","value":"eggs"},{"name":"hatch","type":"string","value":"fast"}]},{"id":34,"name":"","type":"pod","rotation":0,"visible":true,"x":1376,"y":998.4,"width":0,"height":0,"point":true,"properties":[{"name":"tag","type":"string","value":"eggs"},{"name":"hatch","type":"string","value":"normal"}]},{"id":35,"name":"","type":"pod","rotation":0,"visible":true,"x":1568,"y":998.4,"width":0,"height":0,"point":true,"properties":[{"name":"tag","type":"string","value":"eggs"},{"name":"hatch","type":"string","value":"normal"}]},{"id":36,"name":"","type":"pod","rotation":0,"visible":true,"x":1248,"y":768,"width":0,"height":0,"point":true,"properties":[{"name":"tag","type":"string","value":"eggs"},{"name":"hatch","type":"string","value":"normal"}]},{"id":37,"name":"","type":"pod","rotation":0,"visible":true,"x":1696,"y":768,"width":0,"height":0,"point":true,"properties":[{"name":"tag","type":"string","value":"eggs"},{"name":"hatch","type":"string","value":"normal"}]},{"id":38,"name":"","type":"pod","rotation":0,"visible":true,"x":352,"y":550.4,"width":0,"height":0,"point":true,"properties":[{"name":"tag","type":"string","value":"eggs"},{"name":"hatch","type":"string","value":"normal"}]},{"id":39,"name":"","type":"pod","rotation":0,"visible":true,"x":544,"y":550.4,"width":0,"height":0,"point":true,"properties":[{"name":"tag","type":"string","value":"eggs"},{"name":"hatch","type":"string","value":"chick"}]},{"id":40,"name":"","type":"pod","rotation":0,"visible":true,"x":864,"y":550.4,"width":0,"height":0,"point":true,"properties":[{"name":"tag","type":"string","value":"eggs"},{"name":"hatch","type":"string","value":"normal"}]},{"id":41,"name":"","type":"pod","rotation":0,"visible":true,"x":1056,"y":550.4,"width":0,"height":0,"point":true,"properties":[{"name":"tag","type":"string","value":"eggs"},{"name":"hatch","type":"string","value":"chick"}]},{"id":42,"name":"","type":"pod","rotation":0,"visible":true,"x":1888,"y":550.4,"width":0,"height":0,"point":true,"properties":[{"name":"tag","type":"string","value":"eggs"},{"name":"hatch","type":"string","value":"normal"}]},{"id":43,"name":"","type":"pod","rotation":0,"visible":true,"x":2080,"y":550.4,"width":0,"height":0,"point":true,"properties":[{"name":"tag","type":"string","value":"eggs"},{"name":"hatch","type":"string","value":"chick"}]},{"id":44,"name":"","type":"pod","rotation":0,"visible":true,"x":352,"y":934.4,"width":0,"height":0,"point":true,"properties":[{"name":"tag","type":"string","value":"eggs"},{"name":"hatch","type":"string","value":"chick"}]},{"id":45,"name":"","type":"pod","rotation":0,"visible":true,"x":544,"y":934.4,"width":0,"height":0,"point":true,"properties":[{"name":"tag","type":"string","value":"eggs"},{"name":"hatch","type":"string","value":"fast"}]},{"id":46,"name":"","type":"pod","rotation":0,"visible":true,"x":864,"y":934.4,"width":0,"height":0,"point":true,"properties":[{"name":"tag","type":"string","value":"eggs"},{"name":"hatch","type":"string","value":"chick"}]},{"id":47,"name":"","type":"pod","rotation":0,"visible":true,"x":1056,"y":934.4,"width":0,"height":0,"point":true,"properties":[{"name":"tag","type":"string","value":"eggs"},{"name":"hatch","type":"string","value":"fast"}]},{"id":48,"name":"","type":"pod","rotation":0,"visible":true,"x":1888,"y":934.4,"width":0,"height":0,"point":true,"properties":[{"name":"tag","type":"string","value":"eggs"},{"name":"hatch","type":"string","value":"chick"}]},{"id":49,"name":"","type":"pod","rotation":0,"visible":true,"x":2080,"y":934.4,"width":0,"height":0,"point":true,"properties":[{"name":"tag","type":"string","value":"eggs"},{"name":"hatch","type":"string","value":"fast"}]},{"id":50,"name":"","type":"pod","rotation":0,"visible":true,"x":352,"y":1318.4,"width":0,"height":0,"point":true,"properties":[{"name":"tag","type":"string","value":"eggs"},{"name":"hatch","type":"string","value":"normal"}]},{"id":51,"name":"","type":"pod","rotation":0,"visible":true,"x":576,"y":1318.4,"width":0,"height":0,"point":true,"properties":[{"name":"tag","type":"string","value":"eggs"},{"name":"hatch","type":"string","value":"fast"}]},{"id":52,"name":"","type":"pod","rotation":0,"visible":true,"x":1056,"y":1318.4,"width":0,"height":0,"point":true,"properties":[{"name":"tag","type":"string","value":"eggs"},{"name":"hatch","type":"string","value":"chick"}]},{"id":53,"name":"","type":"pod","rotation":0,"visible":true,"x":1376,"y":1318.4,"width":0,"height":0,"point":true,"properties":[{"name":"tag","type":"string","value":"eggs"},{"name":"hatch","type":"string","value":"normal"}]},{"id":54,"name":"","type":"pod","rotation":0,"visible":true,"x":1600,"y":1318.4,"width":0,"height":0,"point":true,"properties":[{"name":"tag","type":"string","value":"eggs"},{"name":"hatch","type":"string","value":"fast"}]},{"id":55,"name":"","type":"pod","rotation":0,"visible":true,"x":2080,"y":1318.4,"width":0,"height":0,"point":true,"properties":[{"name":"tag","type":"string","value":"eggs"},{"name":"hatch","type":"string","value":"chick"}]},{"id":56,"name":"normal","type":"enemy","rotation":0,"visible":true,"x":704,"y":640,"width":0,"height":0,"point":true,"properties":[{"name":"tag","type":"string","value":"market"}]},{"id":57,"name":"fast","type":"enemy","rotation":0,"visible":true,"x":1216,"y":640,"width":0,"height":0,"point":true,"properties":[{"name":"tag","type":"string","value":"market"}]},{"id":58,"name":"normal","type":"enemy","rotation":0,"visible":true,"x":1728,"y":640,"width":0,"height":0,"point":true,"properties":[{"name":"tag","type":"string","value":"market"}]},{"id":59,"name":"spitter","type":"enemy","rotation":0,"visible":true,"x":704,"y":1024,"width":0,"height":0,"point":true,"properties":[{"name":"tag","type":"string","value":"market"}]},{"id":60,"name":"normal","type":"enemy","rotation":0,"visible":true,"x":1728,"y":1024,"width":0,"height":0,"point":true,"properties":[{"name":"tag","type":"string","value":"market"}]},{"id":61,"name":"fast","type":"enemy","rotation":0,"visible":true,"x":960,"y":1440,"width":0,"height":0,"point":true,"properties":[{"name":"tag","type":"string","value":"market"}]},{"id":62,"name":"normal","type":"enemy","rotation":0,"visible":true,"x":1984,"y":1440,"width":0,"height":0,"point":true,"properties":[{"name":"tag","type":"string","value":"market"}]},{"id":63,"name":"normal","type":"enemy","rotation":0,"visible":true,"x":448,"y":1440,"width":0,"height":0,"point":true,"properties":[{"name":"tag","type":"string","value":"market"}]},{"id":64,"name":"fast","type":"enemy","rotation":0,"visible":true,"x":2176,"y":288,"width":0,"height":0,"point":true,"properties":[{"name":"tag","type":"string","value":"market"}]},{"id":65,"name":"normal","type":"enemy","rotation":0,"visible":true,"x":320,"y":288,"width":0,"height":0,"point":true,"properties":[{"name":"tag","type":"string","value":"market"}]},{"id":66,"name":"market","type":"spawner","rotation":0,"visible":true,"x":224,"y":224,"width":0,"height":0,"point":true,"properties":[{"name":"how","type":"string","value":"rise"}]},{"id":67,"name":"market","type":"spawner","rotation":0,"visible":true,"x":224,"y":1664,"width":0,"height":0,"point":true,"properties":[{"name":"how","type":"string","value":"rise"}]},{"id":68,"name":"market","type":"spawner","rotation":0,"visible":true,"x":2304,"y":1664,"width":0,"height":0,"point":true,"properties":[{"name":"how","type":"string","value":"rise"}]},{"id":69,"name":"market","type":"spawner","rotation":0,"visible":true,"x":1280,"y":224,"width":0,"height":0,"point":true,"properties":[{"name":"how","type":"string","value":"rise"}]},{"id":70,"name":"market","type":"trigger","rotation":0,"visible":true,"x":192,"y":192,"width":2176,"height":1536,"properties":[{"name":"once","type":"bool","value":false}]},{"id":71,"name":"eggstall","type":"trigger","rotation":0,"visible":true,"x":1152,"y":640,"width":640,"height":448},{"id":72,"name":"shopping_cart","type":"prop","rotation":0,"visible":true,"x":2154,"y":500,"width":44,"height":24},{"id":73,"name":"shopping_cart","type":"prop","rotation":0,"visible":true,"x":298,"y":1140,"width":44,"height":24},{"id":74,"name":"trash_can","type":"prop","rotation":0,"visible":true,"x":2288,"y":1590,"width":32,"height":20},{"id":75,"name":"billboard","type":"prop","rotation":0,"visible":true,"x":693,"y":203.2,"width":150,"height":16},{"id":76,"name":"","type":"label","rotation":0,"visible":true,"x":1216,"y":1619.2,"width":0,"height":0,"point":true,"properties":[{"name":"text","type":"string","value":"КОЛХОЗНЫЙ РЫНОК"},{"name":"size","type":"int","value":30},{"name":"color","type":"string","value":"#5a4a3a"},{"name":"alpha","type":"float","value":0.45}]},{"id":77,"name":"","type":"note","rotation":0,"visible":true,"x":960,"y":524.8,"width":0,"height":0,"point":true,"properties":[{"name":"text","type":"string","value":"Ценник: «Курица домашняя — 300 ₽/кг. Курица агрессивная — бесплатно, забирайте»"}]},{"id":78,"name":"health","type":"pickup","rotation":0,"visible":true,"x":256,"y":768,"width":0,"height":0,"point":true},{"id":79,"name":"ammo","type":"pickup","rotation":0,"visible":true,"x":2240,"y":1088,"width":0,"height":0,"point":true},{"id":80,"name":"ammo","type":"pickup","rotation":0,"visible":true,"x":704,"y":1536,"width":0,"height":0,"point":true},{"id":81,"name":"tree_round","type":"prop","rotation":0,"visible":true,"x":362,"y":1970,"width":44,"height":28},{"id":82,"name":"tree_oak","type":"prop","rotation":0,"visible":true,"x":808,"y":1938,"width":48,"height":28},{"id":83,"name":"tree_pine","type":"prop","rotation":0,"visible":true,"x":1710,"y":1972,"width":36,"height":24},{"id":84,"name":"tree_big","type":"prop","rotation":0,"visible":true,"x":2082,"y":2161,"width":60,"height":30},{"id":85,"name":"tree_round","type":"prop","rotation":0,"visible":true,"x":490,"y":2866,"width":44,"height":28},{"id":86,"name":"tree_oak","type":"prop","rotation":0,"visible":true,"x":1704,"y":2930,"width":48,"height":28},{"id":87,"name":"tree_pine","type":"prop","rotation":0,"visible":true,"x":814,"y":3188,"width":36,"height":24},{"id":88,"name":"tree_round","type":"prop","rotation":0,"visible":true,"x":2090,"y":3186,"width":44,"height":28},{"id":89,"name":"hedge","type":"prop","rotation":0,"visible":true,"x":1477,"y":2220,"width":118,"height":40},{"id":90,"name":"hedge","type":"prop","rotation":0,"visible":true,"x":581,"y":2284,"width":118,"height":40},{"id":91,"name":"hedge","type":"prop","rotation":0,"visible":true,"x":1861,"y":2732,"width":118,"height":40},{"id":92,"name":"bus_stop","type":"prop","rotation":0,"visible":true,"x":1830,"y":2455.4,"width":180,"height":30},{"id":93,"name":"bench","type":"prop","rotation":0,"visible":true,"x":334,"y":2447.6,"width":100,"height":20},{"id":94,"name":"fountain","type":"prop","rotation":0,"visible":true,"x":1126,"y":2913,"width":116,"height":62},{"id":95,"name":"rustam","type":"npc","rotation":0,"visible":true,"x":2080,"y":2393.6,"width":0,"height":0,"point":true,"properties":[{"name":"title","type":"string","value":"Рустам · маршрутка 66"},{"name":"kind","type":"string","value":"manBrown"},{"name":"mode","type":"string","value":"idle"},{"name":"hp","type":"int","value":200},{"name":"story","type":"bool","value":true},{"name":"essential","type":"bool","value":true},{"name":"untargetable","type":"bool","value":true},{"name":"angle","type":"int","value":90},{"name":"lines","type":"string","value":"Маршрутка 66 до завода! Только наличные!|Петухов не вожу. Они без масок."}]},{"id":96,"name":"normal","type":"enemy","rotation":0,"visible":true,"x":640,"y":2112,"width":0,"height":0,"point":true,"properties":[{"name":"tag","type":"string","value":"park2"}]},{"id":97,"name":"fast","type":"enemy","rotation":0,"visible":true,"x":1536,"y":2592,"width":0,"height":0,"point":true,"properties":[{"name":"tag","type":"string","value":"park2"}]},{"id":98,"name":"normal","type":"enemy","rotation":0,"visible":true,"x":896,"y":2816,"width":0,"height":0,"point":true,"properties":[{"name":"tag","type":"string","value":"park2"}]},{"id":99,"name":"spitter","type":"enemy","rotation":0,"visible":true,"x":1920,"y":3072,"width":0,"height":0,"point":true,"properties":[{"name":"tag","type":"string","value":"park2"}]},{"id":100,"name":"fast","type":"enemy","rotation":0,"visible":true,"x":384,"y":3200,"width":0,"height":0,"point":true,"properties":[{"name":"tag","type":"string","value":"park2"}]},{"id":101,"name":"normal","type":"enemy","rotation":0,"visible":true,"x":2240,"y":1920,"width":0,"height":0,"point":true,"properties":[{"name":"tag","type":"string","value":"park2"}]},{"id":102,"name":"park2","type":"spawner","rotation":0,"visible":true,"x":224,"y":3296,"width":0,"height":0,"point":true,"properties":[{"name":"how","type":"string","value":"rise"}]},{"id":103,"name":"park2","type":"spawner","rotation":0,"visible":true,"x":2336,"y":3296,"width":0,"height":0,"point":true,"properties":[{"name":"how","type":"string","value":"rise"}]},{"id":104,"name":"park2","type":"spawner","rotation":0,"visible":true,"x":224,"y":1856,"width":0,"height":0,"point":true,"properties":[{"name":"how","type":"string","value":"rise"}]},{"id":105,"name":"park2","type":"trigger","rotation":0,"visible":true,"x":192,"y":1792,"width":2240,"height":1600},{"id":106,"name":"","type":"label","rotation":0,"visible":true,"x":1184,"y":3296,"width":0,"height":0,"point":true,"properties":[{"name":"text","type":"string","value":"СКВЕР «РЕОРГАНИЗАЦИИ»"},{"name":"size","type":"int","value":20},{"name":"color","type":"string","value":"#3f5a38"},{"name":"alpha","type":"float","value":0.45}]},{"id":107,"name":"health","type":"pickup","rotation":0,"visible":true,"x":2304,"y":3264,"width":0,"height":0,"point":true},{"id":108,"name":"armor","type":"pickup","rotation":0,"visible":true,"x":256,"y":2560,"width":0,"height":0,"point":true},{"id":109,"name":"car_grey","type":"prop","rotation":0,"visible":true,"x":2822,"y":2102.6,"width":244,"height":70},{"id":110,"name":"car_burnt","type":"prop","rotation":0,"visible":true,"x":3206,"y":2806.6,"width":244,"height":70},{"id":111,"name":"car_blue_v","type":"prop","rotation":0,"visible":true,"x":3781,"y":2206,"width":118,"height":196},{"id":112,"name":"car_taxi","type":"prop","rotation":0,"visible":true,"x":4621,"y":2740.6,"width":230,"height":74},{"id":113,"name":"crate","type":"prop","rotation":0,"visible":true,"x":2789,"y":2981,"width":54,"height":54},{"id":114,"name":"crate_small","type":"prop","rotation":0,"visible":true,"x":2843.3,"y":3009.2,"width":35,"height":36},{"id":115,"name":"crate","type":"prop","rotation":0,"visible":true,"x":3109,"y":2533,"width":54,"height":54},{"id":116,"name":"crate_small","type":"prop","rotation":0,"visible":true,"x":3163.3,"y":2561.2,"width":35,"height":36},{"id":117,"name":"crate","type":"prop","rotation":0,"visible":true,"x":3557,"y":1989,"width":54,"height":54},{"id":118,"name":"crate_small","type":"prop","rotation":0,"visible":true,"x":3611.3,"y":2017.2,"width":35,"height":36},{"id":119,"name":"crate","type":"prop","rotation":0,"visible":true,"x":4069,"y":2597,"width":54,"height":54},{"id":120,"name":"crate_small","type":"prop","rotation":0,"visible":true,"x":4123.3,"y":2625.2,"width":35,"height":36},{"id":121,"name":"","type":"barrel","rotation":0,"visible":true,"x":3008,"y":2944,"width":0,"height":0,"point":true},{"id":122,"name":"","type":"barrel","rotation":0,"visible":true,"x":3712,"y":2944,"width":0,"height":0,"point":true},{"id":123,"name":"","type":"barrel","rotation":0,"visible":true,"x":4160,"y":2176,"width":0,"height":0,"point":true},{"id":124,"name":"","type":"barrel","rotation":0,"visible":true,"x":4416,"y":2688,"width":0,"height":0,"point":true},{"id":125,"name":"pallet","type":"prop","rotation":0,"visible":true,"x":5026,"y":2978,"width":60,"height":60},{"id":126,"name":"pallet","type":"prop","rotation":0,"visible":true,"x":2594,"y":2082,"width":60,"height":60},{"id":127,"name":"","type":"label","rotation":0,"visible":true,"x":4896,"y":2073.6,"width":0,"height":0,"point":true,"properties":[{"name":"text","type":"string","value":"ГАРАЖ ВАХТЫ"},{"name":"size","type":"int","value":16},{"name":"color","type":"string","value":"#4a4038"},{"name":"alpha","type":"float","value":0.45}]},{"id":128,"name":"fat","type":"enemy","rotation":0,"visible":true,"x":4896,"y":2240,"width":0,"height":0,"point":true,"properties":[{"name":"tag","type":"string","value":"tolik"},{"name":"dormant","type":"bool","value":true}]},{"id":129,"name":"normal","type":"enemy","rotation":0,"visible":true,"x":4736,"y":2336,"width":0,"height":0,"point":true,"properties":[{"name":"tag","type":"string","value":"garage"},{"name":"dormant","type":"bool","value":true}]},{"id":130,"name":"fast","type":"enemy","rotation":0,"visible":true,"x":5056,"y":2144,"width":0,"height":0,"point":true,"properties":[{"name":"tag","type":"string","value":"garage"},{"name":"dormant","type":"bool","value":true}]},{"id":131,"name":"normal","type":"enemy","rotation":0,"visible":true,"x":5088,"y":2368,"width":0,"height":0,"point":true,"properties":[{"name":"tag","type":"string","value":"garage"},{"name":"dormant","type":"bool","value":true}]},{"id":132,"name":"armored","type":"enemy","rotation":0,"visible":true,"x":4704,"y":2112,"width":0,"height":0,"point":true,"properties":[{"name":"tag","type":"string","value":"garage"},{"name":"dormant","type":"bool","value":true}]},{"id":133,"name":"beer_crate","type":"prop","rotation":0,"visible":true,"x":4652,"y":2048.8,"width":40,"height":24},{"id":134,"name":"beer_crate","type":"prop","rotation":0,"visible":true,"x":4728.8,"y":2048.8,"width":40,"height":24},{"id":135,"name":"beer_crate","type":"prop","rotation":0,"visible":true,"x":5132,"y":2260,"width":40,"height":24},{"id":136,"name":"beer_crate","type":"prop","rotation":0,"visible":true,"x":5132,"y":2330.4,"width":40,"height":24},{"id":137,"name":"ashtray","type":"prop","rotation":0,"visible":true,"x":4954.4,"y":2118.8,"width":24,"height":12},{"id":138,"name":"garage","type":"trigger","rotation":0,"visible":true,"x":4608,"y":1984,"width":640,"height":512},{"id":139,"name":"semyonych","type":"npc","rotation":0,"visible":true,"x":4128,"y":3148.8,"width":0,"height":0,"point":true,"properties":[{"name":"title","type":"string","value":"Вахтёр Семёныч"},{"name":"kind","type":"string","value":"semyon"},{"name":"mode","type":"string","value":"idle"},{"name":"hp","type":"int","value":200},{"name":"story","type":"bool","value":true},{"name":"essential","type":"bool","value":true},{"name":"untargetable","type":"bool","value":true},{"name":"angle","type":"int","value":180},{"name":"lines","type":"string","value":"Пропуск!|Без пропуска не пущу. Даже конец света."}]},{"id":140,"name":"terminal","type":"prop","rotation":0,"visible":true,"x":4402,"y":3006.8,"width":28,"height":28},{"id":141,"name":"gate_panel","type":"use","rotation":0,"visible":true,"x":4416,"y":3072,"width":0,"height":0,"point":true,"properties":[{"name":"hint","type":"string","value":"открыть ворота завода"}]},{"id":142,"name":"","type":"label","rotation":0,"visible":true,"x":4384,"y":3225.6,"width":0,"height":0,"point":true,"properties":[{"name":"text","type":"string","value":"ПРОХОДНАЯ"},{"name":"size","type":"int","value":14},{"name":"color","type":"string","value":"#4a4038"},{"name":"alpha","type":"float","value":0.45}]},{"id":143,"name":"","type":"label","rotation":0,"visible":true,"x":3840,"y":3430.4,"width":0,"height":0,"point":true,"properties":[{"name":"text","type":"string","value":"ЗАВОД «ПРОВАНСАЛЬ»"},{"name":"size","type":"int","value":28},{"name":"color","type":"string","value":"#f6d77c"},{"name":"alpha","type":"float","value":0.45}]},{"id":144,"name":"yard","type":"trigger","rotation":0,"visible":true,"x":2496,"y":1920,"width":2752,"height":1408},{"id":145,"name":"yard","type":"spawner","rotation":0,"visible":true,"x":2496,"y":1984,"width":0,"height":0,"point":true,"properties":[{"name":"how","type":"string","value":"rise"}]},{"id":146,"name":"yard","type":"spawner","rotation":0,"visible":true,"x":5184,"y":2880,"width":0,"height":0,"point":true,"properties":[{"name":"how","type":"string","value":"rise"}]},{"id":147,"name":"yard","type":"spawner","rotation":0,"visible":true,"x":3328,"y":1984,"width":0,"height":0,"point":true,"properties":[{"name":"how","type":"string","value":"rise"}]},{"id":148,"name":"yard","type":"spawner","rotation":0,"visible":true,"x":5184,"y":3232,"width":0,"height":0,"point":true,"properties":[{"name":"how","type":"string","value":"rise"}]},{"id":149,"name":"yard","type":"spawner","rotation":0,"visible":true,"x":2496,"y":3200,"width":0,"height":0,"point":true,"properties":[{"name":"how","type":"string","value":"rise"}]},{"id":150,"name":"exit2","type":"trigger","rotation":0,"visible":true,"x":3456,"y":3392,"width":768,"height":128,"properties":[{"name":"once","type":"bool","value":false},{"name":"all","type":"bool","value":true}]},{"id":151,"name":"health","type":"pickup","rotation":0,"visible":true,"x":4320,"y":3187.2,"width":0,"height":0,"point":true},{"id":152,"name":"ammo","type":"pickup","rotation":0,"visible":true,"x":4480,"y":3200,"width":0,"height":0,"point":true},{"id":153,"name":"ammo","type":"pickup","rotation":0,"visible":true,"x":2880,"y":3200,"width":0,"height":0,"point":true},{"id":154,"name":"health","type":"pickup","rotation":0,"visible":true,"x":5120,"y":2016,"width":0,"height":0,"point":true},{"id":155,"name":"","type":"note","rotation":0,"visible":true,"x":4096,"y":3289.6,"width":0,"height":0,"point":true,"properties":[{"name":"text","type":"string","value":"Объявление: «Экскурсии на завод отменены. Причина: экскурсанты кудахчут»"}]}]}]}