{"type":"map","version":"1.10","tiledversion":"1.11.0","orientation":"orthogonal","renderorder":"right-down","width":84,"height":68,"tilewidth":64,"tileheight":64,"infinite":false,"nextlayerid":5,"nextobjectid":225,"properties":[{"name":"theme","type":"string","value":"street"},{"name":"ambient","type":"int","value":0},{"name":"wallFace","type":"string","value":"street"}],"tilesets":[{"firstgid":1,"name":"kenney","image":"../gen/tiles.png","imagewidth":1728,"imageheight":1280,"tilewidth":64,"tileheight":64,"tilecount":540,"columns":27,"margin":0,"spacing":0},{"firstgid":541,"name":"walls","image":"../gen/walls.png","imagewidth":1024,"imageheight":1536,"tilewidth":64,"tileheight":64,"tilecount":384,"columns":16,"margin":0,"spacing":0}],"layers":[{"id":1,"name":"floor","type":"tilelayer","width":84,"height":68,"x":0,"y":0,"opacity":1,"visible":true,"data":[0,0,0,0,0,0,0,0,0,0,0,0,0,0,0,0,0,0,0,0,0,0,0,0,0,0,0,0,0,0,0,0,0,0,0,0,0,0,0,0,0,0,0,0,0,0,0,0,0,0,0,0,0,0,0,0,0,0,0,0,0,0,0,0,0,0,0,0,0,0,0,0,0,0,0,0,0,0,0,0,0,0,0,0,0,0,0,0,0,0,0,0,0,0,0,0,0,0,0,0,0,0,0,0,0,0,0,0,0,0,0,0,0,0,0,0,0,0,0,0,0,0,0,0,0,0,0,0,0,0,0,0,0,0,0,0,0,0,0,0,0,0,0,0,0,0,0,0,0,0,0,0,0,0,0,0,0,0,0,0,0,0,0,0,0,0,0,0,0,0,511,511,511,511,511,511,511,511,511,511,511,511,511,511,511,511,511,511,511,511,511,0,0,0,0,0,0,0,0,0,0,0,0,0,0,0,0,0,0,0,0,0,0,0,0,0,0,0,0,0,0,0,0,0,0,0,0,0,0,0,0,0,0,0,0,0,0,0,0,0,0,0,0,0,0,0,0,0,0,0,0,0,0,0,511,511,511,511,511,511,511,511,511,511,511,511,511,511,511,511,511,511,511,511,511,0,0,0,0,0,0,0,0,0,0,0,0,0,0,0,0,0,0,0,0,0,0,0,0,0,0,0,0,0,0,0,0,0,0,0,0,0,0,0,0,0,0,0,0,0,0,0,0,0,0,0,0,0,0,0,0,0,0,0,0,0,0,0,511,511,511,511,511,511,511,511,511,511,511,511,511,511,511,511,511,511,511,511,511,0,0,0,0,0,0,0,0,0,0,0,0,0,0,0,0,0,0,0,0,0,0,0,0,0,0,0,0,0,0,0,0,0,0,0,0,0,0,0,0,0,0,0,0,0,0,0,0,0,0,0,0,0,0,0,0,0,0,0,0,0,0,0,511,511,511,511,511,511,511,511,511,511,511,511,511,511,511,511,511,511,511,511,511,0,0,0,0,0,0,0,0,0,0,0,0,0,0,0,0,0,0,0,0,0,0,0,0,0,0,0,0,0,0,0,0,0,0,0,0,0,0,0,0,0,0,0,0,0,0,0,0,0,0,0,0,0,0,0,0,0,0,0,0,0,0,0,511,511,511,511,511,511,511,511,511,511,511,511,511,511,511,511,511,511,511,511,511,0,0,0,0,0,0,0,0,0,0,0,0,0,0,0,0,0,0,0,0,0,0,0,0,0,0,0,0,0,0,0,0,0,0,0,0,0,0,0,0,0,0,0,0,0,0,0,0,0,0,0,0,0,0,0,0,0,0,0,0,0,0,0,511,511,511,511,511,511,511,511,511,511,511,511,511,511,511,511,511,511,511,511,511,0,0,0,0,0,0,0,0,0,0,0,0,0,0,0,0,0,0,0,0,0,0,0,0,0,0,0,0,0,0,0,0,0,0,0,0,0,0,0,0,0,0,0,0,0,0,0,0,0,0,0,0,0,0,0,0,0,0,0,0,0,0,0,511,511,511,511,511,511,511,511,511,511,511,511,511,511,511,511,511,511,511,511,511,0,0,0,0,0,0,0,0,0,0,0,0,0,0,0,0,0,0,0,0,0,0,0,0,0,0,0,0,0,0,0,0,0,0,0,0,0,0,0,0,0,0,0,0,0,0,0,0,0,0,0,0,0,0,0,0,0,0,0,0,0,0,0,511,511,511,511,511,511,511,511,511,511,511,511,511,511,511,511,511,511,511,511,511,0,0,0,0,0,0,0,0,0,0,0,0,0,0,0,0,0,0,0,0,0,0,0,0,0,0,0,0,0,0,0,0,0,0,0,0,0,0,0,0,0,0,0,0,0,0,0,0,0,0,0,0,0,0,0,0,0,0,0,0,0,0,0,511,511,511,511,511,511,511,511,511,511,511,511,511,511,511,511,511,511,511,511,511,0,0,0,0,0,0,0,0,0,0,0,0,0,0,0,0,0,0,0,0,0,0,0,0,0,0,0,0,0,0,0,0,0,0,0,0,0,0,0,0,0,0,0,0,0,0,0,0,0,0,0,0,0,0,0,0,0,0,0,0,0,0,0,511,511,511,511,511,511,511,511,511,511,511,511,511,511,511,511,511,511,511,511,511,0,0,0,0,0,0,0,0,0,0,0,0,0,0,0,0,0,0,0,0,0,0,0,0,0,0,0,0,0,0,0,0,0,0,0,0,0,0,0,0,0,0,0,0,0,0,0,0,0,0,0,0,0,0,0,0,0,0,0,0,0,0,0,508,508,508,508,508,508,508,508,508,508,508,508,508,508,508,508,508,508,508,508,508,508,508,508,508,508,508,508,508,508,508,508,508,508,508,508,508,508,508,508,508,508,508,508,508,508,508,508,508,508,508,508,508,508,508,508,508,508,508,508,508,508,508,508,508,508,508,508,508,508,508,508,508,508,508,508,508,508,508,508,0,0,0,0,508,508,508,508,508,508,508,508,508,508,508,508,508,508,508,508,508,508,508,508,508,508,508,508,508,508,508,508,508,508,508,508,508,508,508,508,508,508,508,508,508,508,508,508,508,508,508,508,508,508,508,508,508,508,508,508,508,508,508,508,508,508,508,508,508,508,508,508,508,508,508,508,508,508,508,508,508,508,508,508,0,0,0,0,503,503,503,503,503,503,503,503,503,503,503,503,503,503,503,503,503,503,503,503,503,503,503,503,503,503,503,503,503,503,503,503,503,503,506,506,503,503,503,503,503,503,503,503,503,503,503,503,503,503,503,503,503,503,503,503,503,503,503,503,503,503,503,503,503,503,503,503,503,503,503,503,503,503,503,503,503,503,503,503,0,0,0,0,503,503,503,503,503,503,503,503,503,503,503,503,503,503,503,503,503,503,503,503,503,503,503,503,503,503,503,503,503,503,503,503,503,503,506,506,503,503,503,503,503,503,503,503,503,503,503,503,503,503,503,503,503,503,503,503,503,503,503,503,503,503,503,503,503,503,503,503,503,503,503,503,503,503,503,503,503,503,503,503,0,0,0,0,504,504,504,504,504,504,504,504,504,504,504,504,504,504,504,504,504,504,504,504,504,504,504,504,504,504,504,504,504,504,504,504,504,504,506,506,504,504,503,503,503,503,503,504,504,504,504,504,504,504,504,504,504,504,504,504,504,504,504,504,504,504,504,504,504,504,504,504,504,504,504,504,504,504,504,504,504,504,504,504,0,0,0,0,503,503,503,503,503,503,503,503,503,503,503,503,503,503,503,503,503,503,503,503,503,503,503,503,503,503,503,503,503,503,503,503,503,503,506,506,503,503,503,503,503,503,503,503,503,503,503,503,503,503,503,503,503,503,503,503,503,503,503,503,503,503,503,503,503,503,503,503,503,503,503,503,503,503,503,503,503,503,503,503,0,0,0,0,503,503,503,503,503,503,503,503,503,503,503,503,503,503,503,503,503,503,503,503,503,503,503,503,503,503,503,503,503,503,503,503,503,503,506,506,503,503,503,503,503,503,503,503,503,503,503,503,503,503,503,503,503,503,503,503,503,503,503,503,503,503,503,503,503,503,503,503,503,503,503,503,503,503,503,503,503,503,503,503,0,0,0,0,508,508,508,508,508,508,508,508,508,508,508,508,508,508,508,508,508,508,508,508,508,508,508,508,508,508,508,508,508,508,508,508,508,508,508,508,508,508,507,507,507,507,507,508,508,508,508,508,508,508,508,508,508,508,508,508,508,508,508,508,508,508,508,508,508,508,508,508,508,508,508,508,508,508,508,508,508,508,508,508,0,0,0,0,508,508,508,508,508,508,508,508,508,508,508,508,508,508,508,508,508,508,508,508,508,508,508,508,508,508,508,508,508,508,508,508,508,508,508,508,508,508,507,507,507,507,507,508,508,508,508,508,508,508,508,508,508,508,508,508,508,508,508,508,508,508,508,508,508,508,508,508,508,508,508,508,508,508,508,508,508,508,508,508,0,0,0,0,510,510,510,509,510,510,509,509,509,510,510,509,509,509,509,510,515,515,510,509,510,510,510,509,510,509,509,510,510,509,509,510,509,509,510,508,508,508,503,503,505,503,503,508,508,0,0,0,0,0,0,0,0,0,0,0,508,508,508,508,508,508,508,508,508,508,508,0,0,0,0,0,0,0,0,0,0,0,0,0,0,0,0,0,510,510,509,509,509,510,509,509,510,510,509,510,509,509,509,510,515,515,510,510,509,510,509,510,509,509,509,509,510,510,509,510,509,510,510,508,508,508,503,503,505,503,503,508,508,0,0,0,0,0,0,511,511,511,511,511,511,511,511,511,511,511,511,511,511,511,511,511,511,511,511,511,511,511,511,0,0,0,0,0,0,0,0,0,510,510,510,509,509,510,509,510,510,510,510,509,509,510,509,509,515,515,510,510,510,509,509,510,510,510,510,509,509,509,509,509,510,510,510,508,508,508,503,503,505,503,503,508,508,0,0,0,0,0,0,511,511,511,511,511,511,511,511,511,511,511,511,511,511,511,511,511,511,511,511,511,511,511,511,0,0,0,0,0,0,0,0,0,510,509,509,510,510,509,510,510,509,510,509,509,510,509,510,509,515,515,509,509,509,509,510,509,510,510,509,510,509,510,509,509,510,510,510,508,508,508,503,503,505,503,503,508,508,0,0,0,0,0,0,511,511,511,511,511,511,511,511,511,511,511,511,511,511,511,511,511,511,511,511,511,511,511,511,0,0,0,0,0,0,0,0,0,510,509,509,510,510,509,510,509,509,510,509,510,510,509,509,509,515,515,509,509,509,509,509,510,509,510,509,510,509,509,509,510,510,510,510,508,508,508,503,503,505,503,503,508,508,0,0,0,0,0,0,511,511,511,511,511,511,511,511,511,511,511,511,511,511,511,511,511,511,511,511,511,511,511,511,0,0,0,0,0,0,0,0,0,509,510,509,510,509,510,509,509,510,509,509,510,510,509,509,509,515,515,510,509,509,509,510,510,510,510,510,510,510,510,510,510,510,509,509,508,508,508,503,503,505,503,503,508,508,0,511,511,511,511,511,511,511,511,511,511,511,511,511,511,511,511,511,511,511,511,511,511,511,511,511,511,511,511,511,0,0,0,0,0,0,0,0,0,510,510,510,510,510,509,509,509,509,509,509,509,509,509,509,510,515,515,509,509,510,510,510,509,510,510,509,509,509,509,509,510,509,510,509,508,508,508,503,503,505,503,503,508,508,0,511,511,511,511,511,511,511,511,511,511,511,511,511,511,511,511,511,511,511,511,511,511,511,511,511,511,511,511,511,511,511,511,511,511,0,0,0,0,510,510,510,509,509,509,510,510,510,510,510,509,510,510,510,509,515,515,509,510,510,510,510,509,510,510,510,509,510,510,510,510,509,510,510,508,508,508,503,503,505,503,503,508,508,0,511,511,511,511,511,511,511,511,511,511,511,511,511,511,511,511,511,511,511,511,511,511,511,511,511,511,511,511,511,511,511,511,511,511,0,0,0,0,510,510,509,510,509,509,509,509,510,509,510,510,510,510,510,509,515,515,509,509,509,509,510,509,510,510,510,510,509,509,510,509,510,509,509,508,508,508,503,503,505,503,503,508,508,508,511,511,511,511,511,511,511,511,511,511,511,511,511,511,511,511,511,511,511,511,511,511,511,511,511,511,511,511,511,511,511,511,511,511,0,0,0,0,509,509,510,510,510,510,509,509,510,509,509,510,510,510,510,510,515,515,510,509,509,509,509,510,510,510,509,510,510,510,510,510,509,510,510,508,508,508,503,503,505,503,503,508,508,508,511,511,511,511,511,511,511,511,511,511,511,511,511,511,511,511,511,511,511,511,511,511,511,511,511,511,511,511,511,511,511,511,511,511,0,0,0,0,509,509,510,510,510,510,509,510,509,509,510,510,510,510,509,510,515,515,509,509,510,509,510,509,510,509,509,509,509,510,510,510,510,509,510,508,508,508,503,503,505,503,503,508,508,508,511,511,511,511,511,511,511,511,511,511,511,511,511,511,511,511,511,511,511,511,511,511,511,511,511,511,511,511,511,511,511,511,511,511,0,0,0,0,510,510,509,509,510,509,509,509,510,510,509,510,510,509,509,510,515,515,510,509,510,509,509,510,509,509,510,509,510,509,509,510,509,509,509,508,508,508,503,503,505,503,503,508,508,508,511,511,511,511,511,511,511,511,511,511,511,511,511,511,511,511,511,511,511,511,511,511,511,511,511,511,511,511,511,511,511,511,511,511,0,0,0,0,509,509,510,509,509,510,510,510,510,510,509,510,509,510,509,509,515,515,510,509,509,509,510,509,510,509,509,510,509,509,510,509,509,509,509,508,508,508,503,503,505,503,503,508,508,508,511,511,511,511,511,511,511,511,511,511,511,511,511,511,511,511,511,511,511,511,511,511,511,511,511,511,511,511,511,511,511,511,511,511,0,0,0,0,509,510,509,509,510,509,509,510,510,510,510,509,510,510,509,509,515,515,509,509,510,509,509,510,509,509,509,509,510,510,509,509,510,509,510,508,508,508,503,503,505,503,503,508,508,508,511,511,511,511,511,511,511,511,511,511,511,511,511,511,511,511,511,511,511,511,511,511,511,511,511,511,511,511,511,511,511,511,511,511,0,0,0,0,515,515,515,515,515,515,515,515,515,515,515,515,515,515,515,515,515,515,515,515,515,515,515,515,515,515,515,515,515,515,515,515,515,515,515,508,508,508,503,503,505,503,503,508,508,508,511,511,511,511,511,511,511,511,511,511,511,511,511,511,511,511,511,511,511,511,511,511,511,511,511,511,511,511,511,511,511,511,511,511,0,0,0,0,515,515,515,515,515,515,515,515,515,515,515,515,515,515,515,515,515,515,515,515,515,515,515,515,515,515,515,515,515,515,515,515,515,515,515,508,508,508,503,503,505,503,503,508,508,508,511,511,511,511,511,511,511,511,511,511,511,511,511,511,511,511,511,511,511,511,511,511,511,511,511,511,511,511,511,511,511,511,511,511,0,0,0,0,509,510,509,509,509,509,509,509,509,510,510,509,510,510,510,510,515,515,509,510,510,510,510,509,510,509,509,509,509,509,509,510,510,509,510,508,508,508,503,503,505,503,503,508,508,508,511,511,511,511,511,511,511,511,511,511,511,511,511,511,511,511,511,511,511,511,511,511,511,511,511,511,511,511,511,511,511,511,511,511,0,0,0,0,510,510,510,510,509,510,510,510,510,510,510,509,510,509,509,509,515,515,509,510,510,510,509,510,510,509,509,510,509,509,510,509,510,509,510,508,508,508,503,503,505,503,503,508,508,508,511,511,511,511,511,511,511,511,511,511,511,511,511,511,511,511,511,511,511,511,511,511,511,511,511,511,511,511,511,511,511,511,511,511,0,0,0,0,510,510,509,509,509,509,510,509,510,509,510,510,509,509,509,510,515,515,510,509,510,509,510,510,510,509,509,510,510,509,510,509,509,510,510,508,508,508,503,503,505,503,503,508,508,508,511,511,511,511,511,511,511,511,511,511,511,511,511,511,511,511,511,511,511,511,511,511,511,511,511,511,511,511,511,511,511,511,511,511,0,0,0,0,510,510,510,509,509,510,510,509,509,509,509,509,509,509,510,509,515,515,510,510,510,510,510,510,510,509,509,510,509,509,510,510,510,510,510,508,508,508,503,503,505,503,503,508,508,508,511,511,511,511,511,511,511,511,511,511,511,511,511,511,511,511,511,511,511,511,511,511,511,511,511,511,511,511,511,511,511,511,511,511,0,0,0,0,510,510,510,509,510,509,509,509,509,510,510,509,510,509,509,510,515,515,509,510,509,509,509,509,509,510,510,510,509,510,509,510,510,509,509,508,508,508,503,503,505,503,503,508,508,508,511,511,511,511,511,511,511,511,511,511,511,511,511,511,511,511,511,511,511,511,511,511,511,511,511,511,511,511,511,511,511,511,511,511,0,0,0,0,510,509,510,509,509,510,510,510,509,510,510,510,510,509,510,509,515,515,510,509,510,510,510,510,509,510,509,509,509,509,509,509,510,509,510,508,508,508,503,503,505,503,503,508,508,0,511,511,511,511,511,511,511,511,511,511,511,511,511,511,511,511,511,511,511,511,511,511,511,511,511,511,511,511,511,511,511,511,511,511,0,0,0,0,510,509,510,510,509,509,510,509,510,510,509,509,510,510,509,509,515,515,510,509,509,510,510,510,510,510,510,510,509,510,509,510,509,509,510,508,508,508,503,503,505,503,503,508,508,0,511,511,511,511,511,511,511,511,511,511,511,511,511,511,511,511,511,511,511,511,511,511,511,511,511,511,511,511,511,511,511,511,511,511,0,0,0,0,509,510,510,510,510,510,510,510,509,509,509,510,510,510,509,509,515,515,510,510,509,510,509,510,509,510,510,510,510,510,510,509,509,510,510,508,508,508,503,503,505,503,503,508,508,0,511,511,511,511,511,511,511,511,511,511,511,511,511,511,511,511,511,511,511,511,511,511,511,511,511,511,511,511,511,511,511,511,511,511,0,0,0,0,509,509,509,510,509,509,510,510,510,509,509,509,510,509,509,509,515,515,510,509,509,510,510,509,510,510,509,509,510,510,510,510,510,509,509,508,508,508,503,503,505,503,503,508,508,0,511,511,511,511,511,511,511,511,511,511,511,511,511,511,511,511,511,511,511,511,511,511,511,511,511,511,511,511,511,511,511,511,511,511,0,0,0,0,510,509,509,510,509,510,510,509,510,510,509,509,510,510,509,510,515,515,510,510,509,510,509,509,509,509,510,509,509,510,510,509,510,510,510,508,508,508,503,503,505,503,503,508,508,0,511,511,511,511,511,511,511,511,511,511,511,511,511,511,511,511,511,511,511,511,511,511,511,511,511,511,511,0,0,0,0,0,0,0,0,0,0,0,510,509,509,509,510,509,509,510,509,510,510,509,509,510,509,509,515,515,509,510,510,510,509,510,509,509,509,510,510,510,510,509,510,509,510,508,508,508,503,503,505,503,503,508,508,0,0,0,0,0,0,0,511,511,511,511,511,511,511,511,511,511,511,511,511,511,511,511,511,511,511,511,511,0,0,0,0,0,0,0,0,0,0,0,509,510,510,509,509,509,510,510,510,509,509,510,510,510,510,509,515,515,509,510,510,510,509,509,510,510,509,509,510,510,509,509,510,509,509,508,508,508,503,503,505,503,503,508,508,0,0,0,0,0,0,0,511,511,511,511,511,511,511,511,511,511,511,511,511,511,511,511,511,511,511,511,511,0,0,0,0,0,0,0,0,0,0,0,510,510,509,509,510,509,510,510,509,510,510,509,509,510,510,510,515,515,510,509,509,510,509,510,510,510,510,509,510,509,509,509,510,510,509,508,508,508,503,503,505,503,503,508,508,0,0,0,0,0,0,0,511,511,511,511,511,511,511,511,511,511,511,511,511,511,511,511,511,511,511,511,511,0,0,0,0,0,0,0,0,0,0,0,509,510,510,510,510,510,509,510,510,510,509,510,509,509,510,510,515,515,509,509,509,510,510,509,509,509,510,509,510,509,510,509,510,510,510,508,508,508,503,503,505,503,503,508,508,0,0,0,0,0,0,0,511,511,511,511,511,511,511,511,511,511,511,511,511,511,511,511,511,511,511,511,511,0,0,0,0,0,0,0,0,0,0,0,509,509,510,509,509,509,509,510,510,510,510,510,509,509,509,509,515,515,509,510,509,510,509,509,509,510,510,509,510,510,509,509,509,510,510,508,508,508,503,503,505,503,503,508,508,0,0,0,0,0,0,0,511,511,511,511,511,511,511,511,511,511,511,511,511,511,511,511,511,511,511,511,511,0,0,0,0,0,0,0,0,0,0,0,510,510,509,510,509,510,509,510,510,509,509,509,509,510,510,509,515,515,510,510,509,510,510,509,509,509,510,510,509,510,510,509,510,509,510,508,508,508,503,503,505,503,503,508,508,0,0,0,0,0,0,0,0,0,0,0,0,0,0,0,0,0,0,0,0,0,0,0,0,0,0,0,0,0,0,0,0,0,0,0,0,0,0,0,0,0,0,0,0,0,0,0,0,0,0,0,0,0,0,0,0,0,0,0,0,0,0,0,0,0,0,0,0,0,0,0,0,0,0,0,508,508,503,503,505,503,503,508,508,0,0,0,0,0,0,0,0,0,0,0,0,0,0,0,0,0,0,0,0,0,0,0,0,0,0,0,0,0,0,0,0,0,0,0,0,0,0,0,0,0,0,0,0,0,0,0,0,0,0,0,0,0,0,0,0,0,0,0,0,0,0,0,0,0,0,0,0,0,0,0,0,0,0,0,508,508,503,503,505,503,503,508,508,0,0,0,0,0,0,0,0,0,0,0,0,0,0,0,0,0,0,0,0,0,0,0,0,0,0,0,0,0,0,0,0,0,0,0,0,0,0,0,0,0,0,0,0,0,0,0,0,0,0,0,0,0,0,0,0,0,0,0,0,0,0,0,0,0,0,0,0,0,0,0,0,0,0,0,508,508,503,503,505,503,503,508,508,0,0,0,0,0,0,0,0,0,0,0,0,0,0,0,0,0,0,0,0,0,0,0,0,0,0,0,0,0,0,0,0,0,0,0,0,0,0,0,0,0,0,0,0,0,0,0,0,0,0,0,0,0,0,0,0,0,0,0,0,0,0,0,0,0,0,0,0,0,0,0,0,0,0,0,508,508,503,503,505,503,503,508,508,0,0,0,0,0,0,0,0,0,0,0,0,0,0,0,0,0,0,0,0,0,0,0,0,0,0,0,0,0,0,0,0,0,0,0,0,0,0,0,0,0,0,0,0,0,0,0,0,0,0,0,0,0,0,0,0,0,0,0,517,517,503,503,503,503,517,517,517,517,503,503,517,517,517,517,517,517,503,503,517,517,503,517,503,503,517,503,503,517,503,517,517,503,503,517,503,503,503,517,503,0,0,0,0,0,0,0,0,0,0,0,0,0,0,0,0,0,0,0,0,0,0,0,0,0,0,0,0,0,0,0,0,0,0,0,0,0,0,0,0,0,0,0,517,503,517,503,517,503,503,503,503,517,503,503,517,517,517,503,517,517,517,517,503,503,503,503,517,503,503,517,503,517,517,517,503,503,517,503,517,503,517,517,503,0,0,0,0,0,0,0,0,0,0,0,0,0,0,0,0,0,0,0,0,0,0,0,0,0,0,0,0,0,0,0,0,0,0,0,0,0,0,0,0,0,0,0,503,503,503,517,503,517,517,503,517,517,517,517,517,517,503,503,517,517,503,517,503,517,503,517,503,517,503,503,517,503,517,517,503,503,517,503,517,517,517,503,517,0,0,0,0,0,0,0,0,0,0,0,0,0,0,0,0,0,0,0,0,0,0,0,0,0,0,0,0,0,0,0,0,0,0,0,0,0,0,0,0,0,0,0,517,517,517,503,517,517,503,517,517,517,517,503,517,503,503,517,503,517,503,517,517,503,517,503,503,517,503,517,517,517,503,503,503,503,503,517,503,503,517,503,517,503,503,503,503,503,503,503,503,503,503,503,503,503,503,503,503,503,503,503,503,503,0,0,0,0,0,0,0,0,0,0,0,0,0,0,0,0,0,0,0,0,0,0,517,517,503,517,517,517,503,503,517,517,503,503,503,517,503,503,503,503,503,503,517,517,503,517,503,517,517,517,517,503,517,503,517,503,517,517,503,503,503,503,517,503,503,503,503,503,503,503,503,503,503,503,503,503,503,503,503,503,503,503,503,503,0,0,0,0,0,0,0,0,0,0,0,0,0,0,0,0,0,0,0,0,0,0,517,517,517,503,517,503,503,517,503,503,517,503,517,503,503,503,503,503,503,503,503,517,503,517,517,517,503,517,503,517,517,503,503,517,517,517,503,517,517,503,503,503,503,503,503,503,503,503,503,503,503,503,503,503,503,503,503,503,503,503,503,503,0,0,0,0,0,0,0,0,0,0,0,0,0,0,0,0,0,0,0,0,0,0,503,517,517,503,503,517,517,503,517,517,503,517,517,503,517,503,517,517,517,517,517,517,517,503,517,517,517,517,517,503,503,517,517,517,503,503,517,517,517,503,517,503,503,503,503,503,503,503,503,503,503,503,503,503,503,503,503,503,503,503,503,503,0,0,0,0,0,0,0,0,0,0,0,0,0,0,0,0,0,0,0,0,0,0,517,517,503,503,517,517,503,517,517,517,517,517,517,503,517,517,503,503,517,503,517,503,503,503,503,503,503,517,517,517,517,517,503,517,517,517,503,503,503,517,503,0,0,0,0,0,0,0,0,0,0,0,0,0,0,0,0,0,0,0,0,0,0,0,0,0,0,0,0,0,0,0,0,0,0,0,0,0,0,0,0,0,0,0,517,517,517,517,503,503,517,503,517,503,517,503,517,517,517,517,503,503,517,503,517,503,517,503,517,503,517,503,503,503,503,517,517,517,517,517,503,517,517,517,517,0,0,0,0,0,0,0,0,0,0,0,0,0,0,0,0,0,0,0,0,0,0,0,0,0,0,0,0,0,0,0,0,0,0,0,0,0,0,0,0,0,0,0,517,517,517,517,503,503,503,503,517,503,517,517,503,503,503,503,517,517,517,517,517,517,503,503,503,503,503,503,503,517,517,503,503,517,517,517,503,517,503,503,517,0,0,0,0,0,0,0,0,0,0,0,0,0,0,0,0,0,0,0,0,0,0,0,0,0,0,0,0,0,0,0,0,0,0,0,0,0,0,0,0,0,0,0,0,0,0,0,0,0,0,0,0,0,0,0,0,0,0,0,0,0,0,0,0,0,0,0,0,0,0,0,0,0,0,0,0,0,0,0,0,0,0,0,0,0,0,0,0,0,0,0,0,0,0,0,0,0,0,0,0,0,0,0,0,0]},{"id":2,"name":"decor","type":"tilelayer","width":84,"height":68,"x":0,"y":0,"opacity":1,"visible":true,"data":[0,0,0,0,0,0,0,0,0,0,0,0,0,0,0,0,0,0,0,0,0,0,0,0,0,0,0,0,0,0,0,0,0,0,0,0,0,0,0,0,0,0,0,0,0,0,0,0,0,0,0,0,0,0,0,0,0,0,0,0,0,0,0,0,0,0,0,0,0,0,0,0,0,0,0,0,0,0,0,0,0,0,0,0,0,0,0,0,0,0,0,0,0,0,0,0,0,0,0,0,0,0,0,0,0,0,0,0,0,0,0,0,0,0,0,0,0,0,0,0,0,0,0,0,0,0,0,0,0,0,0,0,0,0,0,0,0,0,0,0,0,0,0,0,0,0,0,0,0,0,0,0,0,0,0,0,0,0,0,0,0,0,0,0,0,0,0,0,0,0,0,0,0,0,0,0,0,0,0,0,0,0,0,0,0,0,0,0,0,0,0,0,0,0,0,0,0,0,0,0,0,0,0,0,0,0,0,0,0,0,0,0,0,0,0,0,0,0,0,0,0,0,0,0,0,0,0,0,0,0,0,0,0,0,0,0,0,0,0,0,0,0,0,0,0,0,0,0,0,0,0,0,0,0,0,0,0,0,0,0,0,0,0,0,0,0,0,0,0,0,0,0,0,0,0,0,0,0,0,0,0,0,0,0,0,0,0,0,0,0,0,0,0,0,0,0,0,0,0,0,0,0,0,0,0,0,0,0,0,0,0,0,0,0,0,0,0,0,0,0,0,0,0,0,0,0,0,0,0,0,0,0,0,0,0,0,0,0,0,0,0,0,0,0,0,0,0,0,0,0,0,0,0,0,0,0,0,0,0,0,0,0,0,0,0,0,0,0,0,0,0,0,0,0,0,0,0,0,0,0,0,0,0,0,0,0,0,0,0,0,0,0,0,0,0,0,0,0,0,0,0,0,0,0,0,0,0,0,0,0,0,0,0,0,0,0,0,0,0,0,0,0,0,0,0,0,0,0,0,0,0,0,0,0,0,0,0,0,0,0,0,0,0,0,0,0,0,0,0,0,0,0,0,0,0,0,0,0,0,0,0,0,0,0,0,0,0,0,0,0,0,0,0,0,0,0,0,0,0,0,0,0,0,0,0,0,0,0,0,0,0,0,0,0,0,0,0,0,0,0,0,0,0,0,0,0,0,0,0,0,0,0,0,0,0,0,0,0,0,0,0,0,0,0,0,0,0,0,0,0,0,0,0,0,0,0,0,0,0,0,0,0,0,0,0,0,0,0,0,0,0,0,0,0,0,0,0,0,0,0,0,0,0,0,0,0,0,0,0,0,0,0,0,0,0,0,0,0,0,0,0,0,0,0,0,0,0,0,0,0,0,0,0,0,0,0,0,0,0,0,0,0,0,0,0,0,0,0,0,0,0,0,0,0,0,0,0,0,0,0,0,0,0,0,0,0,0,0,0,0,0,0,0,0,0,0,0,0,0,0,0,0,0,0,0,0,0,0,0,0,0,0,0,0,0,0,0,0,0,0,0,0,0,0,0,0,0,0,0,0,0,0,0,0,0,0,0,0,0,0,0,0,0,0,0,0,0,0,0,0,0,0,0,0,0,0,0,0,0,0,0,0,0,0,0,0,0,0,0,0,0,0,0,0,0,0,0,0,0,0,0,0,0,0,0,0,0,0,0,0,0,0,0,0,0,0,0,0,0,0,0,0,0,0,0,0,0,0,0,0,0,0,0,0,0,0,0,0,0,0,0,0,0,0,0,0,0,0,0,0,0,0,0,0,0,0,0,0,0,0,0,0,0,0,0,0,0,0,0,0,0,0,0,0,0,0,0,0,0,0,0,0,0,0,0,0,0,0,0,0,0,0,0,0,0,0,0,0,0,0,0,0,0,0,0,0,0,0,0,0,0,0,0,0,0,0,0,0,0,0,0,0,0,0,0,0,0,0,0,0,0,0,0,0,0,0,0,0,0,0,0,0,0,0,0,0,0,0,0,0,0,0,0,0,0,0,0,0,0,0,0,0,0,0,0,0,0,0,0,0,0,0,0,0,0,0,0,0,0,0,0,0,0,0,0,0,0,0,0,0,0,0,0,0,0,0,0,0,0,0,0,0,0,0,0,0,0,0,0,0,0,0,0,0,0,0,0,0,0,0,0,0,0,0,0,0,0,0,0,0,0,0,0,0,0,0,0,0,0,0,0,0,0,0,0,0,0,0,0,0,0,0,0,0,0,0,0,0,0,0,0,0,0,0,0,0,0,0,0,0,0,0,0,0,0,0,0,0,0,0,0,0,0,0,0,0,0,0,0,0,0,0,0,0,0,0,0,0,0,0,0,0,0,0,0,0,0,0,0,0,0,0,0,0,0,0,0,0,0,0,0,0,0,0,0,0,0,0,0,0,0,0,0,0,0,0,0,0,0,0,0,0,0,0,0,0,0,0,0,0,0,0,0,0,0,0,0,0,0,0,0,0,0,0,0,0,0,0,0,0,0,0,0,0,0,0,0,0,0,0,0,0,0,0,0,0,0,0,0,0,0,0,0,0,0,0,0,0,0,0,0,0,0,0,0,0,0,0,0,0,0,0,0,0,0,0,0,0,0,0,0,0,0,0,0,0,0,0,0,0,0,0,0,0,0,0,0,0,0,0,0,0,0,0,0,0,0,0,0,0,0,0,0,0,0,0,0,0,0,0,0,0,0,0,0,0,0,0,0,0,0,0,0,0,0,0,0,0,0,0,0,0,0,0,0,0,0,0,0,0,0,0,0,0,0,0,0,0,0,0,0,0,0,0,0,0,0,0,0,0,0,0,0,0,0,0,0,0,0,0,0,0,0,0,0,0,0,0,0,0,0,0,0,0,0,0,0,0,0,0,0,0,0,0,0,0,0,0,0,0,0,0,0,0,0,0,0,0,0,0,0,0,0,0,0,0,0,0,0,0,0,0,0,0,0,0,0,0,0,0,0,0,0,0,0,0,0,0,0,0,0,0,0,0,0,0,0,0,0,0,0,0,0,0,0,0,0,0,0,0,0,0,0,0,0,0,0,0,0,0,0,0,0,0,0,0,0,0,0,0,0,0,0,0,0,0,0,0,0,0,0,0,0,0,0,0,0,0,0,0,0,0,0,0,0,0,0,0,0,0,0,0,0,0,0,0,0,0,0,0,0,0,0,0,0,0,0,0,0,0,0,0,0,0,0,0,0,0,0,0,0,0,0,0,0,0,0,0,0,0,0,0,0,0,0,0,0,0,0,0,0,0,0,0,0,0,0,0,0,0,0,0,0,0,0,0,0,0,0,0,0,0,0,0,0,0,0,0,0,0,0,0,0,0,0,0,0,0,0,0,0,0,0,0,0,0,0,0,0,0,0,0,0,0,0,0,0,0,0,0,0,0,0,0,0,0,0,0,0,0,0,0,0,0,0,0,0,0,0,0,0,0,0,0,0,0,0,0,0,0,0,0,0,0,0,0,0,0,0,0,0,0,0,0,0,0,0,0,0,0,0,0,0,0,0,0,0,0,0,0,0,0,0,0,0,0,0,0,0,0,0,0,0,0,0,0,0,0,0,0,0,0,0,0,0,0,0,0,0,0,0,0,0,0,0,0,0,0,0,0,0,0,0,0,0,0,0,0,0,0,0,0,0,0,0,0,0,0,0,0,0,0,0,0,0,0,0,0,0,0,0,0,0,0,0,0,0,0,0,0,0,0,0,0,0,0,0,0,0,0,0,0,0,0,0,0,0,0,0,0,0,0,0,0,0,0,0,0,0,0,0,0,0,0,0,0,0,0,0,0,0,0,0,0,0,0,0,0,0,0,0,0,0,0,0,0,0,0,0,0,0,0,0,0,0,0,0,0,0,0,0,0,0,0,0,0,0,0,0,0,0,0,0,0,0,0,0,0,0,0,0,0,0,0,0,0,0,0,0,0,0,0,0,0,0,0,0,0,0,0,0,0,0,0,0,0,0,0,0,0,0,0,0,0,0,0,0,0,0,0,0,0,0,0,0,0,0,0,0,0,0,0,0,0,0,0,0,0,0,0,0,0,0,0,0,0,0,0,0,0,0,0,0,0,0,0,0,0,0,0,0,0,0,0,0,0,0,0,0,0,0,0,0,0,0,0,0,0,0,0,0,0,0,0,0,0,0,0,0,0,0,0,0,0,0,0,0,0,0,0,0,0,0,0,0,0,0,0,0,0,0,0,0,0,0,0,0,0,0,0,0,0,0,0,0,0,0,0,0,0,0,0,0,0,0,0,0,0,0,0,0,0,0,0,0,0,0,0,0,0,0,0,0,0,0,0,0,0,0,0,0,0,0,0,0,0,0,0,0,0,0,0,0,0,0,0,0,0,0,0,0,0,0,0,0,0,0,0,0,0,0,0,0,0,0,0,0,0,0,0,0,0,0,0,0,0,0,0,0,0,0,0,0,0,0,0,0,0,0,0,0,0,0,0,0,0,0,0,0,0,0,0,0,0,0,0,0,0,0,0,0,0,0,0,0,0,0,0,0,0,0,0,0,0,0,0,0,0,0,0,0,0,0,0,0,0,0,0,0,0,0,0,0,0,0,0,0,0,0,0,0,0,0,0,0,0,0,0,0,0,0,0,0,0,0,0,0,0,0,0,0,0,0,0,0,0,0,0,0,0,0,0,0,0,0,0,0,0,0,0,0,0,0,0,0,0,0,0,0,0,0,0,0,0,0,0,0,0,0,0,0,0,0,0,0,0,0,0,0,0,0,0,0,0,0,0,0,0,0,0,0,0,0,0,0,0,0,0,0,0,0,0,0,0,0,0,0,0,0,0,0,0,0,0,0,0,0,0,0,0,0,0,0,0,0,0,0,0,0,0,0,0,0,0,0,0,0,0,0,0,0,0,0,0,0,0,0,0,0,0,0,0,0,0,0,0,0,0,0,0,0,0,0,0,0,0,0,0,0,0,0,0,0,0,0,0,0,0,0,0,0,0,0,0,0,0,0,0,0,0,0,0,0,0,0,0,0,0,0,0,0,0,0,0,0,0,0,0,0,0,0,0,0,0,0,0,0,0,0,0,0,0,0,0,0,0,0,0,0,0,0,0,0,0,0,0,0,0,0,0,0,0,0,0,0,0,0,0,0,0,0,0,0,0,0,0,0,0,0,0,0,0,0,0,0,0,0,0,0,0,0,0,0,0,0,0,0,0,0,0,0,0,0,0,0,0,0,0,0,0,0,0,0,0,0,0,0,0,0,0,0,0,0,0,0,0,0,0,0,0,0,0,0,0,0,0,0,0,0,0,0,0,0,0,0,0,0,0,0,0,0,0,0,0,0,0,0,0,0,0,0,0,0,0,0,0,0,0,0,0,0,0,0,0,0,0,0,0,0,0,0,0,0,0,0,0,0,0,0,0,0,0,0,0,0,0,0,0,0,0,0,0,0,0,0,0,0,0,0,0,0,0,0,0,0,0,0,0,0,0,0,0,0,0,0,0,0,0,0,0,0,0,0,0,0,0,0,0,0,0,0,0,0,0,0,0,0,0,0,0,0,0,0,0,0,0,0,0,0,0,0,0,0,0,0,0,0,0,0,0,0,0,0,0,0,0,0,0,0,0,0,0,0,0,0,0,0,0,0,0,0,0,0,0,0,0,0,0,0,0,0,0,0,0,0,0,0,0,0,0,0,0,0,0,0,0,0,0,0,0,0,0,0,0,0,0,0,0,0,0,0,0,0,0,0,0,0,0,0,0,0,0,0,0,0,0,0,0,0,0,0,0,0,0,0,0,0,0,0,0,0,0,0,0,0,0,0,0,0,0,0,0,0,0,0,0,0,0,0,0,0,0,0,0,0,0,0,0,0,0,0,0,0,0,0,0,0,0,0,0,0,0,0,0,0,0,0,0,0,0,0,0,0,0,0,0,0,0,0,0,0,0,0,0,0,0,0,0,0,0,0,0,0,0,0,0,0,0,0,0,0,0,0,0,0,0,0,0,0,0,0,0,0,0,0,0,0,0,0,0,0,0,0,0,0,0,0,0,0,0,0,0,0,0,0,0,0,0,0,0,0,0,0,0,0,0,0,0,0,0,0,0,0,0,0,0,0,0,0,0,0,0,0,0,0,0,0,0,0,0,0,0,0,0,0,0,0,0,0,0,0,0,0,0,0,0,0,0,0,0,0,0,0,0,0,0,0,0,0,0,0,0,0,0,0,0,0,0,0,0,0,0,0,0,0,0,0,0,0,0,0,0,0,0,0,0,0,0,0,0,0,0,0,0,0,0,0,0,0,0,0,0,0,0,0,0,0,0,0,0,0,0,0,0,0,0,0,0,0,0,0,0,0,0,0,0,0,0,0,0,0,0,0,0,0,0,0,0,0,0,0,0,0,0,0,0,0,0,0,0,0,0,0,0,0,0,0,0,0,0,0,0,0,0,0,0,0,0,0,0,0,0,0,0,0,0,0,0,0,0,0,0,0,0,0,0,0,0,0,0,0,0,0,0,0,0,0,0,0,0,0,0,0,0,0,0,0,0,0,0,0,0,0,0,0,0,0,0,0,0,0,0,0,0,0,0,0,0,0,0,0,0,0,0,0,0,0,0,0,0,0,0,0,0,0,0,0,0,0,0,0,0,0,0,0,0,0,0,0,0,0,0,0,0,0,0,0,0,0,0,0,0,0,0,0,0,0,0,0,0,0,0,0,0,0,0,0,0,0,0,0,0,0,0,0,0,0,0,0,0,0,0,0,0,0,0,0,0,0,0,0,0,0,0,0,0,0,0,0,0,0,0,0,0,0,0,0,0,0,0,0,0,0,0,0,0,0,0,0,0,0,0,0,0,0,0,0,0,0,0,0,0,0,0,0,0,0,0,0,0,0,0,0,0,0,0,0,0,0,0,0,0,0,0,0,0,0,0,0,0,0,0,0,0,0,0,0,0,0,0,0,0,0,0,0,0,0,0,0,0,0,0,0,0,0,0,0,0,0,0,0,0,0,0,0,0,0,0,0,0,0,0,0,0,0,0,0,0,0,0,0,0,0,0,0,0,0,0,0,0,0,0,0,0,0,0,0,0,0,0,0,0,0,0,0,0,0,0,0,0,0,0,0,0,0,0,0,0,0,0,0,0,0,0,0,0,0,0,0,0,0,0,0,0,0,0,0,0,0,0,0,0,0,0,0,0,0,0,0,0,0,0,0,0,0,0,0,0,0,0,0,0,0,0,0,0,0,0,0,0,0,0,0,0,0,0,0,0,0,0,0,0,0,0,0,0,0,0,0,0,0,0,0,0,0,0,0,0,0,0,0,0,0,0,0,0,0,0,0,0,0,0,0,0,0,0,0,0,0,0,0,0,0,0,0,0,0,0,0,0,0,0,0,0,0,0,0,0,0,0,0,0,0,0,0,0,0,0,0,0,0,0,0,0,0,0,0,0,0,0,0,0,0,0,0,0,0,0,0,0,0,0,0,0,0,0,0,0,0,0,0,0,0,0,0,0,0,0,0,0,0,0,0,0,0,0,0,0,0,0,0,0,0,0,0,0,0,0,0,0,0,0,0,0,0,0,0,0,0,0,0,0,0,0,0,0,0,0,0,0,0,0,0,0,0,0,0,0,0,0,0,0,0,0,0,0,0,0,0,0,0,0,0,0,0,0,0,0,0,0,0,0,0,0,0,0,0,0,0,0,0,0,0,0,0,0,0,0,0,0,0,0,0,0,0,0,0,0,0,0,0,0,0,0,0,0,0,0,0,0,0,0,0,0,0,0,0,0,0,0,0,0,0,0,0,0,0,0,0,0,0,0,0,0,0,0,0,0,0,0,0,0,0,0,0,0,0,0,0,0,0,0,0,0,0,0,0,0,0,0,0,0,0,0,0,0,0,0,0,0,0,0,0,0,0,0,0,0,0,0,0,0,0,0,0,0,0,0,0,0,0,0,0,0,0,0,0,0,0,0,0,0,0,0,0,0,0,0,0,0,0,0,0,0,0,0,0,0,0,0,0,0,0,0,0,0,0,0,0,0,0,0,0,0,0,0,0,0,0,0,0,0,0,0,0,0,0,0,0,0,0,0,0,0,0,0,0,0,0,0,0,0,0,0,0,0,0,0,0,0,0,0,0,0,0,0,0,0,0,0,0,0,0,0,0,0,0,0,0,0,0,0,0,0,0,0,0,0,0,0,0,0,0,0,0,0,0,0,0,0,0,0,0,0,0,0,0,0,0,0,0,0,0,0,0,0,0,0,0,0,0,0,0,0,0,0,0,0,0,0,0,0,0,0,0,0,0,0,0,0,0,0,0,0,0,0,0,0,0,0,0,0,0,0,0,0,0,0,0,0,0,0,0,0,0,0,0,0,0,0,0,0,0,0,0,0,0,0,0,0,0,0,0,0,0,0,0,0,0,0,0,0,0,0,0,0,0,0,0,0,0,0,0,0,0,0,0,0,0,0,0,0,0,0,0,0,0,0,0,0,0,0,0,0,0,0,0,0,0,0,0,0,0,0,0,0,0,0,0,0,0,0,0,0,0,0,0,0,0,0,0,0,0,0,0,0,0,0,0,0,0,0,0,0,0,0,0,0,0,0,0,0,0,0,0,0,0,0,0,0,0,0,0,0,0,0,0,0,0,0,0,0,0,0,0,0,0,0,0,0,0,0,0,0,0,0,0,0,0,0,0,0,0,0,0,0,0,0,0,0,0,0,0,0,0,0,0,0,0,0,0,0,0,0,0,0,0,0,0,0,0,0,0,0,0,0,0,0,0,0,0,0,0,0,0,0,0,0,0,0,0,0,0,0,0,0,0,0,0,0,0,0,0,0,0,0,0,0,0,0,0,0,0,0,0,0,0,0,0,0,0,0,0,0,0,0,0,0,0,0,0,0,0,0,0,0,0,0,0,0,0,0,0,0,0,0,0,0,0,0,0,0,0,0,0,0,0,0,0,0,0,0,0,0,0,0,0,0,0,0,0,0,0,0,0,0,0,0,0,0,0,0,0,0,0,0,0,0,0,0,0,0,0,0,0,0,0,0,0,0,0,0,0,0,0,0,0,0,0,0,0,0,0,0,0,0,0,0,0,0,0,0,0,0,0,0,0,0,0,0,0,0,0,0,0,0,0,0,0,0,0,0,0,0,0,0,0,0,0,0,0,0,0,0,0,0,0,0,0,0,0,0,0,0,0,0,0,0,0,0,0,0,0,0,0,0,0,0,0,0,0,0,0,0,0,0,0,0,0,0,0,0,0,0,0,0,0,0,0,0,0,0,0,0,0,0,0,0,0,0,0,0,0,0,0,0,0,0,0,0,0,0,0,0,0,0,0,0,0,0,0,0,0,0,0,0,0,0,0,0,0,0,0,0,0,0,0,0,0,0,0,0,0,0,0,0,0,0,0,0,0,0,0,0,0,0,0,0,0,0,0,0,0,0,0,0,0,0,0,0,0,0,0,0,0,0,0,0,0,0,0,0,0,0,0,0,0,0,0,0,0,0,0,0,0,0,0,0,0,0,0,0,0,0,0,0,0,0,0,0,0,0,0,0,0,0,0,0,0,0,0,0,0,0,0,0,0,0,0,0,0,0,0,0,0,0,0,0,0,0,0,0,0,0,0,0,0,0,0,0,0,0,0,0,0,0,0,0,0,0,0,0,0,0,0,0,0,0,0,0,0,0,0,0,0,0,0,0,0,0,0,0,0,0,0,0,0,0,0,0,0,0,0,0,0,0,0,0,0,0,0,0,0,0,0,0,0,0,0,0,0,0,0,0,0,0,0,0,0,0,0,0,0,0,0,0,0,0,0,0,0,0,0,0,0,0,0,0,0,0,0,0,0,0,0,0,0,0,0,0,0,0,0,0,0,0,0,0,0,0,0,0,0,0,0,0,0,0,0,0,0,0,0,0,0,0,0,0,0,0,0,0,0,0,0,0,0,0,0,0,0,0,0,0,0,0,0,0,0,0,0,0,0,0,0,0,0,0,0,0,0,0,0,0,0,0,0,0,0,0,0,0,0,0,0,0,0,0,0,0,0,0,0,0,0,0,0,0,0,0,0,0,0,0,0,0,0,0,0,0,0,0,0,0,0,0,0,0,0,0,0,0,0,0,0,0,0,0,0,0,0,0,0,0,0,0,0,0,0,0,0,0,0,0,0,0,0,0,0,0,0,0,0,0,0,0,0,0,0,0,0,0,0,0,0,0,0,0,0,0,0,0,0,0,0,0,0,0,0,0,0,0,0,0,0,0,0,0,0,0,0,0,0,0,0,0,0,0,0,0,0,0,0,0,0,0,0,0,0,0,0,0,0,0,0,0,0,0,0,0,0,0,0,0,0,0,0,0,0,0,0,0,0,0,0,0,0,0,0,0,0,0,0,0,0,0,0,0,0,0,0,0,0,0,0,0,0,0,0,0,0,0,0,0,0,0,0,0,0,0,0,0,0,0,0,0,0,0,0,0,0,0,0,0,0,0,0,0,0,0,0,0,0,0,0,0,0,0,0,0,0,0,0,0,0,0,0,0,0,0,0,0,0,0,0,0,0,0,0,0,0,0,0,0,0,0,0,0,0,0,0,0,0,0,0,0,0,0,0,0,0,0,0,0,0,0,0,0,0,0,0,0,0,0,0,0,0,0,0,0,0,0,0,0,0,0,0,0,0,0,0,0,0,0,0,0,0,0,0,0,0,0,0,0,0,0,0,0,0,0,0,0,0,0,0,0,0,0,0,0,0,0,0,0,0,0,0,0,0,0,0,0,0,0,0,0,0,0,0,0,0,0,0,0,0,0,0,0,0,0,0,0,0,0,0,0,0,0,0,0,0,0,0,0,0,0,0,0,0,0,0,0,0,0,0,0,0,0,0,0,0,0,0,0,0,0,0,0,0,0,0,0,0,0,0,0,0,0,0,0,0,0,0,0,0,0,0,0,0,0,0,0,0,0,0,0,0,0,0,0,0,0,0,0,0,0,0,0,0,0,0,0,0,0,0,0,0,0,0,0,0,0,0,0,0,0,0,0,0,0,0,0,0,0,0,0,0,0,0,0,0,0,0,0,0,0,0,0,0,0,0,0,0,0,0,0,0,0,0,0,0,0,0,0,0,0,0,0,0,0,0,0,0,0,0,0,0,0,0,0,0,0,0,0,0,0,0,0,0,0,0,0,0,0,0,0,0,0,0,0,0,0,0,0,0,0,0,0,0,0,0,0,0,0,0,0,0,0,0,0,0,0,0,0,0,0,0,0,0,0,0,0,0,0,0,0,0,0,0,0,0,0,0,0,0,0,0,0,0,0,0,0,0,0,0,0,0,0,0,0,0,0,0,0,0,0,0,0,0,0,0,0,0,0,0,0,0,0,0,0,0,0,0,0,0,0,0,0,0,0,0,0,0,0,0,0,0,0,0,0,0,0,0,0,0,0,0,0,0,0,0,0,0,0,0,0,0,0,0,0,0,0,0,0,0,0,0,0,0,0,0,0,0,0,0,0,0,0,0,0,0,0,0,0,0,0,0,0,0,0,0,0,0,0,0,0,0,0,0,0,0,0,0,0,0,0,0,0,0,0,0,0,0,0,0,0,0,0,0,0,0,0,0,0,0,0,0,0,0,0,0,0,0,0,0,0,0,0,0,0,0,0,0,0,0,0,0,0,0,0,0,0,0,0,0,0,0,0,0,0,0,0,0,0,0,0,0,0,0,0,0,0,0,0,0,0,0,0,0,0,0,0,0,0,0,0,0,0,0,0,0,0,0,0,0,0,0,0,0,0,0,0,0,0,0,0,0,0,0,0,0,0,0,0,0,0,0,0,0,0,0,0,0,0,0,0,0,0,0,0,0,0,0,0,0,0,0,0,0,0,0,0,0,0,0,0,0,0,0,0,0,0,0,0,0,0,0,0,0,0,0,0,0,0,0,0,0,0,0,0,0,0,0,0,0,0,0,0,0,0,0,0,0,0,0,0,0,0,0,0,0,0,0,0,0,0,0,0,0,0,0,0,0,0,0,0,0,0,0,0,0,0,0,0,0,0,0,0,0,0,0,0,0,0,0,0,0,0,0,0,0,0,0,0,0,0,0,0,0,0,0,0,0,0,0,0,0,0,0,0,0,0,0,0,0,0,0,0,0,0,0,0,0,0,0,0,0,0,0,0,0,0,0,0,0,0,0,0,0,0,0,0,0,0,0,0,0,0,0,0,0,0,0,0,0,0,0,0,0,0,0,0,0,0,0,0,0,0,0,0,0,0,0,0,0,0,0,0,0,0,0,0,0,0,0,0,0,0,0,0,0,0,0,0,0,0,0,0,0,0,0,0,0,0,0,0,0,0,0,0,0,0,0,0,0,0,0,0,0,0,0,0,0,0,0,0,0,0,0,0,0,0,0,0,0,0,0,0,0,0,0,0,0,0,0,0,0,0,0,0,0,0,0,0,0,0,0,0,0,0,0,0,0,0,0,0,0,0,0,0,0,0,0,0,0,0,0,0,0,0,0,0,0,0,0,0,0,0,0,0,0,0,0,0,0,0,0,0,0,0,0,0,0,0,0,0,0,0,0,0,0,0,0,0,0,0,0,0,0,0,0,0,0,0,0,0,0,0,0,0,0,0,0,0,0,0,0,0,0,0,0,0,0,0,0,0,0,0,0,0,0,0,0,0,0,0,0,0,0,0,0,0,0,0,0,0,0,0,0,0,0,0,0,0,0,0,0,0,0,0,0,0,0,0,0,0,0,0,0,0,0,0,0,0,0,0,0,0,0,0,0,0,0,0,0,0,0,0,0,0,0,0,0,0,0,0,0,0,0,0,0,0,0,0,0,0,0,0,0,0,0,0,0,0,0,0,0,0,0,0,0,0,0,0,0,0,0,0,0,0,0,0,0,0,0,0,0,0,0,0,0,0,0,0,0,0,0,0,0,0,0,0]},{"id":3,"name":"walls","type":"tilelayer","width":84,"height":68,"x":0,"y":0,"opacity":1,"visible":true,"data":[875,875,875,875,875,875,875,875,875,875,875,875,875,875,875,875,875,875,875,875,875,875,875,875,875,875,875,875,875,875,875,875,875,875,875,875,875,875,875,875,875,875,875,875,875,875,875,875,875,875,875,875,875,875,875,875,875,875,875,875,875,875,875,875,875,875,875,875,875,875,875,875,875,875,875,875,875,875,875,875,875,875,875,875,875,873,867,867,867,867,867,867,867,867,867,867,867,867,867,867,867,867,867,867,867,867,867,870,875,875,875,875,875,875,875,875,875,875,875,875,875,875,875,875,875,875,875,875,875,875,875,875,875,875,875,875,875,875,875,875,875,875,875,875,875,875,875,875,875,875,875,875,875,875,875,875,875,875,875,875,875,875,875,875,875,875,875,875,875,871,0,0,0,0,0,0,0,0,0,0,0,0,0,0,0,0,0,0,0,0,0,853,875,875,875,875,875,875,875,875,875,875,875,875,875,875,875,875,875,875,875,875,875,875,875,875,875,875,875,875,875,875,875,875,875,875,875,875,875,875,875,875,875,875,875,875,875,875,875,875,875,875,875,875,875,875,875,875,875,875,875,875,875,871,0,0,0,0,0,0,0,0,0,0,0,0,0,0,0,0,0,0,0,0,0,853,875,875,875,875,875,875,875,875,875,875,875,875,875,875,875,875,875,875,875,875,875,875,875,875,875,875,875,875,875,875,875,875,875,875,875,875,875,875,875,875,875,875,875,875,875,875,875,875,875,875,875,875,875,875,875,875,875,875,875,875,875,871,0,0,0,0,0,0,0,0,0,0,0,0,0,0,0,0,0,0,0,0,0,853,875,875,875,875,875,875,875,875,875,875,875,875,875,875,875,875,875,875,875,875,875,875,875,875,875,875,875,875,875,875,875,875,875,875,875,875,875,875,875,875,875,875,875,875,875,875,875,875,875,875,875,875,875,875,875,875,875,875,875,875,875,871,0,0,0,0,0,0,0,0,0,0,0,0,0,0,0,0,0,0,0,0,0,853,875,875,875,875,875,875,875,875,875,875,875,875,875,875,875,875,875,875,875,875,875,875,875,875,875,875,875,875,875,875,875,875,875,875,875,875,875,875,875,875,875,875,875,875,875,875,875,875,875,875,875,875,875,875,875,875,875,875,875,875,875,871,0,0,0,0,0,0,0,0,0,0,0,0,0,0,0,0,0,0,0,0,0,853,875,875,875,875,875,875,875,875,875,875,875,875,875,875,875,875,875,875,875,875,875,875,875,875,875,875,875,875,875,875,875,875,875,875,875,875,875,875,875,875,875,875,875,875,875,875,875,875,875,875,875,875,875,875,875,875,875,875,875,875,875,871,0,0,0,0,0,0,0,0,0,0,0,0,0,0,0,0,0,0,0,0,0,853,875,875,875,875,875,875,875,875,875,875,875,875,875,875,875,875,875,875,875,875,875,875,875,875,875,875,875,875,875,875,875,875,875,875,875,875,875,875,875,875,875,875,875,875,875,875,875,875,875,875,875,875,875,875,875,875,875,875,875,875,875,871,0,0,0,0,0,0,0,0,0,0,0,0,0,0,0,0,0,0,0,0,0,853,875,875,875,875,875,875,875,875,875,875,875,875,875,875,875,875,875,875,875,875,875,875,875,875,875,875,875,875,875,875,875,875,875,875,875,875,875,875,875,875,875,875,875,875,875,875,875,875,875,875,875,875,875,875,875,875,875,875,875,875,875,871,0,0,0,0,0,0,0,0,0,0,0,0,0,0,0,0,0,0,0,0,0,853,875,875,875,875,875,875,875,875,875,875,875,875,875,875,875,875,875,875,875,875,875,875,875,875,875,875,875,875,875,875,875,875,875,875,875,875,875,875,875,875,875,875,875,875,875,875,875,875,875,875,875,875,875,875,875,875,875,875,875,875,875,871,0,0,0,0,0,0,0,0,0,0,0,0,0,0,0,0,0,0,0,0,0,853,875,875,875,875,875,875,875,875,875,875,875,875,875,875,875,875,875,875,875,875,875,875,875,875,875,875,875,875,875,875,875,875,875,875,875,875,875,875,875,875,875,875,875,875,875,875,875,875,875,875,875,875,875,875,875,875,875,875,875,875,875,871,0,0,0,0,0,0,0,0,0,0,0,0,0,0,0,0,0,0,0,0,0,845,867,867,867,867,867,867,867,867,867,867,867,867,867,867,867,867,867,867,867,867,867,867,867,867,867,867,867,867,867,867,867,867,867,867,867,867,867,867,867,867,867,867,867,867,867,867,867,867,867,867,867,867,867,867,867,867,867,867,870,875,875,871,0,0,0,0,0,0,0,0,0,0,0,0,0,0,0,0,0,0,0,0,0,0,0,0,0,0,0,0,0,0,0,0,0,0,0,0,0,0,0,0,0,0,0,0,0,0,0,0,0,0,0,0,0,0,0,0,0,0,0,0,0,0,0,0,0,0,0,0,0,0,0,0,0,0,0,0,0,0,0,0,853,875,875,871,0,0,0,0,0,0,0,0,0,0,0,0,0,0,0,0,0,0,0,0,0,0,0,0,0,0,0,0,0,0,0,0,0,0,0,0,0,0,0,0,0,0,0,0,0,0,0,0,0,0,0,0,0,0,0,0,0,0,0,0,0,0,0,0,0,0,0,0,0,0,0,0,0,0,0,0,0,0,0,0,853,875,875,871,0,0,0,0,0,0,0,0,0,0,0,0,0,0,0,0,0,0,0,0,0,0,0,0,0,0,0,0,0,0,0,0,0,0,0,0,0,0,0,0,0,0,0,0,0,0,0,0,0,0,0,0,0,0,0,0,0,0,0,0,0,0,0,0,0,0,0,0,0,0,0,0,0,0,0,0,0,0,0,0,853,875,875,871,0,0,0,0,0,0,0,0,0,0,0,0,0,0,0,0,0,0,0,0,0,0,0,0,0,0,0,0,0,0,0,0,0,0,0,0,0,0,0,0,0,0,0,0,0,0,0,0,0,0,0,0,0,0,0,0,0,0,0,0,0,0,0,0,0,0,0,0,0,0,0,0,0,0,0,0,0,0,0,0,853,875,875,871,0,0,0,0,0,0,0,0,0,0,0,0,0,0,0,0,0,0,0,0,0,0,0,0,0,0,0,0,0,0,0,0,0,0,0,0,0,0,0,0,0,0,0,0,0,0,0,0,0,0,0,0,0,0,0,0,0,0,0,0,0,0,0,0,0,0,0,0,0,0,0,0,0,0,0,0,0,0,0,0,853,875,875,871,0,0,0,0,0,0,0,0,0,0,0,0,0,0,0,0,0,0,0,0,0,0,0,0,0,0,0,0,0,0,0,0,0,0,0,0,0,0,0,0,0,0,0,0,0,0,0,0,0,0,0,0,0,0,0,0,0,0,0,0,0,0,0,0,0,0,0,0,0,0,0,0,0,0,0,0,0,0,0,0,853,875,875,871,0,0,0,0,0,0,0,0,0,0,0,0,0,0,0,0,0,0,0,0,0,0,0,0,0,0,0,0,0,0,0,0,0,0,0,0,0,0,0,0,0,0,0,0,0,0,0,0,0,0,0,0,0,0,0,0,0,0,0,0,0,0,0,0,0,0,0,0,0,0,0,0,0,0,0,0,0,0,0,0,853,875,875,871,0,0,0,0,0,0,0,0,0,0,0,0,0,0,0,0,0,0,0,0,0,0,0,0,0,0,0,0,0,0,0,0,0,0,0,0,0,0,0,0,0,0,0,0,0,0,0,0,0,0,0,0,0,0,0,0,0,0,0,0,0,0,0,0,0,0,0,0,0,0,0,0,0,0,0,0,0,0,0,0,853,875,875,871,0,0,0,0,0,0,0,0,0,0,0,0,0,0,0,0,0,0,0,0,0,0,0,0,0,0,0,0,0,0,0,0,0,0,0,0,0,0,0,0,0,0,0,0,0,0,0,0,0,0,0,0,0,0,0,0,0,0,0,0,0,0,0,0,0,0,0,0,0,0,0,0,0,0,0,0,0,0,0,0,853,875,875,871,0,0,0,0,0,0,0,0,0,0,0,0,0,0,0,0,0,0,0,0,0,0,0,0,0,0,0,0,0,0,0,0,0,0,0,0,0,0,0,0,0,0,0,0,0,849,860,860,860,860,857,839,839,839,839,837,0,0,0,0,0,0,0,0,0,0,0,831,839,839,839,839,839,839,839,851,860,860,860,860,862,875,875,871,0,0,0,0,0,0,0,0,0,0,0,0,0,0,0,0,0,0,0,0,0,0,0,0,0,0,0,0,0,0,0,0,0,0,0,0,0,0,0,0,0,0,0,0,0,853,875,875,875,875,871,0,0,0,0,0,0,0,0,0,0,0,0,0,0,0,0,0,0,0,0,0,0,0,0,853,875,875,875,875,875,875,875,871,0,0,0,0,0,0,0,0,0,0,0,0,0,0,0,0,0,0,0,0,0,0,0,0,0,0,0,0,0,0,0,0,0,0,0,0,0,0,0,0,0,0,0,0,0,853,875,875,875,875,871,0,0,0,0,0,0,0,0,0,0,0,0,0,0,0,0,0,0,0,0,0,0,0,0,853,875,875,875,875,875,875,875,871,0,0,0,0,0,0,0,0,0,0,0,0,0,0,0,0,0,0,0,0,0,0,0,0,0,0,0,0,0,0,0,0,0,0,0,0,0,0,0,0,0,0,0,0,0,853,875,875,875,875,871,0,0,0,0,0,0,0,0,0,0,0,0,0,0,0,0,0,0,0,0,0,0,0,0,853,875,875,875,875,875,875,875,871,0,0,0,0,0,0,0,0,0,0,0,0,0,0,0,0,0,0,0,0,0,0,0,0,0,0,0,0,0,0,0,0,0,0,0,0,0,0,0,0,0,0,0,0,0,846,867,867,867,867,863,0,0,0,0,0,0,0,0,0,0,0,0,0,0,0,0,0,0,0,0,0,0,0,0,853,875,875,875,875,875,875,875,871,0,0,0,0,0,0,0,0,0,0,0,0,0,0,0,0,0,0,0,0,0,0,0,0,0,0,0,0,0,0,0,0,0,0,0,0,0,0,0,0,0,0,0,0,0,834,0,0,0,0,0,0,0,0,0,0,0,0,0,0,0,0,0,0,0,0,0,0,0,0,0,0,0,0,0,845,867,867,867,867,870,875,875,871,0,0,0,0,0,0,0,0,0,0,0,0,0,0,0,0,0,0,0,0,0,0,0,0,0,0,0,0,0,0,0,0,0,0,0,0,0,0,0,0,0,0,0,0,0,834,0,0,0,0,0,0,0,0,0,0,0,0,0,0,0,0,0,0,0,0,0,0,0,0,0,0,0,0,0,0,0,0,0,0,853,875,875,871,0,0,0,0,0,0,0,0,0,0,0,0,0,0,0,0,0,0,0,0,0,0,0,0,0,0,0,0,0,0,0,0,0,0,0,0,0,0,0,0,0,0,0,0,0,830,0,0,0,0,0,0,0,0,0,0,0,0,0,0,0,0,0,0,0,0,0,0,0,0,0,0,0,0,0,0,0,0,0,0,853,875,875,871,0,0,0,0,0,0,0,0,0,0,0,0,0,0,0,0,0,0,0,0,0,0,0,0,0,0,0,0,0,0,0,0,0,0,0,0,0,0,0,0,0,0,0,0,0,0,0,0,0,0,0,0,0,0,0,0,0,0,0,0,0,0,0,0,0,0,0,0,0,0,0,0,0,0,0,0,0,0,0,0,853,875,875,871,0,0,0,0,0,0,0,0,0,0,0,0,0,0,0,0,0,0,0,0,0,0,0,0,0,0,0,0,0,0,0,0,0,0,0,0,0,0,0,0,0,0,0,0,0,0,0,0,0,0,0,0,0,0,0,0,0,0,0,0,0,0,0,0,0,0,0,0,0,0,0,0,0,0,0,0,0,0,0,0,853,875,875,871,0,0,0,0,0,0,0,0,0,0,0,0,0,0,0,0,0,0,0,0,0,0,0,0,0,0,0,0,0,0,0,0,0,0,0,0,0,0,0,0,0,0,0,0,0,0,0,0,0,0,0,0,0,0,0,0,0,0,0,0,0,0,0,0,0,0,0,0,0,0,0,0,0,0,0,0,0,0,0,0,853,875,875,871,0,0,0,0,0,0,0,0,0,0,0,0,0,0,0,0,0,0,0,0,0,0,0,0,0,0,0,0,0,0,0,0,0,0,0,0,0,0,0,0,0,0,0,0,0,0,0,0,0,0,0,0,0,0,0,0,0,0,0,0,0,0,0,0,0,0,0,0,0,0,0,0,0,0,0,0,0,0,0,0,853,875,875,871,0,0,0,0,0,0,0,0,0,0,0,0,0,0,0,0,0,0,0,0,0,0,0,0,0,0,0,0,0,0,0,0,0,0,0,0,0,0,0,0,0,0,0,0,0,0,0,0,0,0,0,0,0,0,0,0,0,0,0,0,0,0,0,0,0,0,0,0,0,0,0,0,0,0,0,0,0,0,0,0,853,875,875,871,0,0,0,0,0,0,0,0,0,0,0,0,0,0,0,0,0,0,0,0,0,0,0,0,0,0,0,0,0,0,0,0,0,0,0,0,0,0,0,0,0,0,0,0,0,0,0,0,0,0,0,0,0,0,0,0,0,0,0,0,0,0,0,0,0,0,0,0,0,0,0,0,0,0,0,0,0,0,0,0,853,875,875,871,0,0,0,0,0,0,0,0,0,0,0,0,0,0,0,0,0,0,0,0,0,0,0,0,0,0,0,0,0,0,0,0,0,0,0,0,0,0,0,0,0,0,0,0,0,0,0,0,0,0,0,0,0,0,0,0,0,0,0,0,0,0,0,0,0,0,0,0,0,0,0,0,0,0,0,0,0,0,0,0,853,875,875,871,0,0,0,0,0,0,0,0,0,0,0,0,0,0,0,0,0,0,0,0,0,0,0,0,0,0,0,0,0,0,0,0,0,0,0,0,0,0,0,0,0,0,0,0,0,0,0,0,0,0,0,0,0,0,0,0,0,0,0,0,0,0,0,0,0,0,0,0,0,0,0,0,0,0,0,0,0,0,0,0,853,875,875,871,0,0,0,0,0,0,0,0,0,0,0,0,0,0,0,0,0,0,0,0,0,0,0,0,0,0,0,0,0,0,0,0,0,0,0,0,0,0,0,0,0,0,0,0,0,0,0,0,0,0,0,0,0,0,0,0,0,0,0,0,0,0,0,0,0,0,0,0,0,0,0,0,0,0,0,0,0,0,0,0,853,875,875,871,0,0,0,0,0,0,0,0,0,0,0,0,0,0,0,0,0,0,0,0,0,0,0,0,0,0,0,0,0,0,0,0,0,0,0,0,0,0,0,0,0,0,0,0,0,0,0,0,0,0,0,0,0,0,0,0,0,0,0,0,0,0,0,0,0,0,0,0,0,0,0,0,0,0,0,0,0,0,0,0,853,875,875,871,0,0,0,0,0,0,0,0,0,0,0,0,0,0,0,0,0,0,0,0,0,0,0,0,0,0,0,0,0,0,0,0,0,0,0,0,0,0,0,0,0,0,0,0,0,0,0,0,0,0,0,0,0,0,0,0,0,0,0,0,0,0,0,0,0,0,0,0,0,0,0,0,0,0,0,0,0,0,0,0,853,875,875,871,0,0,0,0,0,0,0,0,0,0,0,0,0,0,0,0,0,0,0,0,0,0,0,0,0,0,0,0,0,0,0,0,0,0,0,0,0,0,0,0,0,0,0,0,0,0,0,0,0,0,0,0,0,0,0,0,0,0,0,0,0,0,0,0,0,0,0,0,0,0,0,0,0,0,0,0,0,0,0,0,853,875,875,871,0,0,0,0,0,0,0,0,0,0,0,0,0,0,0,0,0,0,0,0,0,0,0,0,0,0,0,0,0,0,0,0,0,0,0,0,0,0,0,0,0,0,0,0,0,0,0,0,0,0,0,0,0,0,0,0,0,0,0,0,0,0,0,0,0,0,0,0,0,0,0,0,0,0,0,0,0,0,0,0,853,875,875,871,0,0,0,0,0,0,0,0,0,0,0,0,0,0,0,0,0,0,0,0,0,0,0,0,0,0,0,0,0,0,0,0,0,0,0,0,0,0,0,0,0,0,0,0,0,833,0,0,0,0,0,0,0,0,0,0,0,0,0,0,0,0,0,0,0,0,0,0,0,0,0,0,0,0,0,0,0,0,0,0,853,875,875,871,0,0,0,0,0,0,0,0,0,0,0,0,0,0,0,0,0,0,0,0,0,0,0,0,0,0,0,0,0,0,0,0,0,0,0,0,0,0,0,0,0,0,0,0,0,834,0,0,0,0,0,0,0,0,0,0,0,0,0,0,0,0,0,0,0,0,0,0,0,0,0,0,0,0,0,0,0,0,0,0,853,875,875,871,0,0,0,0,0,0,0,0,0,0,0,0,0,0,0,0,0,0,0,0,0,0,0,0,0,0,0,0,0,0,0,0,0,0,0,0,0,0,0,0,0,0,0,0,0,834,0,0,0,0,0,0,0,0,0,0,0,0,0,0,0,0,0,0,0,0,0,0,0,0,0,0,0,0,0,0,0,0,0,0,853,875,875,871,0,0,0,0,0,0,0,0,0,0,0,0,0,0,0,0,0,0,0,0,0,0,0,0,0,0,0,0,0,0,0,0,0,0,0,0,0,0,0,0,0,0,0,0,0,834,0,0,0,0,0,0,0,0,0,0,0,0,0,0,0,0,0,0,0,0,0,0,0,0,0,0,0,0,0,0,0,0,0,0,853,875,875,871,0,0,0,0,0,0,0,0,0,0,0,0,0,0,0,0,0,0,0,0,0,0,0,0,0,0,0,0,0,0,0,0,0,0,0,0,0,0,0,0,0,0,0,0,0,834,0,0,0,0,0,0,0,0,0,0,0,0,0,0,0,0,0,0,0,0,0,0,0,0,0,0,0,849,860,860,860,860,860,860,862,875,875,871,0,0,0,0,0,0,0,0,0,0,0,0,0,0,0,0,0,0,0,0,0,0,0,0,0,0,0,0,0,0,0,0,0,0,0,0,0,0,0,0,0,0,0,0,0,850,860,860,860,860,860,855,0,0,0,0,0,0,0,0,0,0,0,0,0,0,0,0,0,0,0,0,0,853,875,875,875,875,875,875,875,875,875,871,0,0,0,0,0,0,0,0,0,0,0,0,0,0,0,0,0,0,0,0,0,0,0,0,0,0,0,0,0,0,0,0,0,0,0,0,0,0,0,0,0,0,0,0,0,853,875,875,875,875,875,871,0,0,0,0,0,0,0,0,0,0,0,0,0,0,0,0,0,0,0,0,0,853,875,875,875,875,875,875,875,875,875,871,0,0,0,0,0,0,0,0,0,0,0,0,0,0,0,0,0,0,0,0,0,0,0,0,0,0,0,0,0,0,0,0,0,0,0,0,0,0,0,0,0,0,0,0,0,853,875,875,875,875,875,871,0,0,0,0,0,0,0,0,0,0,0,0,0,0,0,0,0,0,0,0,0,853,875,875,875,875,875,875,875,875,875,871,0,0,0,0,0,0,0,0,0,0,0,0,0,0,0,0,0,0,0,0,0,0,0,0,0,0,0,0,0,0,0,0,0,0,0,0,0,0,0,0,0,0,0,0,0,853,875,875,875,875,875,871,0,0,0,0,0,0,0,0,0,0,0,0,0,0,0,0,0,0,0,0,0,853,875,875,875,875,875,875,875,875,875,871,0,0,0,0,0,0,0,0,0,0,0,0,0,0,0,0,0,0,0,0,0,0,0,0,0,0,0,0,0,0,0,0,0,0,0,0,0,0,0,0,0,0,0,0,0,853,875,875,875,875,875,871,0,0,0,0,0,0,0,0,0,0,0,0,0,0,0,0,0,0,0,0,0,853,875,875,875,875,875,875,875,875,875,871,0,0,0,0,0,0,0,0,0,0,0,0,0,0,0,0,0,0,0,0,0,0,0,0,0,0,0,0,0,0,0,0,0,0,0,0,0,0,0,0,0,0,0,0,0,853,875,875,875,875,875,874,860,860,860,860,860,860,860,860,860,860,860,860,860,860,860,860,860,860,860,860,860,862,875,875,875,875,875,875,875,875,875,874,860,860,860,860,860,860,860,860,860,860,860,860,860,860,860,860,860,860,860,860,860,860,860,860,860,860,860,860,860,860,860,860,860,860,860,855,0,0,0,0,0,0,0,0,0,853,875,875,875,875,875,875,875,875,875,875,875,875,875,875,875,875,875,875,875,875,875,875,875,875,875,875,875,875,875,875,875,875,875,875,875,875,875,875,875,875,875,875,875,875,875,875,875,875,875,875,875,875,875,875,875,875,875,875,875,875,875,875,875,875,875,875,875,875,875,875,875,875,875,871,0,0,0,0,0,0,0,0,0,853,875,875,875,875,875,875,875,875,875,875,875,875,875,875,875,875,875,875,875,875,875,875,875,875,875,875,875,875,875,875,875,875,875,875,875,875,875,875,875,875,875,875,875,875,875,875,875,875,875,875,875,875,875,875,875,875,875,875,875,875,875,875,875,875,875,875,875,875,875,875,875,875,875,871,0,0,0,0,0,0,0,0,0,853,875,875,875,875,875,875,875,875,875,875,875,875,875,875,875,875,875,875,875,875,875,875,875,875,875,875,875,875,875,875,875,875,875,875,875,875,875,875,875,875,875,875,875,875,875,875,875,875,875,875,875,875,875,875,875,875,875,873,867,867,867,867,867,867,867,867,867,867,867,867,867,867,867,863,0,0,0,0,0,0,0,0,0,845,867,867,867,867,867,867,867,867,867,867,867,867,867,867,867,870,875,875,875,875,875,875,875,875,875,875,875,875,875,875,875,875,875,875,875,875,875,875,875,875,875,875,875,875,875,875,875,875,875,875,875,875,875,875,875,875,875,871,0,0,0,0,0,0,0,0,0,0,0,0,0,0,0,0,0,0,0,0,0,0,0,0,0,0,0,0,0,0,0,0,0,0,0,0,0,0,0,0,0,853,875,875,875,875,875,875,875,875,875,875,875,875,875,875,875,875,875,875,875,875,875,875,875,875,875,875,875,875,875,875,875,875,875,875,875,875,875,875,875,875,875,871,0,0,0,0,0,0,0,0,0,0,0,0,0,0,0,0,0,0,0,0,0,0,0,0,0,0,0,0,0,0,0,0,0,0,0,0,0,0,0,0,0,853,875,875,875,875,875,875,875,875,875,875,875,875,875,875,875,875,875,875,875,875,875,875,875,875,875,875,875,875,875,875,875,875,875,875,875,875,875,875,875,875,875,871,0,0,0,0,0,0,0,0,0,0,0,0,0,0,0,0,0,0,0,0,0,0,0,0,0,0,0,0,0,0,0,0,0,0,0,0,0,0,0,0,0,845,867,867,867,867,867,867,867,867,867,867,867,867,867,867,867,867,867,867,867,867,875,875,875,875,875,875,875,875,875,875,875,875,875,875,875,875,875,875,875,875,875,871,0,0,0,0,0,0,0,0,0,0,0,0,0,0,0,0,0,0,0,0,0,0,0,0,0,0,0,0,0,0,0,0,0,0,0,0,0,0,0,0,0,0,0,0,0,0,0,0,0,0,0,0,0,0,0,0,0,0,0,0,0,0,875,875,875,875,875,875,875,875,875,875,875,875,875,875,875,875,875,875,875,875,875,871,0,0,0,0,0,0,0,0,0,0,0,0,0,0,0,0,0,0,0,0,0,0,0,0,0,0,0,0,0,0,0,0,0,0,0,0,0,0,0,0,0,0,0,0,0,0,0,0,0,0,0,0,0,0,0,0,0,0,0,0,0,0,875,875,875,875,875,875,875,875,875,875,875,875,875,875,875,875,875,875,875,875,875,871,0,0,0,0,0,0,0,0,0,0,0,0,0,0,0,0,0,0,0,0,0,0,0,0,0,0,0,0,0,0,0,0,0,0,0,0,0,0,0,0,0,0,0,0,0,0,0,0,0,0,0,0,0,0,0,0,0,0,0,0,0,0,875,875,875,875,875,875,875,875,875,875,875,875,875,875,875,875,875,875,875,875,875,871,0,0,0,0,0,0,0,0,0,0,0,0,0,0,0,0,0,0,0,0,0,0,0,0,0,0,0,0,0,0,0,0,0,0,0,0,0,0,0,0,0,0,0,0,0,0,0,0,0,0,0,0,0,0,0,0,0,0,0,0,0,0,875,875,875,875,875,875,875,875,875,875,875,875,875,875,875,875,875,875,875,875,875,871,0,0,0,0,0,0,0,0,0,0,0,0,0,0,0,0,0,0,0,0,0,0,0,0,0,0,0,0,0,0,0,0,0,0,0,0,0,0,0,0,0,849,860,860,860,860,860,860,860,860,860,860,860,860,860,860,860,860,860,860,860,860,875,875,875,875,875,875,875,875,875,875,875,875,875,875,875,875,875,875,875,875,875,871,0,0,0,0,0,0,0,0,0,0,0,0,0,0,0,0,0,0,0,0,0,0,0,0,0,0,0,0,0,0,0,0,0,0,0,0,0,0,0,0,0,853,875,875,875,875,875,875,875,875,875,875,875,875,875,875,875,875,875,875,875,875,875,875,875,875,875,875,875,875,875,875,875,875,875,875,875,875,875,875,875,875,875,871,0,0,0,0,0,0,0,0,0,0,0,0,0,0,0,0,0,0,0,0,0,0,0,0,0,0,0,0,0,0,0,0,0,0,0,0,0,0,0,0,0,853,875,875,875,875,875,875,875,875,875,875,875,875,875,875,875,875,875,875,875,875,875,875,875,875,875,875,875,875,875,875,875,875,875,875,875,875,875,875,875,875,875,874,860,860,860,860,860,860,860,860,860,860,860,860,860,860,860,860,860,860,860,860,860,860,860,860,860,860,860,860,860,860,860,860,860,860,860,860,860,860,860,860,860,862,875,875,875,875,875,875,875,875,875,875,875,875,875,875,875,875,875,875,875,875]},{"id":4,"name":"objects","type":"objectgroup","draworder":"topdown","opacity":1,"visible":true,"x":0,"y":0,"objects":[{"id":1,"name":"player","type":"spawn","rotation":0,"visible":true,"x":640,"y":320,"width":0,"height":0,"point":true},{"id":2,"name":"player","type":"spawn","rotation":0,"visible":true,"x":742.4,"y":320,"width":0,"height":0,"point":true},{"id":3,"name":"player","type":"spawn","rotation":0,"visible":true,"x":640,"y":403.2,"width":0,"height":0,"point":true},{"id":4,"name":"player","type":"spawn","rotation":0,"visible":true,"x":742.4,"y":403.2,"width":0,"height":0,"point":true},{"id":5,"name":"","type":"label","rotation":0,"visible":true,"x":768,"y":204.8,"width":0,"height":0,"point":true,"properties":[{"name":"text","type":"string","value":"БЦ «КУРНИКС ПЛАЗА»"},{"name":"size","type":"int","value":26},{"name":"color","type":"string","value":"#5a5048"},{"name":"alpha","type":"float","value":0.45}]},{"id":6,"name":"billboard","type":"prop","rotation":0,"visible":true,"x":1077,"y":209.6,"width":150,"height":16},{"id":7,"name":"bench","type":"prop","rotation":0,"visible":true,"x":270,"y":617.2,"width":100,"height":20},{"id":8,"name":"flowers_0","type":"prop","rotation":0,"visible":true,"x":208,"y":198.8,"width":32,"height":12},{"id":9,"name":"flowers_1","type":"prop","rotation":0,"visible":true,"x":1296,"y":608.4,"width":32,"height":12},{"id":10,"name":"trash_can","type":"prop","rotation":0,"visible":true,"x":432,"y":630,"width":32,"height":20},{"id":11,"name":"street_lamp","type":"prop","rotation":0,"visible":true,"x":183,"y":656.6,"width":18,"height":18},{"id":12,"name":"street_lamp","type":"prop","rotation":0,"visible":true,"x":1335,"y":656.6,"width":18,"height":18},{"id":13,"name":"ammo","type":"pickup","rotation":0,"visible":true,"x":896,"y":627.2,"width":0,"height":0,"point":true},{"id":14,"name":"health","type":"pickup","rotation":0,"visible":true,"x":384,"y":224,"width":0,"height":0,"point":true},{"id":15,"name":"","type":"note","rotation":0,"visible":true,"x":768,"y":486.4,"width":0,"height":0,"point":true,"properties":[{"name":"text","type":"string","value":"Табличка у входа: «Бизнес-центр работает в штатном режиме». Табличку держит петух."}]},{"id":16,"name":"car_red","type":"prop","rotation":0,"visible":true,"x":397,"y":942.2,"width":230,"height":74},{"id":17,"name":"car_grey_l","type":"prop","rotation":0,"visible":true,"x":838,"y":1104.2,"width":244,"height":70},{"id":18,"name":"car_burnt","type":"prop","rotation":0,"visible":true,"x":1606,"y":937.8,"width":244,"height":70},{"id":19,"name":"car_white_l","type":"prop","rotation":0,"visible":true,"x":1997,"y":1089.4,"width":230,"height":74},{"id":20,"name":"car_blue","type":"prop","rotation":0,"visible":true,"x":3085,"y":1089.4,"width":230,"height":74},{"id":21,"name":"car_taxi_l","type":"prop","rotation":0,"visible":true,"x":3725,"y":935.8,"width":230,"height":74},{"id":22,"name":"car_green","type":"prop","rotation":0,"visible":true,"x":4429,"y":1089.4,"width":230,"height":74},{"id":23,"name":"car_burnt","type":"prop","rotation":0,"visible":true,"x":4806,"y":937.8,"width":244,"height":70},{"id":24,"name":"car_white_v","type":"prop","rotation":0,"visible":true,"x":2590.6,"y":1630,"width":118,"height":196},{"id":25,"name":"car_red_v","type":"prop","rotation":0,"visible":true,"x":2731.4,"y":2334,"width":118,"height":196},{"id":26,"name":"car_grey_v","type":"prop","rotation":0,"visible":true,"x":2593.6,"y":2919,"width":112,"height":178},{"id":27,"name":"cone","type":"prop","rotation":0,"visible":true,"x":1462,"y":927.4,"width":20,"height":14},{"id":28,"name":"cone","type":"prop","rotation":0,"visible":true,"x":1526,"y":1157.8,"width":20,"height":14},{"id":29,"name":"cone","type":"prop","rotation":0,"visible":true,"x":2934,"y":953,"width":20,"height":14},{"id":30,"name":"cone","type":"prop","rotation":0,"visible":true,"x":4214,"y":1164.2,"width":20,"height":14},{"id":31,"name":"cone","type":"prop","rotation":0,"visible":true,"x":5110,"y":1017,"width":20,"height":14},{"id":32,"name":"street_lamp","type":"prop","rotation":0,"visible":true,"x":375,"y":778.2,"width":18,"height":18},{"id":33,"name":"street_lamp","type":"prop","rotation":0,"visible":true,"x":631,"y":1315.8,"width":18,"height":18},{"id":34,"name":"street_lamp","type":"prop","rotation":0,"visible":true,"x":887,"y":778.2,"width":18,"height":18},{"id":35,"name":"street_lamp","type":"prop","rotation":0,"visible":true,"x":1143,"y":1315.8,"width":18,"height":18},{"id":36,"name":"street_lamp","type":"prop","rotation":0,"visible":true,"x":1399,"y":778.2,"width":18,"height":18},{"id":37,"name":"street_lamp","type":"prop","rotation":0,"visible":true,"x":1655,"y":1315.8,"width":18,"height":18},{"id":38,"name":"street_lamp","type":"prop","rotation":0,"visible":true,"x":1911,"y":778.2,"width":18,"height":18},{"id":39,"name":"street_lamp","type":"prop","rotation":0,"visible":true,"x":2167,"y":1315.8,"width":18,"height":18},{"id":40,"name":"street_lamp","type":"prop","rotation":0,"visible":true,"x":3319,"y":778.2,"width":18,"height":18},{"id":41,"name":"street_lamp","type":"prop","rotation":0,"visible":true,"x":3575,"y":1315.8,"width":18,"height":18},{"id":42,"name":"street_lamp","type":"prop","rotation":0,"visible":true,"x":3831,"y":778.2,"width":18,"height":18},{"id":43,"name":"street_lamp","type":"prop","rotation":0,"visible":true,"x":4087,"y":1315.8,"width":18,"height":18},{"id":44,"name":"street_lamp","type":"prop","rotation":0,"visible":true,"x":4343,"y":778.2,"width":18,"height":18},{"id":45,"name":"street_lamp","type":"prop","rotation":0,"visible":true,"x":4599,"y":1315.8,"width":18,"height":18},{"id":46,"name":"street_lamp","type":"prop","rotation":0,"visible":true,"x":4855,"y":778.2,"width":18,"height":18},{"id":47,"name":"street_lamp","type":"prop","rotation":0,"visible":true,"x":5111,"y":1315.8,"width":18,"height":18},{"id":48,"name":"street_lamp","type":"prop","rotation":0,"visible":true,"x":2442.2,"y":1527,"width":18,"height":18},{"id":49,"name":"street_lamp","type":"prop","rotation":0,"visible":true,"x":2944.6,"y":1783,"width":18,"height":18},{"id":50,"name":"street_lamp","type":"prop","rotation":0,"visible":true,"x":2442.2,"y":2039,"width":18,"height":18},{"id":51,"name":"street_lamp","type":"prop","rotation":0,"visible":true,"x":2944.6,"y":2295,"width":18,"height":18},{"id":52,"name":"street_lamp","type":"prop","rotation":0,"visible":true,"x":2442.2,"y":2551,"width":18,"height":18},{"id":53,"name":"street_lamp","type":"prop","rotation":0,"visible":true,"x":2944.6,"y":2807,"width":18,"height":18},{"id":54,"name":"street_lamp","type":"prop","rotation":0,"visible":true,"x":2442.2,"y":3063,"width":18,"height":18},{"id":55,"name":"street_lamp","type":"prop","rotation":0,"visible":true,"x":2944.6,"y":3319,"width":18,"height":18},{"id":56,"name":"hydrant","type":"prop","rotation":0,"visible":true,"x":2165,"y":798.4,"width":22,"height":16},{"id":57,"name":"hydrant","type":"prop","rotation":0,"visible":true,"x":2965,"y":1297.6,"width":22,"height":16},{"id":58,"name":"trash_can","type":"prop","rotation":0,"visible":true,"x":1968,"y":790,"width":32,"height":20},{"id":59,"name":"trash_can","type":"prop","rotation":0,"visible":true,"x":3632,"y":1302,"width":32,"height":20},{"id":60,"name":"bus_stop","type":"prop","rotation":0,"visible":true,"x":1574,"y":791.4,"width":180,"height":30},{"id":61,"name":"street","type":"spawner","rotation":0,"visible":true,"x":192,"y":1024,"width":0,"height":0,"point":true,"properties":[{"name":"how","type":"string","value":"rise"},{"name":"corridorOnly","type":"bool","value":true}]},{"id":62,"name":"street","type":"spawner","rotation":0,"visible":true,"x":5152,"y":1024,"width":0,"height":0,"point":true,"properties":[{"name":"how","type":"string","value":"rise"},{"name":"corridorOnly","type":"bool","value":true}]},{"id":63,"name":"street","type":"spawner","rotation":0,"visible":true,"x":2688,"y":3360,"width":0,"height":0,"point":true,"properties":[{"name":"how","type":"string","value":"rise"},{"name":"corridorOnly","type":"bool","value":true}]},{"id":64,"name":"street","type":"spawner","rotation":0,"visible":true,"x":2816,"y":1408,"width":0,"height":0,"point":true,"properties":[{"name":"how","type":"string","value":"rise"},{"name":"corridorOnly","type":"bool","value":true}]},{"id":65,"name":"avenue","type":"trigger","rotation":0,"visible":true,"x":1536,"y":768,"width":768,"height":576},{"id":66,"name":"","type":"note","rotation":0,"visible":true,"x":1664,"y":851.2,"width":0,"height":0,"point":true,"properties":[{"name":"text","type":"string","value":"Остановка: «Маршрутка 66 — до завода «Провансаль». Интервал: как повезёт»"}]},{"id":67,"name":"kiosk","type":"prop","rotation":0,"visible":true,"x":3445,"y":775.2,"width":150,"height":56},{"id":68,"name":"","type":"label","rotation":0,"visible":true,"x":3520,"y":729.6,"width":0,"height":0,"point":true,"properties":[{"name":"text","type":"string","value":"ШАУРМА «НЕ ИЗ КУРИЦЫ»"},{"name":"size","type":"int","value":16},{"name":"color","type":"string","value":"#8a2a20"},{"name":"alpha","type":"float","value":0.45}]},{"id":69,"name":"ashot","type":"npc","rotation":0,"visible":true,"x":3699.2,"y":838.4,"width":0,"height":0,"point":true,"properties":[{"name":"reach","type":"int","value":130},{"name":"title","type":"string","value":"Ашот · шаурма"},{"name":"mode","type":"string","value":"cower"},{"name":"hp","type":"int","value":200},{"name":"story","type":"bool","value":true},{"name":"essential","type":"bool","value":true},{"name":"untargetable","type":"bool","value":true},{"name":"weapon","type":"string","value":"shotgun"},{"name":"angle","type":"int","value":180},{"name":"lines","type":"string","value":"Клянусь, шаурма из телятины!|Они не верят! Они клюют ларёк!"}]},{"id":70,"name":"normal","type":"enemy","rotation":0,"visible":true,"x":3328,"y":928,"width":0,"height":0,"point":true,"properties":[{"name":"tag","type":"string","value":"shawarma"},{"name":"dormant","type":"bool","value":true}]},{"id":71,"name":"fast","type":"enemy","rotation":0,"visible":true,"x":3456,"y":972.8,"width":0,"height":0,"point":true,"properties":[{"name":"tag","type":"string","value":"shawarma"},{"name":"dormant","type":"bool","value":true}]},{"id":72,"name":"normal","type":"enemy","rotation":0,"visible":true,"x":3584,"y":947.2,"width":0,"height":0,"point":true,"properties":[{"name":"tag","type":"string","value":"shawarma"},{"name":"dormant","type":"bool","value":true}]},{"id":73,"name":"spitter","type":"enemy","rotation":0,"visible":true,"x":3744,"y":992,"width":0,"height":0,"point":true,"properties":[{"name":"tag","type":"string","value":"shawarma"},{"name":"dormant","type":"bool","value":true}]},{"id":74,"name":"normal","type":"enemy","rotation":0,"visible":true,"x":3392,"y":1056,"width":0,"height":0,"point":true,"properties":[{"name":"tag","type":"string","value":"shawarma"},{"name":"dormant","type":"bool","value":true}]},{"id":75,"name":"fast","type":"enemy","rotation":0,"visible":true,"x":3840,"y":870.4,"width":0,"height":0,"point":true,"properties":[{"name":"tag","type":"string","value":"shawarma"},{"name":"dormant","type":"bool","value":true}]},{"id":76,"name":"normal","type":"enemy","rotation":0,"visible":true,"x":3232,"y":844.8,"width":0,"height":0,"point":true,"properties":[{"name":"tag","type":"string","value":"shawarma"},{"name":"dormant","type":"bool","value":true}]},{"id":77,"name":"shawarma","type":"trigger","rotation":0,"visible":true,"x":3008,"y":768,"width":1024,"height":512},{"id":78,"name":"bench","type":"prop","rotation":0,"visible":true,"x":590,"y":1807.6,"width":100,"height":20},{"id":79,"name":"babushka","type":"npc","rotation":0,"visible":true,"x":640,"y":1766.4,"width":0,"height":0,"point":true,"properties":[{"name":"title","type":"string","value":"Бабушка Зина"},{"name":"mode","type":"string","value":"idle"},{"name":"hp","type":"int","value":200},{"name":"story","type":"bool","value":true},{"name":"essential","type":"bool","value":true},{"name":"untargetable","type":"bool","value":true},{"name":"angle","type":"int","value":90},{"name":"lines","type":"string","value":"Цыпа-цыпа-цыпа!|Внучок, они же голодные!"}]},{"id":80,"name":"chick","type":"enemy","rotation":0,"visible":true,"x":780.8,"y":1952,"width":0,"height":0,"point":true,"properties":[{"name":"tag","type":"string","value":"flock"},{"name":"dormant","type":"bool","value":true}]},{"id":81,"name":"chick","type":"enemy","rotation":0,"visible":true,"x":761.936376852849,"y":1996.8,"width":0,"height":0,"point":true,"properties":[{"name":"tag","type":"string","value":"flock"},{"name":"dormant","type":"bool","value":true}]},{"id":82,"name":"chick","type":"enemy","rotation":0,"visible":true,"x":710.4,"y":2029.5958761790857,"width":0,"height":0,"point":true,"properties":[{"name":"tag","type":"string","value":"flock"},{"name":"dormant","type":"bool","value":true}]},{"id":83,"name":"chick","type":"enemy","rotation":0,"visible":true,"x":640,"y":2041.6,"width":0,"height":0,"point":true,"properties":[{"name":"tag","type":"string","value":"flock"},{"name":"dormant","type":"bool","value":true}]},{"id":84,"name":"chick","type":"enemy","rotation":0,"visible":true,"x":569.6,"y":2029.5958761790857,"width":0,"height":0,"point":true,"properties":[{"name":"tag","type":"string","value":"flock"},{"name":"dormant","type":"bool","value":true}]},{"id":85,"name":"chick","type":"enemy","rotation":0,"visible":true,"x":518.063623147151,"y":1996.8,"width":0,"height":0,"point":true,"properties":[{"name":"tag","type":"string","value":"flock"},{"name":"dormant","type":"bool","value":true}]},{"id":86,"name":"chick","type":"enemy","rotation":0,"visible":true,"x":499.2,"y":1952,"width":0,"height":0,"point":true,"properties":[{"name":"tag","type":"string","value":"flock"},{"name":"dormant","type":"bool","value":true}]},{"id":87,"name":"chick","type":"enemy","rotation":0,"visible":true,"x":518.063623147151,"y":1907.2,"width":0,"height":0,"point":true,"properties":[{"name":"tag","type":"string","value":"flock"},{"name":"dormant","type":"bool","value":true}]},{"id":88,"name":"chick","type":"enemy","rotation":0,"visible":true,"x":569.5999999999999,"y":1874.4041238209143,"width":0,"height":0,"point":true,"properties":[{"name":"tag","type":"string","value":"flock"},{"name":"dormant","type":"bool","value":true}]},{"id":89,"name":"chick","type":"enemy","rotation":0,"visible":true,"x":640,"y":1862.4,"width":0,"height":0,"point":true,"properties":[{"name":"tag","type":"string","value":"flock"},{"name":"dormant","type":"bool","value":true}]},{"id":90,"name":"chick","type":"enemy","rotation":0,"visible":true,"x":710.4,"y":1874.4041238209143,"width":0,"height":0,"point":true,"properties":[{"name":"tag","type":"string","value":"flock"},{"name":"dormant","type":"bool","value":true}]},{"id":91,"name":"chick","type":"enemy","rotation":0,"visible":true,"x":761.936376852849,"y":1907.2,"width":0,"height":0,"point":true,"properties":[{"name":"tag","type":"string","value":"flock"},{"name":"dormant","type":"bool","value":true}]},{"id":92,"name":"chick","type":"enemy","rotation":0,"visible":true,"x":862.5493103770013,"y":2009.298163439091,"width":0,"height":0,"point":true,"properties":[{"name":"tag","type":"string","value":"flock"},{"name":"dormant","type":"bool","value":true}]},{"id":93,"name":"chick","type":"enemy","rotation":0,"visible":true,"x":802.9174023853806,"y":2075.2861181906596,"width":0,"height":0,"point":true,"properties":[{"name":"tag","type":"string","value":"flock"},{"name":"dormant","type":"bool","value":true}]},{"id":94,"name":"chick","type":"enemy","rotation":0,"visible":true,"x":699.6319079916208,"y":2113.384281629751,"width":0,"height":0,"point":true,"properties":[{"name":"tag","type":"string","value":"flock"},{"name":"dormant","type":"bool","value":true}]},{"id":95,"name":"chick","type":"enemy","rotation":0,"visible":true,"x":580.3680920083792,"y":2113.384281629751,"width":0,"height":0,"point":true,"properties":[{"name":"tag","type":"string","value":"flock"},{"name":"dormant","type":"bool","value":true}]},{"id":96,"name":"chick","type":"enemy","rotation":0,"visible":true,"x":477.08259761461943,"y":2075.2861181906596,"width":0,"height":0,"point":true,"properties":[{"name":"tag","type":"string","value":"flock"},{"name":"dormant","type":"bool","value":true}]},{"id":97,"name":"chick","type":"enemy","rotation":0,"visible":true,"x":417.45068962299865,"y":2009.2981634390912,"width":0,"height":0,"point":true,"properties":[{"name":"tag","type":"string","value":"flock"},{"name":"dormant","type":"bool","value":true}]},{"id":98,"name":"chick","type":"enemy","rotation":0,"visible":true,"x":417.45068962299865,"y":1933.101836560909,"width":0,"height":0,"point":true,"properties":[{"name":"tag","type":"string","value":"flock"},{"name":"dormant","type":"bool","value":true}]},{"id":99,"name":"chick","type":"enemy","rotation":0,"visible":true,"x":477.08259761461943,"y":1867.1138818093402,"width":0,"height":0,"point":true,"properties":[{"name":"tag","type":"string","value":"flock"},{"name":"dormant","type":"bool","value":true}]},{"id":100,"name":"chick","type":"enemy","rotation":0,"visible":true,"x":580.3680920083792,"y":1829.0157183702493,"width":0,"height":0,"point":true,"properties":[{"name":"tag","type":"string","value":"flock"},{"name":"dormant","type":"bool","value":true}]},{"id":101,"name":"chick","type":"enemy","rotation":0,"visible":true,"x":699.6319079916207,"y":1829.0157183702493,"width":0,"height":0,"point":true,"properties":[{"name":"tag","type":"string","value":"flock"},{"name":"dormant","type":"bool","value":true}]},{"id":102,"name":"chick","type":"enemy","rotation":0,"visible":true,"x":802.9174023853805,"y":1867.1138818093402,"width":0,"height":0,"point":true,"properties":[{"name":"tag","type":"string","value":"flock"},{"name":"dormant","type":"bool","value":true}]},{"id":103,"name":"chick","type":"enemy","rotation":0,"visible":true,"x":862.5493103770013,"y":1933.101836560909,"width":0,"height":0,"point":true,"properties":[{"name":"tag","type":"string","value":"flock"},{"name":"dormant","type":"bool","value":true}]},{"id":104,"name":"tree_round","type":"prop","rotation":0,"visible":true,"x":234,"y":1522,"width":44,"height":28},{"id":105,"name":"tree_oak","type":"prop","rotation":0,"visible":true,"x":808,"y":1496.4,"width":48,"height":28},{"id":106,"name":"tree_pine","type":"prop","rotation":0,"visible":true,"x":1518,"y":1524,"width":36,"height":24},{"id":107,"name":"tree_round","type":"prop","rotation":0,"visible":true,"x":1962,"y":1650,"width":44,"height":28},{"id":108,"name":"tree_big","type":"prop","rotation":0,"visible":true,"x":354,"y":2609,"width":60,"height":30},{"id":109,"name":"tree_oak","type":"prop","rotation":0,"visible":true,"x":872,"y":2930,"width":48,"height":28},{"id":110,"name":"tree_round","type":"prop","rotation":0,"visible":true,"x":1642,"y":2674,"width":44,"height":28},{"id":111,"name":"tree_pine","type":"prop","rotation":0,"visible":true,"x":2094,"y":2996,"width":36,"height":24},{"id":112,"name":"tree_oak","type":"prop","rotation":0,"visible":true,"x":1832,"y":1970,"width":48,"height":28},{"id":113,"name":"tree_round","type":"prop","rotation":0,"visible":true,"x":234,"y":2098,"width":44,"height":28},{"id":114,"name":"hedge","type":"prop","rotation":0,"visible":true,"x":1349,"y":1836,"width":118,"height":40},{"id":115,"name":"hedge","type":"prop","rotation":0,"visible":true,"x":1733,"y":2412,"width":118,"height":40},{"id":116,"name":"hedge","type":"prop","rotation":0,"visible":true,"x":581,"y":2476,"width":118,"height":40},{"id":117,"name":"hedge","type":"prop","rotation":0,"visible":true,"x":2053,"y":2092,"width":118,"height":40},{"id":118,"name":"bench","type":"prop","rotation":0,"visible":true,"x":1550,"y":2191.6,"width":100,"height":20},{"id":119,"name":"bench","type":"prop","rotation":0,"visible":true,"x":718,"y":2396.4,"width":100,"height":20},{"id":120,"name":"fountain","type":"prop","rotation":0,"visible":true,"x":1126,"y":2785,"width":116,"height":62},{"id":121,"name":"trash_can","type":"prop","rotation":0,"visible":true,"x":1296,"y":2185.2,"width":32,"height":20},{"id":122,"name":"fence","type":"prop","rotation":0,"visible":true,"x":438,"y":1355.2,"width":148,"height":16},{"id":123,"name":"fence","type":"prop","rotation":0,"visible":true,"x":1718,"y":1355.2,"width":148,"height":16},{"id":124,"name":"park","type":"trigger","rotation":0,"visible":true,"x":128,"y":1344,"width":2240,"height":2048},{"id":125,"name":"park","type":"spawner","rotation":0,"visible":true,"x":192,"y":3296,"width":0,"height":0,"point":true,"properties":[{"name":"how","type":"string","value":"rise"}]},{"id":126,"name":"park","type":"spawner","rotation":0,"visible":true,"x":2240,"y":3296,"width":0,"height":0,"point":true,"properties":[{"name":"how","type":"string","value":"rise"}]},{"id":127,"name":"park","type":"spawner","rotation":0,"visible":true,"x":192,"y":1408,"width":0,"height":0,"point":true,"properties":[{"name":"how","type":"string","value":"rise"}]},{"id":128,"name":"courier","type":"npc","rotation":0,"visible":true,"x":4640,"y":1062.4,"width":0,"height":0,"point":true,"properties":[{"name":"title","type":"string","value":"Курьер Тимур"},{"name":"kind","type":"string","value":"courier"},{"name":"mode","type":"string","value":"cower"},{"name":"hp","type":"int","value":120},{"name":"story","type":"bool","value":true},{"name":"essential","type":"bool","value":true},{"name":"untargetable","type":"bool","value":true},{"name":"angle","type":"int","value":90},{"name":"lines","type":"string","value":"Заказ на имя «Петух»… Я думал, это шутка!"}]},{"id":129,"name":"normal","type":"enemy","rotation":0,"visible":true,"x":4480,"y":934.4,"width":0,"height":0,"point":true,"properties":[{"name":"tag","type":"string","value":"courier"}]},{"id":130,"name":"fast","type":"enemy","rotation":0,"visible":true,"x":4768,"y":1171.2,"width":0,"height":0,"point":true,"properties":[{"name":"tag","type":"string","value":"courier"}]},{"id":131,"name":"normal","type":"enemy","rotation":0,"visible":true,"x":4416,"y":1235.2,"width":0,"height":0,"point":true,"properties":[{"name":"tag","type":"string","value":"courier"}]},{"id":132,"name":"normal","type":"enemy","rotation":0,"visible":true,"x":4864,"y":934.4,"width":0,"height":0,"point":true,"properties":[{"name":"tag","type":"string","value":"courier"}]},{"id":133,"name":"health","type":"pickup","rotation":0,"visible":true,"x":1920,"y":3200,"width":0,"height":0,"point":true},{"id":134,"name":"ammo","type":"pickup","rotation":0,"visible":true,"x":192,"y":3072,"width":0,"height":0,"point":true},{"id":135,"name":"armor","type":"pickup","rotation":0,"visible":true,"x":2208,"y":1408,"width":0,"height":0,"point":true},{"id":136,"name":"","type":"label","rotation":0,"visible":true,"x":1184,"y":3283.2,"width":0,"height":0,"point":true,"properties":[{"name":"text","type":"string","value":"ПАРК «ИМЕНИ ПЕРВОГО КВАРТАЛА»"},{"name":"size","type":"int","value":22},{"name":"color","type":"string","value":"#3f5a38"},{"name":"alpha","type":"float","value":0.45}]},{"id":137,"name":"heli_wreck","type":"prop","rotation":0,"visible":true,"x":3971,"y":2043.6,"width":250,"height":60},{"id":138,"name":"fountain","type":"prop","rotation":0,"visible":true,"x":4166,"y":2657,"width":116,"height":62},{"id":139,"name":"","type":"light","rotation":0,"visible":true,"x":3648,"y":1920,"width":0,"height":0,"point":true,"properties":[{"name":"kind","type":"string","value":"lamp"},{"name":"color","type":"string","value":"ff9a3c"},{"name":"radius","type":"int","value":220},{"name":"flicker","type":"float","value":0.7}]},{"id":140,"name":"","type":"light","rotation":0,"visible":true,"x":4544,"y":1984,"width":0,"height":0,"point":true,"properties":[{"name":"kind","type":"string","value":"lamp"},{"name":"color","type":"string","value":"ff9a3c"},{"name":"radius","type":"int","value":220},{"name":"flicker","type":"float","value":0.7}]},{"id":141,"name":"","type":"light","rotation":0,"visible":true,"x":3968,"y":2400,"width":0,"height":0,"point":true,"properties":[{"name":"kind","type":"string","value":"lamp"},{"name":"color","type":"string","value":"ff9a3c"},{"name":"radius","type":"int","value":220},{"name":"flicker","type":"float","value":0.7}]},{"id":142,"name":"car_burnt","type":"prop","rotation":0,"visible":true,"x":3462,"y":2819.4,"width":244,"height":70},{"id":143,"name":"car_white","type":"prop","rotation":0,"visible":true,"x":4557,"y":2407.8,"width":230,"height":74},{"id":144,"name":"trash_can","type":"prop","rotation":0,"visible":true,"x":3504,"y":1718,"width":32,"height":20},{"id":145,"name":"bench","type":"prop","rotation":0,"visible":true,"x":4558,"y":2959.6,"width":100,"height":20},{"id":146,"name":"bench","type":"prop","rotation":0,"visible":true,"x":3790,"y":2959.6,"width":100,"height":20},{"id":147,"name":"tree_round","type":"prop","rotation":0,"visible":true,"x":3562,"y":1554,"width":44,"height":28},{"id":148,"name":"tree_oak","type":"prop","rotation":0,"visible":true,"x":4712,"y":1778,"width":48,"height":28},{"id":149,"name":"tree_round","type":"prop","rotation":0,"visible":true,"x":3754,"y":3154,"width":44,"height":28},{"id":150,"name":"tree_pine","type":"prop","rotation":0,"visible":true,"x":4590,"y":3156,"width":36,"height":24},{"id":151,"name":"pilot","type":"npc","rotation":0,"visible":true,"x":3872,"y":2214.4,"width":0,"height":0,"point":true,"properties":[{"name":"title","type":"string","value":"Капитан Крылов · МЧС"},{"name":"mode","type":"string","value":"cower"},{"name":"hp","type":"int","value":200},{"name":"story","type":"bool","value":true},{"name":"essential","type":"bool","value":true},{"name":"untargetable","type":"bool","value":true},{"name":"angle","type":"int","value":0},{"name":"lines","type":"string","value":"Рация цела! Мне нужна минута!"}]},{"id":152,"name":"normal","type":"enemy","rotation":0,"visible":true,"x":3712,"y":2048,"width":0,"height":0,"point":true,"properties":[{"name":"tag","type":"string","value":"square"}]},{"id":153,"name":"fast","type":"enemy","rotation":0,"visible":true,"x":4032,"y":2368,"width":0,"height":0,"point":true,"properties":[{"name":"tag","type":"string","value":"square"}]},{"id":154,"name":"normal","type":"enemy","rotation":0,"visible":true,"x":4352,"y":2272,"width":0,"height":0,"point":true,"properties":[{"name":"tag","type":"string","value":"square"}]},{"id":155,"name":"spitter","type":"enemy","rotation":0,"visible":true,"x":4480,"y":2624,"width":0,"height":0,"point":true,"properties":[{"name":"tag","type":"string","value":"square"}]},{"id":156,"name":"normal","type":"enemy","rotation":0,"visible":true,"x":3904,"y":2560,"width":0,"height":0,"point":true,"properties":[{"name":"tag","type":"string","value":"square"}]},{"id":157,"name":"fast","type":"enemy","rotation":0,"visible":true,"x":4224,"y":1856,"width":0,"height":0,"point":true,"properties":[{"name":"tag","type":"string","value":"square"}]},{"id":158,"name":"square","type":"trigger","rotation":0,"visible":true,"x":3072,"y":1408,"width":2176,"height":1920},{"id":159,"name":"heli","type":"spawner","rotation":0,"visible":true,"x":3136,"y":2240,"width":0,"height":0,"point":true,"properties":[{"name":"how","type":"string","value":"rise"}]},{"id":160,"name":"heli","type":"spawner","rotation":0,"visible":true,"x":5152,"y":2240,"width":0,"height":0,"point":true,"properties":[{"name":"how","type":"string","value":"rise"}]},{"id":161,"name":"heli","type":"spawner","rotation":0,"visible":true,"x":4032,"y":1408,"width":0,"height":0,"point":true,"properties":[{"name":"how","type":"string","value":"rise"}]},{"id":162,"name":"heli","type":"spawner","rotation":0,"visible":true,"x":4096,"y":3232,"width":0,"height":0,"point":true,"properties":[{"name":"how","type":"string","value":"rise"}]},{"id":163,"name":"heli","type":"spawner","rotation":0,"visible":true,"x":3520,"y":3200,"width":0,"height":0,"point":true,"properties":[{"name":"how","type":"string","value":"rise"}]},{"id":164,"name":"heli","type":"spawner","rotation":0,"visible":true,"x":5120,"y":2752,"width":0,"height":0,"point":true,"properties":[{"name":"how","type":"string","value":"rise"}]},{"id":165,"name":"heli","type":"spawner","rotation":0,"visible":true,"x":3200,"y":1728,"width":0,"height":0,"point":true,"properties":[{"name":"how","type":"string","value":"rise"}]},{"id":166,"name":"","type":"label","rotation":0,"visible":true,"x":4224,"y":3046.4,"width":0,"height":0,"point":true,"properties":[{"name":"text","type":"string","value":"ПЛОЩАДЬ У ФОНТАНА"},{"name":"size","type":"int","value":26},{"name":"color","type":"string","value":"#4a4038"},{"name":"alpha","type":"float","value":0.45}]},{"id":167,"name":"health","type":"pickup","rotation":0,"visible":true,"x":4864,"y":1920,"width":0,"height":0,"point":true},{"id":168,"name":"ammo","type":"pickup","rotation":0,"visible":true,"x":3392,"y":2112,"width":0,"height":0,"point":true},{"id":169,"name":"ammo","type":"pickup","rotation":0,"visible":true,"x":4864,"y":2816,"width":0,"height":0,"point":true},{"id":170,"name":"health","type":"pickup","rotation":0,"visible":true,"x":3328,"y":2816,"width":0,"height":0,"point":true},{"id":171,"name":"","type":"note","rotation":0,"visible":true,"x":4256,"y":2201.6,"width":0,"height":0,"point":true,"properties":[{"name":"text","type":"string","value":"На борту вертолёта: «МЧС. Не кормить». Ниже, перьями: «КО»."}]},{"id":172,"name":"","type":"label","rotation":0,"visible":true,"x":2688,"y":3225.6,"width":0,"height":0,"point":true,"properties":[{"name":"text","type":"string","value":"↓ ПАРКОВКА «ЭЛИТ-АВТО»"},{"name":"size","type":"int","value":18},{"name":"color","type":"string","value":"#5a5048"},{"name":"alpha","type":"float","value":0.45}]},{"id":173,"name":"lot","type":"trigger","rotation":0,"visible":true,"x":2432,"y":3392,"width":576,"height":256},{"id":174,"name":"","type":"label","rotation":0,"visible":true,"x":2688,"y":4236.8,"width":0,"height":0,"point":true,"properties":[{"name":"text","type":"string","value":"ПАРКОВКА «ЭЛИТ-АВТО» · ТОЛЬКО ДЛЯ VIP"},{"name":"size","type":"int","value":20},{"name":"color","type":"string","value":"#e8c64a"},{"name":"alpha","type":"float","value":0.45}]},{"id":175,"name":"car_sport_black_v","type":"prop","rotation":0,"visible":true,"x":1477,"y":3652.4,"width":118,"height":196},{"id":176,"name":"car_red_v","type":"prop","rotation":0,"visible":true,"x":1701,"y":3652.4,"width":118,"height":196},{"id":177,"name":"car_sport_yellow_v","type":"prop","rotation":0,"visible":true,"x":1925,"y":3652.4,"width":118,"height":196},{"id":178,"name":"car_white_v","type":"prop","rotation":0,"visible":true,"x":2149,"y":3652.4,"width":118,"height":196},{"id":179,"name":"car_sport_lime_v","type":"prop","rotation":0,"visible":true,"x":2341,"y":3652.4,"width":118,"height":196},{"id":180,"name":"car_blue_v","type":"prop","rotation":0,"visible":true,"x":3013,"y":3652.4,"width":118,"height":196},{"id":181,"name":"car_grey_v","type":"prop","rotation":0,"visible":true,"x":3240,"y":3661.4,"width":112,"height":178},{"id":182,"name":"car_sport_black_v","type":"prop","rotation":0,"visible":true,"x":3461,"y":3652.4,"width":118,"height":196},{"id":183,"name":"car_sport_yellow_v","type":"prop","rotation":0,"visible":true,"x":3685,"y":3652.4,"width":118,"height":196},{"id":184,"name":"car_white_v","type":"prop","rotation":0,"visible":true,"x":1477,"y":4074.8,"width":118,"height":196},{"id":185,"name":"car_sport_lime_v","type":"prop","rotation":0,"visible":true,"x":1701,"y":4074.8,"width":118,"height":196},{"id":186,"name":"car_blue_v","type":"prop","rotation":0,"visible":true,"x":1925,"y":4074.8,"width":118,"height":196},{"id":187,"name":"car_grey_v","type":"prop","rotation":0,"visible":true,"x":2152,"y":4083.8,"width":112,"height":178},{"id":188,"name":"car_sport_black_v","type":"prop","rotation":0,"visible":true,"x":2373,"y":4074.8,"width":118,"height":196},{"id":189,"name":"car_sport_yellow_v","type":"prop","rotation":0,"visible":true,"x":2597,"y":4074.8,"width":118,"height":196},{"id":190,"name":"car_sport_black_v","type":"prop","rotation":0,"visible":true,"x":2821,"y":4074.8,"width":118,"height":196},{"id":191,"name":"car_red_v","type":"prop","rotation":0,"visible":true,"x":3045,"y":4074.8,"width":118,"height":196},{"id":192,"name":"car_sport_yellow_v","type":"prop","rotation":0,"visible":true,"x":3269,"y":4074.8,"width":118,"height":196},{"id":193,"name":"car_white_v","type":"prop","rotation":0,"visible":true,"x":3493,"y":4074.8,"width":118,"height":196},{"id":194,"name":"car_sport_lime_v","type":"prop","rotation":0,"visible":true,"x":3717,"y":4074.8,"width":118,"height":196},{"id":195,"name":"litovets","type":"npc","rotation":0,"visible":true,"x":1945.6,"y":3910.4,"width":0,"height":0,"point":true,"properties":[{"name":"reach","type":"int","value":130},{"name":"title","type":"string","value":"Литовец · «просто смотрю»"},{"name":"mode","type":"string","value":"idle"},{"name":"hp","type":"int","value":200},{"name":"story","type":"bool","value":true},{"name":"essential","type":"bool","value":true},{"name":"untargetable","type":"bool","value":true},{"name":"angle","type":"int","value":180}]},{"id":196,"name":"getaway","type":"marker","rotation":0,"visible":true,"x":1728,"y":3961.6,"width":0,"height":0,"point":true,"properties":[{"name":"kind","type":"string","value":"car_sport"}]},{"id":197,"name":"normal","type":"enemy","rotation":0,"visible":true,"x":2240,"y":3904,"width":0,"height":0,"point":true,"properties":[{"name":"tag","type":"string","value":"lot"},{"name":"dormant","type":"bool","value":true},{"name":"deaf","type":"bool","value":true}]},{"id":198,"name":"fast","type":"enemy","rotation":0,"visible":true,"x":2368,"y":4006.4,"width":0,"height":0,"point":true,"properties":[{"name":"tag","type":"string","value":"lot"},{"name":"dormant","type":"bool","value":true},{"name":"deaf","type":"bool","value":true}]},{"id":199,"name":"normal","type":"enemy","rotation":0,"visible":true,"x":2528,"y":3891.2,"width":0,"height":0,"point":true,"properties":[{"name":"tag","type":"string","value":"lot"},{"name":"dormant","type":"bool","value":true},{"name":"deaf","type":"bool","value":true}]},{"id":200,"name":"normal","type":"enemy","rotation":0,"visible":true,"x":2688,"y":3980.8,"width":0,"height":0,"point":true,"properties":[{"name":"tag","type":"string","value":"lot"},{"name":"dormant","type":"bool","value":true},{"name":"deaf","type":"bool","value":true}]},{"id":201,"name":"fast","type":"enemy","rotation":0,"visible":true,"x":2816,"y":3904,"width":0,"height":0,"point":true,"properties":[{"name":"tag","type":"string","value":"lot"},{"name":"dormant","type":"bool","value":true},{"name":"deaf","type":"bool","value":true}]},{"id":202,"name":"normal","type":"enemy","rotation":0,"visible":true,"x":2976,"y":4006.4,"width":0,"height":0,"point":true,"properties":[{"name":"tag","type":"string","value":"lot"},{"name":"dormant","type":"bool","value":true},{"name":"deaf","type":"bool","value":true}]},{"id":203,"name":"spitter","type":"enemy","rotation":0,"visible":true,"x":3104,"y":3916.8,"width":0,"height":0,"point":true,"properties":[{"name":"tag","type":"string","value":"lot"},{"name":"dormant","type":"bool","value":true},{"name":"deaf","type":"bool","value":true}]},{"id":204,"name":"normal","type":"enemy","rotation":0,"visible":true,"x":3232,"y":3993.6,"width":0,"height":0,"point":true,"properties":[{"name":"tag","type":"string","value":"lot"},{"name":"dormant","type":"bool","value":true},{"name":"deaf","type":"bool","value":true}]},{"id":205,"name":"fast","type":"enemy","rotation":0,"visible":true,"x":3360,"y":3897.6,"width":0,"height":0,"point":true,"properties":[{"name":"tag","type":"string","value":"lot"},{"name":"dormant","type":"bool","value":true},{"name":"deaf","type":"bool","value":true}]},{"id":206,"name":"normal","type":"enemy","rotation":0,"visible":true,"x":3488,"y":3993.6,"width":0,"height":0,"point":true,"properties":[{"name":"tag","type":"string","value":"lot"},{"name":"dormant","type":"bool","value":true},{"name":"deaf","type":"bool","value":true}]},{"id":207,"name":"armored","type":"enemy","rotation":0,"visible":true,"x":3616,"y":3923.2,"width":0,"height":0,"point":true,"properties":[{"name":"tag","type":"string","value":"lot"},{"name":"dormant","type":"bool","value":true},{"name":"deaf","type":"bool","value":true}]},{"id":208,"name":"normal","type":"enemy","rotation":0,"visible":true,"x":3744,"y":4006.4,"width":0,"height":0,"point":true,"properties":[{"name":"tag","type":"string","value":"lot"},{"name":"dormant","type":"bool","value":true},{"name":"deaf","type":"bool","value":true}]},{"id":209,"name":"fast","type":"enemy","rotation":0,"visible":true,"x":3840,"y":3904,"width":0,"height":0,"point":true,"properties":[{"name":"tag","type":"string","value":"lot"},{"name":"dormant","type":"bool","value":true},{"name":"deaf","type":"bool","value":true}]},{"id":210,"name":"normal","type":"enemy","rotation":0,"visible":true,"x":3929.6,"y":3980.8,"width":0,"height":0,"point":true,"properties":[{"name":"tag","type":"string","value":"lot"},{"name":"dormant","type":"bool","value":true},{"name":"deaf","type":"bool","value":true}]},{"id":211,"name":"lot","type":"spawner","rotation":0,"visible":true,"x":1472,"y":3904,"width":0,"height":0,"point":true,"properties":[{"name":"how","type":"string","value":"rise"}]},{"id":212,"name":"lot","type":"spawner","rotation":0,"visible":true,"x":3936,"y":3686.4,"width":0,"height":0,"point":true,"properties":[{"name":"how","type":"string","value":"rise"}]},{"id":213,"name":"lot","type":"spawner","rotation":0,"visible":true,"x":2099.2,"y":4243.2,"width":0,"height":0,"point":true,"properties":[{"name":"how","type":"string","value":"rise"}]},{"id":214,"name":"lot","type":"spawner","rotation":0,"visible":true,"x":2992,"y":4243.2,"width":0,"height":0,"point":true,"properties":[{"name":"how","type":"string","value":"rise"}]},{"id":215,"name":"fence_v","type":"prop","rotation":0,"visible":true,"x":4051,"y":3840,"width":26,"height":128},{"id":216,"name":"fence_v","type":"prop","rotation":0,"visible":true,"x":4051,"y":3968,"width":26,"height":128},{"id":217,"name":"lot_exit","type":"trigger","rotation":0,"visible":true,"x":4864,"y":3840,"width":448,"height":256,"properties":[{"name":"once","type":"bool","value":false},{"name":"all","type":"bool","value":true}]},{"id":218,"name":"","type":"label","rotation":0,"visible":true,"x":4736,"y":3801.6,"width":0,"height":0,"point":true,"properties":[{"name":"text","type":"string","value":"→ РЫНОК · ЗАВОД «ПРОВАНСАЛЬ»"},{"name":"size","type":"int","value":18},{"name":"color","type":"string","value":"#5a5048"},{"name":"alpha","type":"float","value":0.45}]},{"id":219,"name":"street_lamp","type":"prop","rotation":0,"visible":true,"x":4215,"y":3805.4,"width":18,"height":18},{"id":220,"name":"street_lamp","type":"prop","rotation":0,"visible":true,"x":4599,"y":3805.4,"width":18,"height":18},{"id":221,"name":"street_lamp","type":"prop","rotation":0,"visible":true,"x":4983,"y":3805.4,"width":18,"height":18},{"id":222,"name":"ammo","type":"pickup","rotation":0,"visible":true,"x":2624,"y":3616,"width":0,"height":0,"point":true},{"id":223,"name":"health","type":"pickup","rotation":0,"visible":true,"x":1536,"y":3929.6,"width":0,"height":0,"point":true},{"id":224,"name":"","type":"note","rotation":0,"visible":true,"x":2828.8,"y":3596.8,"width":0,"height":0,"point":true,"properties":[{"name":"text","type":"string","value":"Табличка: «Охраняемая парковка. Охрана — петух. Тариф — 300 ₽/час. Угон — бесплатно»"}]}]}]}